fynngwu/rl_sar-ARES/sim_record/output/recording.csv
timestamp_ms,step,sim_time,phase,phase_name,cmd_x,cmd_y,cmd_yaw,obs_0,obs_1,obs_2,obs_3,obs_4,obs_5,obs_6,obs_7,obs_8,obs_9,obs_10,obs_11,obs_12,obs_13,obs_14,obs_15,obs_16,obs_17,obs_18,obs_19,obs_20,obs_21,obs_22,obs_23,obs_24,obs_25,obs_26,obs_27,obs_28,obs_29,obs_30,obs_31,obs_32,obs_33,obs_34,obs_35,obs_36,obs_37,obs_38,obs_39,obs_40,obs_41,obs_42,obs_43,obs_44,raw_action_0,raw_action_1,raw_action_2,raw_action_3,raw_action_4,raw_action_5,raw_action_6,raw_action_7,raw_action_8,raw_action_9,raw_action_10,raw_action_11,scaled_action_0,scaled_action_1,scaled_action_2,scaled_action_3,scaled_action_4,scaled_action_5,scaled_action_6,scaled_action_7,scaled_action_8,scaled_action_9,scaled_action_10,scaled_action_11,target_q_0,target_q_1,target_q_2,target_q_3,target_q_4,target_q_5,target_q_6,target_q_7,target_q_8,target_q_9,target_q_10,target_q_11,joint_pos_0,joint_pos_1,joint_pos_2,joint_pos_3,joint_pos_4,joint_pos_5,joint_pos_6,joint_pos_7,joint_pos_8,joint_pos_9,joint_pos_10,joint_pos_11,joint_vel_0,joint_vel_1,joint_vel_2,joint_vel_3,joint_vel_4,joint_vel_5,joint_vel_6,joint_vel_7,joint_vel_8,joint_vel_9,joint_vel_10,joint_vel_11
20,0,0.020000,0,Stand,0.000000,0.000000,0.000000,-0.000000,0.000000,-0.000000,0.000000,-0.000000,-1.000000,0.000000,0.000000,0.000000,-0.000000,0.000000,0.000000,0.000000,0.000000,-0.000000,-0.000000,0.000000,0.000000,0.000000,-0.000000,-0.000000,-0.000000,0.000000,0.000000,0.000000,0.000000,-0.000000,-0.000000,0.000000,0.000000,0.000000,-0.000000,0.000000,0.000000,0.000000,0.000000,0.000000,0.000000,0.000000,0.000000,0.000000,0.000000,0.000000,0.000000,0.000000,-0.133649,0.058652,0.111287,-0.065514,-0.404696,-0.041433,0.090925,0.175439,0.646099,0.159546,-0.350556,-0.424489,-0.033412,0.014663,0.027822,-0.016379,-0.101174,-0.010358,0.022731,0.043860,0.161525,0.039886,-0.087639,-0.106122,-0.033412,0.014663,0.027822,-0.016379,-0.101174,-0.010358,0.022731,0.043860,0.161525,0.039886,-0.087639,-0.106122,-0.000000,0.000000,0.000000,0.000000,0.000000,-0.000000,-0.000000,0.000000,0.000000,0.000000,-0.000000,-0.000000,-0.000000,0.000000,0.000000,0.000000,0.000000,-0.000000,-0.000000,0.000000,0.000000,0.000000,-0.000000,0.000000
40,1,0.040000,0,Stand,0.000000,0.000000,0.000000,0.031843,0.013560,0.006257,0.000223,-0.000569,-1.000000,0.000000,0.000000,0.000000,-0.003999,0.003313,0.004688,-0.002057,-0.022734,-0.002958,0.005672,0.010506,0.047846,0.011570,-0.025391,-0.031189,-0.294013,0.229067,0.341162,-0.166655,-1.537239,-0.186761,0.360177,0.683135,2.921445,0.716612,-1.576085,-1.928446,-0.133649,0.058652,0.111287,-0.065514,-0.404696,-0.041433,0.090925,0.175439,0.646099,0.159546,-0.350556,-0.424489,-0.039321,-0.110898,-0.051471,0.112011,-0.204305,0.007631,0.145163,0.143509,0.097463,-0.052722,0.152994,-0.050875,-0.009830,-0.027724,-0.012868,0.028003,-0.051076,0.001908,0.036291,0.035877,0.024366,-0.013180,0.038249,-0.012719,-0.009830,-0.027724,-0.012868,0.028003,-0.051076,0.001908,0.036291,0.035877,0.024366,-0.013180,0.038249,-0.012719,-0.003999,0.003313,0.004688,-0.002057,-0.022734,-0.002958,0.005672,0.010506,0.047846,0.011570,-0.025391,-0.031189,-0.294013,0.229067,0.341162,-0.166655,-1.537239,-0.186761,0.360177,0.683135,2.921445,0.716612,-1.576085,-1.928446
60,2,0.060000,0,Stand,0.000000,0.000000,0.000000,0.068262,0.061309,0.004114,0.001285,-0.001864,-0.999997,0.000000,0.000000,0.000000,-0.008373,0.001687,0.004846,0.000355,-0.038773,-0.003350,0.009861,0.019349,0.062230,0.009566,-0.020693,-0.040366,-0.169429,-0.186308,-0.119444,0.223971,-0.477088,0.057177,0.152699,0.326454,-0.070390,-0.362338,0.811360,0.062510,-0.039321,-0.110898,-0.051471,0.112011,-0.204305,0.007631,0.145163,0.143509,0.097463,-0.052722,0.152994,-0.050875,0.002776,-0.022275,0.010446,-0.038268,-0.173006,0.067547,0.022135,0.071062,0.547406,0.055882,-0.277371,-0.447601,0.000694,-0.005569,0.002611,-0.009567,-0.043252,0.016887,0.005534,0.017765,0.136851,0.013970,-0.069343,-0.111900,0.000694,-0.005569,0.002611,-0.009567,-0.043252,0.016887,0.005534,0.017765,0.136851,0.013970,-0.069343,-0.111900,-0.008373,0.001687,0.004846,0.000355,-0.038773,-0.003350,0.009861,0.019349,0.062230,0.009566,-0.020693,-0.040366,-0.169429,-0.186308,-0.119444,0.223971,-0.477088,0.057177,0.152699,0.326454,-0.070390,-0.362338,0.811360,0.062510
80,3,0.080000,0,Stand,0.000000,0.000000,0.000000,0.186259,-0.047970,-0.097191,0.000315,-0.003851,-0.999993,0.000000,0.000000,0.000000,-0.008870,0.001921,0.004773,0.004116,-0.014519,0.000334,0.008246,0.008125,0.024693,0.007510,-0.017402,-0.026360,0.160057,0.101557,0.135370,0.133785,2.405612,0.192661,-0.960069,-1.791201,-3.576089,0.037110,1.331583,2.637383,0.002776,-0.022275,0.010446,-0.038268,-0.173006,0.067547,0.022135,0.071062,0.547406,0.055882,-0.277371,-0.447601,-0.463514,-0.047819,-0.007811,-0.585333,-0.904447,-0.154252,0.198869,0.231678,1.375529,0.073283,-0.790096,-1.474040,-0.115879,-0.011955,-0.001953,-0.146333,-0.226112,-0.038563,0.049717,0.057919,0.343882,0.018321,-0.197524,-0.368510,-0.115879,-0.011955,-0.001953,-0.146333,-0.226112,-0.038563,0.049717,0.057919,0.343882,0.018321,-0.197524,-0.368510,-0.008870,0.001921,0.004773,0.004116,-0.014519,0.000334,0.008246,0.008125,0.024693,0.007510,-0.017402,-0.026360,0.160057,0.101557,0.135370,0.133785,2.405612,0.192661,-0.960069,-1.791201,-3.576089,0.037110,1.331583,2.637383
100,4,0.100000,1,Forward,1.000000,0.000000,0.000000,-0.293407,0.126757,-0.098367,0.002121,0.001210,-0.999997,1.000000,0.000000,0.000000,-0.002620,-0.001177,0.010005,0.001675,0.021759,0.020250,-0.018245,-0.018583,-0.033497,-0.022290,0.026271,0.017997,0.371931,-0.247150,0.327867,-0.229447,1.306281,0.915111,-1.134622,-0.848252,-2.213420,-1.508670,1.995730,1.541985,-0.463514,-0.047819,-0.007811,-0.585333,-0.904447,-0.154252,0.198869,0.231678,1.375529,0.073283,-0.790096,-1.474040,-0.596465,0.113041,-0.001944,-0.319510,-0.041424,-0.116623,-0.301370,-0.582210,1.916981,0.112975,-1.250270,-2.253367,-0.149116,0.028260,-0.000486,-0.079878,-0.010356,-0.029156,-0.075343,-0.145553,0.479245,0.028244,-0.312567,-0.563342,-0.149116,0.028260,-0.000486,-0.079878,-0.010356,-0.029156,-0.075343,-0.145553,0.479245,0.028244,-0.312567,-0.563342,-0.002620,-0.001177,0.010005,0.001675,0.021759,0.020250,-0.018245,-0.018583,-0.033497,-0.022290,0.026271,0.017997,0.371931,-0.247150,0.327867,-0.229447,1.306281,0.915111,-1.134622,-0.848252,-2.213420,-1.508670,1.995730,1.541985
120,5,0.120000,1,Forward,1.000000,0.000000,0.000000,-0.135682,-0.145829,-0.039126,0.000233,0.004568,-0.999990,1.000000,0.000000,0.000000,0.000145,-0.002385,0.012316,0.000820,0.033507,0.035937,-0.030135,-0.030722,-0.041738,-0.036919,0.036007,0.027125,0.020997,0.029585,0.001990,0.044328,0.196399,0.653732,-0.253038,-0.464789,0.562230,-0.209600,-0.427474,-0.145853,-0.596465,0.113041,-0.001944,-0.319510,-0.041424,-0.116623,-0.301370,-0.582210,1.916981,0.112975,-1.250270,-2.253367,-0.455857,0.006764,-0.147081,-0.252862,0.430968,0.050577,-0.545418,-0.985058,1.693980,-0.236378,-0.061366,-2.627856,-0.113964,0.001691,-0.036770,-0.063215,0.107742,0.012644,-0.136354,-0.246265,0.423495,-0.059094,-0.015341,-0.656964,-0.113964,0.001691,-0.036770,-0.063215,0.107742,0.012644,-0.136354,-0.246265,0.423495,-0.059094,-0.015341,-0.656964,0.000145,-0.002385,0.012316,0.000820,0.033507,0.035937,-0.030135,-0.030722,-0.041738,-0.036919,0.036007,0.027125,0.020997,0.029585,0.001990,0.044328,0.196399,0.653732,-0.253039,-0.464789,0.562230,-0.209600,-0.427474,-0.145853
140,6,0.140000,1,Forward,1.000000,0.000000,0.000000,-0.041331,-0.241325,-0.055670,-0.004563,0.005548,-0.999974,1.000000,0.000000,0.000000,-0.000866,0.002289,0.009754,0.004110,0.034521,0.048536,-0.044795,-0.036706,-0.017938,-0.039161,0.025327,0.011893,-0.073429,0.295029,-0.172416,0.217611,-0.009097,0.591687,-0.950199,-0.213704,1.481995,-0.053368,-0.627184,-1.079304,-0.455857,0.006764,-0.147081,-0.252862,0.430968,0.050577,-0.545418,-0.985058,1.693980,-0.236378,-0.061366,-2.627856,-0.622953,-0.054037,-0.234270,-0.478518,0.275516,0.115620,-0.305498,-1.432485,1.680667,-0.734766,0.917068,-3.019887,-0.155738,-0.013509,-0.058568,-0.119629,0.068879,0.028905,-0.076375,-0.358121,0.420167,-0.183692,0.229267,-0.754972,-0.155738,-0.013509,-0.058568,-0.119629,0.068879,0.028905,-0.076375,-0.358121,0.420167,-0.183692,0.229267,-0.754972,-0.000866,0.002289,0.009754,0.004110,0.034521,0.048536,-0.044795,-0.036706,-0.017938,-0.039161,0.025327,0.011893,-0.073429,0.295029,-0.172416,0.217611,-0.009097,0.591687,-0.950199,-0.213704,1.481995,-0.053368,-0.627184,-1.079304
160,7,0.160000,1,Forward,1.000000,0.000000,0.000000,-0.137536,-0.247221,0.006940,-0.009457,0.007937,-0.999924,1.000000,0.000000,0.000000,-0.002360,0.006651,0.003188,0.006829,0.033475,0.060229,-0.068890,-0.040383,0.016903,-0.072146,0.071441,-0.018054,-0.059561,0.152039,-0.410668,0.070498,-0.057315,0.452494,-1.208131,-0.190172,1.874260,-2.022467,3.049041,-1.714923,-0.622953,-0.054037,-0.234270,-0.478518,0.275516,0.115620,-0.305498,-1.432485,1.680667,-0.734766,0.917068,-3.019887,-0.730251,0.021049,-0.086191,-0.403682,0.002725,-0.065512,-0.019823,-1.156553,1.730663,-0.941855,0.977810,-2.844717,-0.182563,0.005262,-0.021548,-0.100921,0.000681,-0.016378,-0.004956,-0.289138,0.432666,-0.235464,0.244453,-0.711179,-0.182563,0.005262,-0.021548,-0.100921,0.000681,-0.016378,-0.004956,-0.289138,0.432666,-0.235464,0.244453,-0.711179,-0.002360,0.006651,0.003188,0.006829,0.033475,0.060229,-0.068890,-0.040383,0.016903,-0.072146,0.071441,-0.018054,-0.059561,0.152039,-0.410668,0.070498,-0.057315,0.452494,-1.208131,-0.190172,1.874260,-2.022467,3.049041,-1.714923
180,8,0.180000,1,Forward,1.000000,0.000000,0.000000,-0.149744,-0.214297,0.090687,-0.013839,0.011023,-0.999843,1.000000,0.000000,0.000000,-0.005117,0.012657,-0.002800,0.008339,0.029632,0.058758,-0.073564,-0.041412,0.058949,-0.120180,0.132818,-0.059026,-0.177877,0.321809,-0.234620,0.061846,-0.240144,-0.307430,0.437886,-0.020413,2.225363,-2.330388,3.031183,-2.206620,-0.730251,0.021049,-0.086191,-0.403682,0.002725,-0.065512,-0.019823,-1.156553,1.730663,-0.941855,0.977810,-2.844717,-0.667556,-0.057024,-0.053045,-0.313373,-0.155808,-0.059825,-0.010241,-0.778219,1.837786,-0.899441,0.983660,-2.880738,-0.166889,-0.014256,-0.013261,-0.078343,-0.038952,-0.014956,-0.002560,-0.194555,0.459446,-0.224860,0.245915,-0.720185,-0.166889,-0.014256,-0.013261,-0.078343,-0.038952,-0.014956,-0.002560,-0.194555,0.459446,-0.224860,0.245915,-0.720185,-0.005117,0.012657,-0.002800,0.008339,0.029632,0.058758,-0.073564,-0.041412,0.058949,-0.120180,0.132818,-0.059026,-0.177877,0.321809,-0.234620,0.061846,-0.240144,-0.307430,0.437886,-0.020413,2.225363,-2.330387,3.031183,-2.206620
200,9,0.200000,1,Forward,1.000000,0.000000,0.000000,-0.190188,-0.144391,0.153714,-0.016923,0.014774,-0.999748,1.000000,0.000000,0.000000,-0.008620,0.015814,-0.002872,0.008988,0.022492,0.043238,-0.050905,-0.036781,0.107189,-0.157891,0.183548,-0.111295,-0.196387,0.066320,0.100218,0.026181,-0.398514,-1.147565,1.372606,0.314386,2.512037,-1.795136,2.165959,-2.799314,-0.667556,-0.057024,-0.053045,-0.313373,-0.155808,-0.059825,-0.010241,-0.778219,1.837786,-0.899441,0.983660,-2.880738,-0.616548,-0.128074,-0.150206,-0.256174,-0.173569,0.032340,-0.075135,-0.351588,2.122234,-0.866064,1.022280,-2.833987,-0.154137,-0.032018,-0.037552,-0.064044,-0.043392,0.008085,-0.018784,-0.087897,0.530558,-0.216516,0.255570,-0.708497,-0.154137,-0.032018,-0.037552,-0.064044,-0.043392,0.008085,-0.018784,-0.087897,0.530558,-0.216516,0.255570,-0.708497,-0.008620,0.015814,-0.002872,0.008988,0.022492,0.043238,-0.050905,-0.036781,0.107189,-0.157891,0.183548,-0.111295,-0.196387,0.066320,0.100218,0.026181,-0.398514,-1.147565,1.372606,0.314386,2.512037,-1.795136,2.165959,-2.799313
220,10,0.220000,1,Forward,1.000000,0.000000,0.000000,-0.135503,-0.092269,0.146604,-0.018858,0.017707,-0.999665,1.000000,0.000000,0.000000,-0.013356,0.013852,-0.003331,0.010949,0.012500,0.019425,-0.025872,-0.026441,0.162586,-0.185160,0.217614,-0.173816,-0.264059,-0.180006,-0.077474,0.131066,-0.530077,-1.124509,1.116280,0.586127,2.887450,-1.113160,1.406124,-3.276717,-0.616548,-0.128074,-0.150206,-0.256174,-0.173569,0.032340,-0.075135,-0.351588,2.122234,-0.866064,1.022280,-2.833987,-0.632743,-0.161506,-0.163712,-0.315659,-0.307536,-0.116650,0.136128,-0.127215,2.422437,-0.891869,1.128926,-2.692603,-0.158186,-0.040377,-0.040928,-0.078915,-0.076884,-0.029162,0.034032,-0.031804,0.605609,-0.222967,0.282232,-0.673151,-0.158186,-0.040377,-0.040928,-0.078915,-0.076884,-0.029162,0.034032,-0.031804,0.605609,-0.222967,0.282232,-0.673151,-0.013356,0.013852,-0.003331,0.010949,0.012500,0.019425,-0.025872,-0.026441,0.162586,-0.185160,0.217614,-0.173816,-0.264059,-0.180006,-0.077474,0.131066,-0.530077,-1.124509,1.116280,0.586127,2.887450,-1.113160,1.406124,-3.276717
240,11,0.240000,1,Forward,1.000000,0.000000,0.000000,-0.007122,-0.103718,0.131337,-0.020814,0.018283,-0.999616,1.000000,0.000000,0.000000,-0.020186,0.007208,-0.007307,0.015299,-0.000749,-0.005955,0.001019,-0.013551,0.226935,-0.201761,0.243969,-0.242559,-0.382836,-0.398286,-0.233185,0.255831,-0.702032,-1.241794,1.363325,0.638185,3.366049,-0.679671,1.186198,-3.497924,-0.632743,-0.161506,-0.163712,-0.315659,-0.307536,-0.116650,0.136128,-0.127215,2.422437,-0.891869,1.128926,-2.692603,-0.498587,-0.093399,-0.145433,-0.264619,-0.185451,-0.125230,0.309907,0.075749,2.136929,-0.552667,0.740498,-2.266868,-0.124647,-0.023350,-0.036358,-0.066155,-0.046363,-0.031308,0.077477,0.018937,0.534232,-0.138167,0.185124,-0.566717,-0.124647,-0.023350,-0.036358,-0.066155,-0.046363,-0.031308,0.077477,0.018937,0.534232,-0.138167,0.185124,-0.566717,-0.020186,0.007208,-0.007307,0.015299,-0.000749,-0.005955,0.001019,-0.013551,0.226935,-0.201761,0.243969,-0.242559,-0.382836,-0.398286,-0.233185,0.255831,-0.702032,-1.241794,1.363325,0.638185,3.366048,-0.679671,1.186198,-3.497924
260,12,0.260000,1,Forward,1.000000,0.000000,0.000000,-0.018802,-0.109312,0.127418,-0.022969,0.018589,-0.999563,1.000000,0.000000,0.000000,-0.027284,-0.000115,-0.013180,0.019688,-0.011460,-0.027060,0.034304,-0.002860,0.290225,-0.187742,0.233989,-0.309275,-0.340228,-0.328490,-0.278539,0.196355,-0.427260,-0.880050,1.662672,0.451057,3.023604,1.095082,-1.003000,-3.221679,-0.498587,-0.093399,-0.145433,-0.264619,-0.185451,-0.125230,0.309907,0.075749,2.136929,-0.552667,0.740498,-2.266868,-0.211153,0.094065,0.074542,0.026281,0.137963,-0.264591,0.664537,-0.151004,1.721083,-0.150555,0.187988,-0.830621,-0.052788,0.023516,0.018635,0.006570,0.034491,-0.066148,0.166134,-0.037751,0.430271,-0.037639,0.046997,-0.207655,-0.052788,0.023516,0.018635,0.006570,0.034491,-0.066148,0.166134,-0.037751,0.430271,-0.037639,0.046997,-0.207655,-0.027284,-0.000115,-0.013180,0.019688,-0.011460,-0.027060,0.034304,-0.002860,0.290225,-0.187742,0.233989,-0.309275,-0.340228,-0.328490,-0.278539,0.196355,-0.427260,-0.880050,1.662672,0.451057,3.023604,1.095082,-1.003000,-3.221679
280,13,0.280000,1,Forward,1.000000,0.000000,0.000000,-0.000692,-0.177361,0.091313,-0.026260,0.018730,-0.999480,1.000000,0.000000,0.000000,-0.034187,0.000824,-0.011079,0.019627,-0.010490,-0.044400,0.079783,-0.020732,0.337595,-0.137519,0.172936,-0.306745,-0.350710,0.236364,0.319802,-0.048711,0.319925,-0.790211,2.379387,-1.244527,1.977526,2.765343,-3.455121,1.212459,-0.211153,0.094065,0.074542,0.026281,0.137963,-0.264591,0.664537,-0.151004,1.721083,-0.150555,0.187988,-0.830621,0.018659,0.191213,0.189041,0.194621,0.331116,-0.017242,0.640029,-0.520542,1.529149,0.368428,-0.308974,0.494658,0.004665,0.047803,0.047260,0.048655,0.082779,-0.004311,0.160007,-0.130135,0.382287,0.092107,-0.077244,0.123665,0.004665,0.047803,0.047260,0.048655,0.082779,-0.004311,0.160007,-0.130135,0.382287,0.092107,-0.077244,0.123665,-0.034187,0.000824,-0.011079,0.019627,-0.010490,-0.044400,0.079783,-0.020732,0.337595,-0.137519,0.172936,-0.306745,-0.350710,0.236364,0.319802,-0.048711,0.319925,-0.790211,2.379387,-1.244527,1.977526,2.765343,-3.455121,1.212459
300,14,0.300000,1,Forward,1.000000,0.000000,0.000000,-0.056214,-0.272778,-0.004012,-0.031495,0.019652,-0.999311,1.000000,0.000000,0.000000,-0.036645,0.012537,0.004934,0.022146,0.011997,-0.044439,0.121907,-0.078092,0.358842,-0.054462,0.078378,-0.186118,-0.047645,0.730643,1.007666,0.264111,1.441171,0.354977,1.855118,-3.121321,0.620066,4.276089,-4.738106,7.160504,0.018659,0.191213,0.189041,0.194621,0.331116,-0.017242,0.640029,-0.520542,1.529149,0.368428,-0.308974,0.494658,-0.172464,0.221364,0.263022,-0.045389,0.176956,0.383955,0.308256,-0.376055,1.804723,0.921126,-0.604119,1.000355,-0.043116,0.055341,0.065756,-0.011347,0.044239,0.095989,0.077064,-0.094014,0.451181,0.230281,-0.151030,0.250089,-0.043116,0.055341,0.065756,-0.011347,0.044239,0.095989,0.077064,-0.094014,0.451181,0.230281,-0.151030,0.250089,-0.036645,0.012537,0.004934,0.022146,0.011997,-0.044439,0.121907,-0.078092,0.358842,-0.054462,0.078378,-0.186118,-0.047645,0.730643,1.007666,0.264111,1.441171,0.354977,1.855118,-3.121321,0.620066,4.276089,-4.738106,7.160504
320,15,0.320000,1,Forward,1.000000,0.000000,0.000000,-0.073125,-0.377716,-0.077256,-0.038677,0.021199,-0.999027,1.000000,0.000000,0.000000,-0.039323,0.030707,0.031383,0.021035,0.041108,-0.015075,0.133116,-0.118952,0.373465,0.052637,-0.017565,-0.015265,-0.233477,0.897772,1.371586,-0.141363,1.705878,1.728663,-0.059277,-1.343417,0.343941,5.067018,-4.425581,8.269658,-0.172464,0.221364,0.263022,-0.045389,0.176956,0.383955,0.308256,-0.376055,1.804723,0.921126,-0.604119,1.000355,-0.232411,0.221482,0.408440,-0.102520,0.275346,0.264110,0.225332,-0.157596,2.012190,1.377432,-0.850601,1.536998,-0.058103,0.055370,0.102110,-0.025630,0.068836,0.066027,0.056333,-0.039399,0.503048,0.344358,-0.212650,0.384250,-0.058103,0.055370,0.102110,-0.025630,0.068836,0.066027,0.056333,-0.039399,0.503048,0.344358,-0.212650,0.384250,-0.039323,0.030707,0.031383,0.021035,0.041108,-0.015075,0.133116,-0.118952,0.373465,0.052637,-0.017565,-0.015265,-0.233477,0.897772,1.371586,-0.141363,1.705878,1.728663,-0.059277,-1.343417,0.343941,5.067018,-4.425581,8.269658
340,16,0.340000,1,Forward,1.000000,0.000000,0.000000,0.499273,-0.389485,-0.110828,-0.047007,0.013461,-0.998804,1.000000,0.000000,0.000000,-0.050948,0.047988,0.059529,0.013246,0.078416,0.017511,0.118207,-0.116998,0.375580,0.124616,-0.101645,0.152569,-0.927163,1.041039,1.128947,-0.579429,1.788685,2.165124,-0.932608,0.928177,-0.008757,0.789963,-3.695659,7.721669,-0.232411,0.221482,0.408440,-0.102520,0.275346,0.264110,0.225332,-0.157596,2.012190,1.377432,-0.850601,1.536998,0.146456,0.344868,0.458097,0.202457,1.337002,0.442367,0.242694,-0.159392,0.691974,2.182806,-1.289962,1.929956,0.036614,0.086217,0.114524,0.050614,0.334250,0.110592,0.060674,-0.039848,0.172993,0.545701,-0.322491,0.482489,0.036614,0.086217,0.114524,0.050614,0.334250,0.110592,0.060674,-0.039848,0.172993,0.545701,-0.322491,0.482489,-0.050948,0.047988,0.059529,0.013246,0.078416,0.017511,0.118207,-0.116998,0.375580,0.124616,-0.101645,0.152569,-0.927163,1.041039,1.128947,-0.579429,1.788685,2.165124,-0.932608,0.928177,-0.008757,0.789963,-3.695659,7.721669
360,17,0.360000,1,Forward,1.000000,0.000000,0.000000,1.230992,0.481439,-0.030876,-0.040459,-0.008187,-0.999148,1.000000,0.000000,0.000000,-0.056214,0.071906,0.065460,0.008168,0.145729,0.055199,0.103954,-0.080888,0.313303,0.115487,-0.165943,0.297190,0.129235,1.125440,-0.318108,-0.221572,3.815984,1.644210,-1.412645,2.084246,-3.810838,-0.630736,-0.894969,6.440817,0.146456,0.344868,0.458097,0.202457,1.337002,0.442367,0.242694,-0.159392,0.691974,2.182806,-1.289962,1.929956,0.102618,0.592199,0.920235,0.230623,1.141017,0.507986,0.336688,0.176406,-0.374264,2.400487,-2.332711,2.050272,0.025655,0.148050,0.230059,0.057656,0.285254,0.126997,0.084172,0.044101,-0.093566,0.600122,-0.583178,0.512568,0.025655,0.148050,0.230059,0.057656,0.285254,0.126997,0.084172,0.044101,-0.093566,0.600122,-0.583178,0.512568,-0.056214,0.071906,0.065460,0.008168,0.145729,0.055199,0.103954,-0.080888,0.313303,0.115487,-0.165943,0.297190,0.129235,1.125440,-0.318108,-0.221572,3.815984,1.644210,-1.412645,2.084246,-3.810838,-0.630736,-0.894969,6.440817
380,18,0.380000,1,Forward,1.000000,0.000000,0.000000,0.204239,0.488924,0.037586,-0.030437,-0.014976,-0.999425,1.000000,0.000000,0.000000,-0.042772,0.079924,0.061191,0.001850,0.221745,0.084727,0.060469,-0.023919,0.177971,0.109364,-0.139881,0.398704,0.966019,0.071976,-0.051702,-0.277037,3.268093,1.360336,-2.256705,2.983427,-7.305158,-0.024119,1.595524,4.206513,0.102618,0.592199,0.920235,0.230623,1.141017,0.507986,0.336688,0.176406,-0.374264,2.400487,-2.332711,2.050272,0.144333,1.061739,1.047240,0.362465,0.666200,0.361871,0.347495,0.510841,-0.670667,2.862877,-3.092833,2.003560,0.036083,0.265435,0.261810,0.090616,0.166550,0.090468,0.086874,0.127710,-0.167667,0.715719,-0.773208,0.500890,0.036083,0.265435,0.261810,0.090616,0.166550,0.090468,0.086874,0.127710,-0.167667,0.715719,-0.773208,0.500890,-0.042772,0.079924,0.061191,0.001850,0.221745,0.084727,0.060469,-0.023919,0.177971,0.109364,-0.139881,0.398704,0.966019,0.071976,-0.051702,-0.277037,3.268093,1.360336,-2.256705,2.983427,-7.305158,-0.024119,1.595524,4.206513
400,19,0.400000,1,Forward,1.000000,0.000000,0.000000,-0.098203,0.305104,0.039307,-0.023832,-0.013415,-0.999626,1.000000,0.000000,0.000000,-0.021169,0.079302,0.060844,0.007859,0.240227,0.102450,0.026274,0.046399,0.035886,0.129186,-0.130889,0.452637,1.027570,-0.080798,0.006805,0.515210,-0.209968,0.671743,-1.374244,3.490440,-6.475440,1.531626,-0.321673,1.985555,0.144333,1.061739,1.047240,0.362465,0.666200,0.361871,0.347495,0.510841,-0.670667,2.862877,-3.092833,2.003560,0.270902,1.303488,1.062131,0.372364,0.468168,0.113863,0.413387,0.668381,-0.943535,3.177276,-3.098442,1.628050,0.067726,0.325872,0.265533,0.093091,0.117042,0.028466,0.103347,0.167095,-0.235884,0.794319,-0.774611,0.407013,0.067726,0.325872,0.265533,0.093091,0.117042,0.028466,0.103347,0.167095,-0.235884,0.794319,-0.774611,0.407013,-0.021169,0.079302,0.060844,0.007859,0.240227,0.102450,0.026274,0.046399,0.035886,0.129186,-0.130889,0.452637,1.027571,-0.080798,0.006805,0.515210,-0.209968,0.671743,-1.374244,3.490440,-6.475440,1.531626,-0.321673,1.985555
420,20,0.420000,1,Forward,1.000000,0.000000,0.000000,-0.025717,0.257715,-0.019246,-0.018696,-0.012532,-0.999747,1.000000,0.000000,0.000000,0.000190,0.080082,0.058941,0.021840,0.204968,0.101819,0.010368,0.114451,-0.081562,0.183494,-0.158796,0.450320,0.995762,0.101876,-0.134247,0.723044,-2.352419,-0.346654,-0.479811,3.102505,-5.203023,3.317067,-2.021457,-0.788374,0.270902,1.303488,1.062131,0.372364,0.468168,0.113863,0.413387,0.668381,-0.943535,3.177276,-3.098442,1.628050,0.294505,1.145764,0.995749,0.390111,0.216933,-0.343942,0.487053,0.819033,-1.035513,3.408995,-2.926039,1.274458,0.073626,0.286441,0.248937,0.097528,0.054233,-0.085985,0.121763,0.204758,-0.258878,0.852249,-0.731510,0.318614,0.073626,0.286441,0.248937,0.097528,0.054233,-0.085985,0.121763,0.204758,-0.258878,0.852249,-0.731510,0.318614,0.000190,0.080082,0.058941,0.021840,0.204968,0.101819,0.010368,0.114451,-0.081562,0.183494,-0.158796,0.450320,0.995762,0.101876,-0.134247,0.723044,-2.352419,-0.346654,-0.479811,3.102505,-5.203024,3.317067,-2.021457,-0.788374
440,21,0.440000,1,Forward,1.000000,0.000000,0.000000,0.101016,0.443412,-0.072593,-0.010471,-0.014205,-0.999844,1.000000,0.000000,0.000000,0.018373,0.083528,0.054434,0.034924,0.141399,0.075733,0.010464,0.171653,-0.164969,0.275322,-0.211899,0.405060,0.806751,0.200377,-0.239319,0.590618,-3.329651,-1.722644,0.259721,2.528084,-3.494877,5.208813,-3.032531,-2.540603,0.294505,1.145764,0.995749,0.390111,0.216933,-0.343942,0.487053,0.819033,-1.035513,3.408995,-2.926039,1.274458,0.006297,0.506831,0.605231,0.351071,-0.328513,-0.011358,0.113208,1.164487,-0.955118,2.467629,-1.992974,0.716931,0.001574,0.126708,0.151308,0.087768,-0.082128,-0.002839,0.028302,0.291122,-0.238780,0.616907,-0.498244,0.179233,0.001574,0.126708,0.151308,0.087768,-0.082128,-0.002839,0.028302,0.291122,-0.238780,0.616907,-0.498244,0.179233,0.018373,0.083528,0.054434,0.034924,0.141399,0.075733,0.010464,0.171653,-0.164969,0.275322,-0.211899,0.405060,0.806751,0.200377,-0.239319,0.590618,-3.329651,-1.722644,0.259721,2.528084,-3.494877,5.208813,-3.032531,-2.540603
460,22,0.460000,1,Forward,1.000000,0.000000,0.000000,-0.054857,0.403755,-0.100220,-0.002124,-0.013675,-0.999904,1.000000,0.000000,0.000000,0.022856,0.085305,0.052269,0.048752,0.059043,0.046002,0.013128,0.224875,-0.208048,0.374036,-0.270131,0.322072,-0.064314,0.010408,-0.003102,0.662279,-4.222547,-1.293982,0.068806,2.515952,-1.550693,4.726288,-2.877966,-4.307040,0.006297,0.506831,0.605231,0.351071,-0.328513,-0.011358,0.113208,1.164487,-0.955118,2.467629,-1.992974,0.716931,-0.319708,-0.120001,-0.347436,-0.037689,-0.607124,1.525009,-1.073893,1.331575,-0.151337,0.205746,0.028212,-0.091115,-0.079927,-0.030000,-0.086859,-0.009422,-0.151781,0.381252,-0.268473,0.332894,-0.037834,0.051436,0.007053,-0.022779,-0.079927,-0.030000,-0.086859,-0.009422,-0.151781,0.381252,-0.268473,0.332894,-0.037834,0.051436,0.007053,-0.022779,0.022856,0.085305,0.052269,0.048752,0.059043,0.046002,0.013128,0.224875,-0.208048,0.374036,-0.270131,0.322072,-0.064314,0.010408,-0.003102,0.662279,-4.222546,-1.293982,0.068806,2.515952,-1.550693,4.726288,-2.877966,-4.307040
480,23,0.480000,1,Forward,1.000000,0.000000,0.000000,-0.104411,0.128018,-0.011507,0.001175,-0.011586,-0.999932,1.000000,0.000000,0.000000,0.002190,0.073445,0.037402,0.048001,-0.029060,0.113581,-0.052912,0.270884,-0.169458,0.308038,-0.208107,0.195271,-1.456345,-1.037121,-1.138101,-0.424491,-4.220850,4.931558,-4.433146,2.079241,2.910424,-5.624514,4.753911,-6.476564,-0.319708,-0.120001,-0.347436,-0.037689,-0.607124,1.525009,-1.073893,1.331575,-0.151337,0.205746,0.028212,-0.091115,-0.046373,0.406961,-0.152862,-0.090308,0.055178,0.965245,-0.624263,0.767765,0.207461,-0.271086,0.278693,-0.107082,-0.011593,0.101740,-0.038216,-0.022577,0.013794,0.241311,-0.156066,0.191941,0.051865,-0.067772,0.069673,-0.026771,-0.011593,0.101740,-0.038216,-0.022577,0.013794,0.241311,-0.156066,0.191941,0.051865,-0.067772,0.069673,-0.026771,0.002190,0.073445,0.037402,0.048001,-0.029060,0.113581,-0.052912,0.270884,-0.169458,0.308038,-0.208107,0.195271,-1.456345,-1.037121,-1.138101,-0.424491,-4.220850,4.931558,-4.433147,2.079241,2.910424,-5.624514,4.753912,-6.476564
500,24,0.500000,1,Forward,1.000000,0.000000,0.000000,-0.147354,0.125155,-0.000199,0.003517,-0.008821,-0.999955,1.000000,0.000000,0.000000,-0.019237,0.066245,0.007575,0.026129,-0.067665,0.197953,-0.122932,0.276202,-0.089262,0.164702,-0.099070,0.090757,-0.831796,-0.076194,-1.593480,-1.328128,-0.790023,3.552090,-2.847743,-0.523642,4.044565,-7.033805,5.212928,-4.388038,-0.046373,0.406961,-0.152862,-0.090308,0.055178,0.965245,-0.624263,0.767765,0.207461,-0.271086,0.278693,-0.107082,-0.404636,0.248787,0.012791,-0.192126,0.192377,0.591877,-0.736818,0.317528,0.632763,-0.745024,0.655198,-0.574977,-0.101159,0.062197,0.003198,-0.048031,0.048094,0.147969,-0.184204,0.079382,0.158191,-0.186256,0.163800,-0.143744,-0.101159,0.062197,0.003198,-0.048031,0.048094,0.147969,-0.184204,0.079382,0.158191,-0.186256,0.163800,-0.143744,-0.019237,0.066245,0.007575,0.026129,-0.067665,0.197953,-0.122932,0.276202,-0.089262,0.164702,-0.099070,0.090757,-0.831796,-0.076194,-1.593480,-1.328128,-0.790023,3.552091,-2.847743,-0.523642,4.044565,-7.033805,5.212928,-4.388038
520,25,0.520000,1,Forward,1.000000,0.000000,0.000000,-0.144067,0.134988,0.030643,0.006229,-0.005854,-0.999963,1.000000,0.000000,0.000000,-0.047614,0.059511,-0.011703,-0.005570,-0.053942,0.227318,-0.168213,0.232101,0.006443,0.021180,0.010102,-0.003533,-1.585605,-0.399307,-0.654665,-1.614772,1.319099,0.390712,-1.825739,-2.840874,4.655659,-6.648912,5.065127,-4.467981,-0.404636,0.248787,0.012791,-0.192126,0.192377,0.591877,-0.736818,0.317528,0.632763,-0.745024,0.655198,-0.574977,-0.433742,0.059451,-0.011846,-0.358690,-0.354773,0.278751,-0.363983,0.453566,1.108969,-0.944260,0.983574,-0.946861,-0.108436,0.014863,-0.002961,-0.089673,-0.088693,0.069688,-0.090996,0.113391,0.277242,-0.236065,0.245893,-0.236715,-0.108436,0.014863,-0.002961,-0.089673,-0.088693,0.069688,-0.090996,0.113391,0.277242,-0.236065,0.245893,-0.236715,-0.047614,0.059511,-0.011703,-0.005570,-0.053942,0.227318,-0.168213,0.232101,0.006443,0.021180,0.010102,-0.003533,-1.585605,-0.399307,-0.654665,-1.614772,1.319099,0.390712,-1.825739,-2.840875,4.655659,-6.648912,5.065127,-4.467981
540,26,0.540000,1,Forward,1.000000,0.000000,0.000000,-0.197235,0.243637,0.049841,0.010820,-0.002043,-0.999939,1.000000,0.000000,0.000000,-0.069697,0.042010,-0.020135,-0.038758,-0.052413,0.196232,-0.172426,0.184199,0.113533,-0.094155,0.109393,-0.097533,-0.797599,-0.981798,-0.265737,-1.407559,-0.432295,-2.310123,0.542931,-1.927883,5.058461,-5.028015,4.529872,-4.165067,-0.433742,0.059451,-0.011846,-0.358690,-0.354773,0.278751,-0.363983,0.453566,1.108969,-0.944260,0.983574,-0.946861,-0.640854,0.091355,-0.009548,-0.553447,-0.402262,0.070536,-0.206258,0.429581,1.555857,-1.235805,1.519180,-1.473499,-0.160214,0.022839,-0.002387,-0.138362,-0.100565,0.017634,-0.051565,0.107395,0.388964,-0.308951,0.379795,-0.368375,-0.160214,0.022839,-0.002387,-0.138362,-0.100565,0.017634,-0.051565,0.107395,0.388964,-0.308951,0.379795,-0.368375,-0.069697,0.042010,-0.020135,-0.038758,-0.052413,0.196232,-0.172426,0.184199,0.113533,-0.094155,0.109393,-0.097533,-0.797599,-0.981798,-0.265737,-1.407559,-0.432295,-2.310123,0.542931,-1.927883,5.058461,-5.028015,4.529872,-4.165067
560,27,0.560000,1,Forward,1.000000,0.000000,0.000000,0.121321,0.239316,-0.027273,0.014889,-0.004566,-0.999879,1.000000,0.000000,0.000000,-0.077825,0.035908,-0.016417,-0.047595,-0.006549,0.129884,-0.139740,0.135503,0.112847,-0.187092,0.215468,-0.121974,-0.248207,0.065450,0.506290,0.026926,3.104833,-3.687653,2.183260,-2.977818,-1.668552,-4.140721,5.121849,1.237174,-0.640854,0.091355,-0.009548,-0.553447,-0.402262,0.070536,-0.206258,0.429581,1.555857,-1.235805,1.519180,-1.473499,-1.070362,-0.044011,-0.224778,-1.422422,-0.532758,-0.017321,0.014733,0.320705,2.835782,-1.408898,1.835000,-2.337662,-0.267591,-0.011003,-0.056194,-0.355606,-0.133189,-0.004330,0.003683,0.080176,0.708946,-0.352224,0.458750,-0.584416,-0.267591,-0.011003,-0.056194,-0.355606,-0.133189,-0.004330,0.003683,0.080176,0.708946,-0.352224,0.458750,-0.584416,-0.077825,0.035908,-0.016417,-0.047595,-0.006549,0.129884,-0.139740,0.135503,0.112847,-0.187092,0.215468,-0.121974,-0.248207,0.065450,0.506290,0.026926,3.104833,-3.687653,2.183260,-2.977818,-1.668552,-4.140721,5.121849,1.237174
580,28,0.580000,1,Forward,1.000000,0.000000,0.000000,0.052399,0.216469,-0.108224,0.019506,-0.005799,-0.999793,1.000000,0.000000,0.000000,-0.079229,0.037458,-0.007575,-0.046543,0.048570,0.055447,-0.078200,0.081506,0.091974,-0.260080,0.316296,-0.098990,0.014021,0.086745,0.404273,0.033602,2.439533,-3.525046,3.309769,-2.455466,-0.438991,-3.185464,4.600570,0.750247,-1.070362,-0.044011,-0.224778,-1.422422,-0.532758,-0.017321,0.014733,0.320705,2.835782,-1.408898,1.835000,-2.337662,-1.306583,-0.099157,-0.328644,-1.688143,-1.006763,-0.124795,0.426658,0.377803,3.054373,-1.326073,1.812992,-2.455960,-0.326646,-0.024789,-0.082161,-0.422036,-0.251691,-0.031199,0.106664,0.094451,0.763593,-0.331518,0.453248,-0.613990,-0.326646,-0.024789,-0.082161,-0.422036,-0.251691,-0.031199,0.106664,0.094451,0.763593,-0.331518,0.453248,-0.613990,-0.079229,0.037458,-0.007575,-0.046543,0.048570,0.055447,-0.078200,0.081506,0.091974,-0.260080,0.316296,-0.098990,0.014021,0.086745,0.404273,0.033602,2.439533,-3.525046,3.309769,-2.455466,-0.438991,-3.185464,4.600570,0.750247
600,29,0.600000,1,Forward,1.000000,0.000000,0.000000,0.108053,0.135716,-0.067762,0.022419,-0.007697,-0.999719,1.000000,0.000000,0.000000,-0.078576,0.037141,-0.008543,-0.046409,0.080186,-0.008231,0.004160,0.044225,0.111051,-0.299819,0.382710,-0.106310,0.043477,-0.066455,-0.199593,-0.014087,1.102591,-2.822462,4.199600,-1.535871,1.746479,-1.426803,2.634316,-1.019581,-1.306583,-0.099157,-0.328644,-1.688143,-1.006763,-0.124795,0.426658,0.377803,3.054373,-1.326073,1.812992,-2.455960,-1.206752,-0.392001,-0.295363,-1.243436,-1.495198,-0.383351,0.785593,0.785013,3.251701,-1.248880,1.532439,-2.786761,-0.301688,-0.098000,-0.073841,-0.310859,-0.373800,-0.095838,0.196398,0.196253,0.812925,-0.312220,0.383110,-0.696690,-0.301688,-0.098000,-0.073841,-0.310859,-0.373800,-0.095838,0.196398,0.196253,0.812925,-0.312220,0.383110,-0.696690,-0.078576,0.037141,-0.008543,-0.046409,0.080186,-0.008231,0.004160,0.044225,0.111051,-0.299819,0.382710,-0.106310,0.043477,-0.066455,-0.199593,-0.014087,1.102591,-2.822462,4.199600,-1.535871,1.746479,-1.426803,2.634316,-1.019581
620,30,0.620000,1,Forward,1.000000,0.000000,0.000000,0.283858,0.243781,-0.047802,0.026887,-0.012794,-0.999557,1.000000,0.000000,0.000000,-0.078075,0.022223,-0.014776,-0.044071,0.082445,-0.066712,0.096248,0.033874,0.172419,-0.309529,0.397697,-0.156318,-0.018212,-0.996876,-0.316318,0.191291,-0.414294,-2.741158,4.458057,-0.007849,3.793044,-0.162502,0.084122,-3.265865,-1.206752,-0.392001,-0.295363,-1.243436,-1.495198,-0.383351,0.785593,0.785013,3.251701,-1.248880,1.532439,-2.786761,-0.892205,-0.356297,-0.138349,-0.783307,-1.094087,-0.768552,1.096869,0.587195,2.935217,-0.788229,0.967331,-2.505282,-0.223051,-0.089074,-0.034587,-0.195827,-0.273522,-0.192138,0.274217,0.146799,0.733804,-0.197057,0.241833,-0.626321,-0.223051,-0.089074,-0.034587,-0.195827,-0.273522,-0.192138,0.274217,0.146799,0.733804,-0.197057,0.241833,-0.626321,-0.078075,0.022223,-0.014776,-0.044071,0.082445,-0.066712,0.096248,0.033874,0.172419,-0.309529,0.397697,-0.156318,-0.018212,-0.996876,-0.316318,0.191291,-0.414294,-2.741158,4.458057,-0.007849,3.793044,-0.162502,0.084122,-3.265865
640,31,0.640000,1,Forward,1.000000,0.000000,0.000000,0.544923,0.295362,-0.043554,0.032735,-0.022980,-0.999200,1.000000,0.000000,0.000000,-0.080533,-0.002553,-0.016372,-0.037224,0.063986,-0.128029,0.184231,0.042534,0.263343,-0.275799,0.351964,-0.235513,-0.197669,-1.259267,0.049660,0.416807,-1.200031,-2.965828,4.070994,0.636960,4.964307,2.125881,-2.861802,-4.291087,-0.892205,-0.356297,-0.138349,-0.783307,-1.094087,-0.768552,1.096869,0.587195,2.935217,-0.788229,0.967331,-2.505282,0.115530,0.200164,0.146124,0.143545,0.769372,-1.205632,1.055688,-0.569264,0.359764,-0.338071,0.478124,-0.231464,0.028883,0.050041,0.036531,0.035886,0.192343,-0.301408,0.263922,-0.142316,0.089941,-0.084518,0.119531,-0.057866,0.028883,0.050041,0.036531,0.035886,0.192343,-0.301408,0.263922,-0.142316,0.089941,-0.084518,0.119531,-0.057866,-0.080533,-0.002553,-0.016372,-0.037224,0.063986,-0.128029,0.184231,0.042534,0.263343,-0.275799,0.351964,-0.235513,-0.197669,-1.259267,0.049660,0.416807,-1.200031,-2.965828,4.070994,0.636960,4.964307,2.125881,-2.861802,-4.291087
660,32,0.660000,1,Forward,1.000000,0.000000,0.000000,0.626652,0.268766,-0.065670,0.038219,-0.035399,-0.998642,1.000000,0.000000,0.000000,-0.071387,-0.007236,-0.005045,-0.024802,0.090470,-0.193236,0.243179,0.001556,0.250344,-0.207025,0.267517,-0.212664,0.794909,0.283682,0.791937,0.754933,2.239311,-3.207248,2.291253,-2.973130,-2.411468,3.570284,-4.316644,2.790848,0.115530,0.200164,0.146124,0.143545,0.769372,-1.205632,1.055688,-0.569264,0.359764,-0.338071,0.478124,-0.231464,0.179553,0.226102,-0.115561,-0.138103,0.732879,-0.590846,0.428749,-0.488318,0.119046,0.174407,-0.073729,0.411263,0.044888,0.056526,-0.028890,-0.034526,0.183220,-0.147711,0.107187,-0.122079,0.029762,0.043602,-0.018432,0.102816,0.044888,0.056526,-0.028890,-0.034526,0.183220,-0.147711,0.107187,-0.122079,0.029762,0.043602,-0.018432,0.102816,-0.071387,-0.007236,-0.005045,-0.024802,0.090470,-0.193236,0.243179,0.001556,0.250344,-0.207025,0.267517,-0.212664,0.794909,0.283682,0.791937,0.754933,2.239311,-3.207248,2.291253,-2.973130,-2.411468,3.570284,-4.316644,2.790848
680,33,0.680000,1,Forward,1.000000,0.000000,0.000000,0.613402,0.249537,-0.077409,0.043339,-0.047576,-0.997927,1.000000,0.000000,0.000000,-0.041283,0.010106,0.001422,-0.019183,0.137910,-0.217991,0.241689,-0.064489,0.174403,-0.114131,0.158857,-0.106191,1.891684,1.097531,0.092906,0.124300,2.114220,-0.305249,-1.135385,-3.022834,-4.036733,4.631392,-5.359107,5.786064,0.179553,0.226102,-0.115561,-0.138103,0.732879,-0.590846,0.428749,-0.488318,0.119046,0.174407,-0.073729,0.411263,-0.125365,0.283941,0.005748,-0.257409,0.927020,-0.607812,0.619065,-0.150317,-0.046358,0.465214,-0.449130,1.081386,-0.031341,0.070985,0.001437,-0.064352,0.231755,-0.151953,0.154766,-0.037579,-0.011590,0.116304,-0.112283,0.270347,-0.031341,0.070985,0.001437,-0.064352,0.231755,-0.151953,0.154766,-0.037579,-0.011590,0.116304,-0.112283,0.270347,-0.041283,0.010106,0.001422,-0.019183,0.137910,-0.217991,0.241689,-0.064489,0.174403,-0.114131,0.158857,-0.106191,1.891684,1.097531,0.092906,0.124300,2.114220,-0.305249,-1.135385,-3.022834,-4.036733,4.631392,-5.359107,5.786064
700,34,0.700000,1,Forward,1.000000,0.000000,0.000000,0.599587,0.307223,-0.101863,0.049334,-0.059444,-0.997012,1.000000,0.000000,0.000000,-0.018816,0.035946,0.002612,-0.024884,0.181033,-0.209258,0.214742,-0.094404,0.093833,-0.018020,0.046334,0.037813,0.756179,1.301978,0.007901,-0.450402,2.032167,0.769169,-1.284710,-0.625166,-3.652063,4.463763,-5.099149,7.069114,-0.125365,0.283941,0.005748,-0.257409,0.927020,-0.607812,0.619065,-0.150317,-0.046358,0.465214,-0.449130,1.081386,-0.213758,0.313150,0.290520,-0.084228,1.034694,-0.640324,0.736978,-0.083711,-0.249852,0.524062,-1.132958,1.412378,-0.053439,0.078288,0.072630,-0.021057,0.258673,-0.160081,0.184244,-0.020928,-0.062463,0.131015,-0.283239,0.353095,-0.053439,0.078288,0.072630,-0.021057,0.258673,-0.160081,0.184244,-0.020928,-0.062463,0.131015,-0.283239,0.353095,-0.018816,0.035946,0.002612,-0.024884,0.181033,-0.209258,0.214742,-0.094404,0.093833,-0.018020,0.046334,0.037813,0.756179,1.301978,0.007901,-0.450402,2.032167,0.769169,-1.284710,-0.625166,-3.652063,4.463763,-5.099149,7.069114
720,35,0.720000,1,Forward,1.000000,0.000000,0.000000,0.068703,0.060578,-0.125981,0.051874,-0.063103,-0.996658,1.000000,0.000000,0.000000,-0.017058,0.055101,0.010466,-0.030059,0.220922,-0.188429,0.186204,-0.084952,0.025047,0.054455,-0.033379,0.173387,-0.193264,0.597010,0.609213,-0.301259,1.856088,1.205729,-2.630009,0.956345,-3.032630,3.030423,-0.931610,6.094078,-0.213758,0.313150,0.290520,-0.084228,1.034694,-0.640324,0.736978,-0.083711,-0.249852,0.524062,-1.132958,1.412378,-0.073811,0.588204,0.300772,0.116887,1.365618,-0.555427,0.838424,0.015198,-0.526035,1.021667,-2.001773,1.766341,-0.018453,0.147051,0.075193,0.029222,0.341405,-0.138857,0.209606,0.003800,-0.131509,0.255417,-0.500443,0.441585,-0.018453,0.147051,0.075193,0.029222,0.341405,-0.138857,0.209606,0.003800,-0.131509,0.255417,-0.500443,0.441585,-0.017058,0.055101,0.010466,-0.030059,0.220922,-0.188429,0.186204,-0.084952,0.025047,0.054455,-0.033379,0.173387,-0.193264,0.597010,0.609213,-0.301259,1.856088,1.205729,-2.630009,0.956345,-3.032630,3.030423,-0.931610,6.094078
740,36,0.740000,1,Forward,1.000000,0.000000,0.000000,-1.279697,-0.904430,-0.120600,0.036553,-0.040793,-0.998499,1.000000,0.000000,0.000000,-0.022955,0.066514,0.036046,-0.025878,0.265883,-0.160257,0.120192,-0.055311,-0.039323,0.131308,-0.034297,0.288798,-0.312861,0.369898,1.620412,0.461937,2.253095,1.414789,-3.406863,1.653317,-2.975857,3.770235,-0.223320,5.187106,-0.073811,0.588204,0.300772,0.116887,1.365618,-0.555427,0.838424,0.015198,-0.526035,1.021667,-2.001773,1.766341,0.196924,0.883471,0.103166,0.133717,0.891411,-0.619728,0.612427,0.376272,-0.821160,1.552258,-1.583380,1.573348,0.049231,0.220868,0.025791,0.033429,0.222853,-0.154932,0.153107,0.094068,-0.205290,0.388065,-0.395845,0.393337,0.049231,0.220868,0.025791,0.033429,0.222853,-0.154932,0.153107,0.094068,-0.205290,0.388065,-0.395845,0.393337,-0.022955,0.066514,0.036046,-0.025878,0.265883,-0.160257,0.120192,-0.055311,-0.039323,0.131308,-0.034297,0.288798,-0.312861,0.369898,1.620412,0.461937,2.253095,1.414789,-3.406863,1.653317,-2.975857,3.770235,-0.223320,5.187106
760,37,0.760000,1,Forward,1.000000,0.000000,0.000000,-0.813765,-0.892652,0.009227,0.016961,-0.020560,-0.999645,1.000000,0.000000,0.000000,-0.017496,0.067178,0.056790,-0.009363,0.272417,-0.106871,0.055470,0.000573,-0.103502,0.155169,-0.038518,0.351289,0.378459,-0.222043,0.472103,0.820460,-0.647918,3.664891,-3.050035,3.185494,-3.057021,-1.128661,-0.109990,2.185610,0.196924,0.883471,0.103166,0.133717,0.891411,-0.619728,0.612427,0.376272,-0.821160,1.552258,-1.583380,1.573348,0.307191,1.352723,0.701647,0.172222,0.919950,-0.580460,0.818781,0.614242,-1.274842,2.616501,-2.193033,1.682507,0.076798,0.338181,0.175412,0.043056,0.229988,-0.145115,0.204695,0.153560,-0.318710,0.654125,-0.548258,0.420627,0.076798,0.338181,0.175412,0.043056,0.229988,-0.145115,0.204695,0.153560,-0.318710,0.654125,-0.548258,0.420627,-0.017496,0.067178,0.056790,-0.009363,0.272417,-0.106871,0.055470,0.000573,-0.103502,0.155169,-0.038518,0.351289,0.378459,-0.222043,0.472103,0.820460,-0.647918,3.664891,-3.050035,3.185494,-3.057021,-1.128661,-0.109990,2.185610
780,38,0.780000,1,Forward,1.000000,0.000000,0.000000,0.137295,-0.206728,0.120875,0.011039,-0.021200,-0.999714,1.000000,0.000000,0.000000,-0.005814,0.068660,0.054159,0.000474,0.245909,-0.051016,0.009866,0.075543,-0.184359,0.143873,-0.049576,0.383243,0.649340,0.273388,-0.429758,0.299287,-1.552212,2.141388,-1.898559,3.742895,-4.035090,0.116583,-0.796552,1.284280,0.307191,1.352723,0.701647,0.172222,0.919950,-0.580460,0.818781,0.614242,-1.274842,2.616501,-2.193033,1.682507,0.241956,1.454271,1.205196,0.395168,0.627025,-0.585374,1.322132,0.816823,-1.429485,3.322379,-2.996545,1.563993,0.060489,0.363568,0.301299,0.098792,0.156756,-0.146343,0.330533,0.204206,-0.357371,0.830595,-0.749136,0.390998,0.060489,0.363568,0.301299,0.098792,0.156756,-0.146343,0.330533,0.204206,-0.357371,0.830595,-0.749136,0.390998,-0.005814,0.068660,0.054159,0.000474,0.245909,-0.051016,0.009866,0.075543,-0.184359,0.143873,-0.049576,0.383243,0.649340,0.273388,-0.429758,0.299287,-1.552212,2.141388,-1.898559,3.742895,-4.035090,0.116583,-0.796552,1.284280
800,39,0.800000,1,Forward,1.000000,0.000000,0.000000,0.263683,0.156307,0.070819,0.013360,-0.026598,-0.999557,1.000000,0.000000,0.000000,0.004435,0.074133,0.045255,0.009499,0.201829,-0.033297,-0.008605,0.151734,-0.259009,0.181384,-0.088302,0.390648,0.423554,0.253348,-0.411269,0.489977,-2.346365,0.245920,-0.422313,3.563441,-3.324445,2.815803,-2.573119,0.061277,0.241956,1.454271,1.205196,0.395168,0.627025,-0.585374,1.322132,0.816823,-1.429485,3.322379,-2.996545,1.563993,0.152559,1.258348,1.068921,0.459313,0.201411,-0.742749,1.552813,0.889147,-1.485878,2.978456,-2.671076,1.118470,0.038140,0.314587,0.267230,0.114828,0.050353,-0.185687,0.388203,0.222287,-0.371469,0.744614,-0.667769,0.279617,0.038140,0.314587,0.267230,0.114828,0.050353,-0.185687,0.388203,0.222287,-0.371469,0.744614,-0.667769,0.279617,0.004435,0.074133,0.045255,0.009499,0.201829,-0.033297,-0.008605,0.151734,-0.259009,0.181384,-0.088302,0.390648,0.423554,0.253348,-0.411269,0.489977,-2.346365,0.245920,-0.422313,3.563441,-3.324445,2.815803,-2.573120,0.061277
820,40,0.820000,1,Forward,1.000000,0.000000,0.000000,0.036594,0.326809,-0.044785,0.019505,-0.027967,-0.999419,1.000000,0.000000,0.000000,0.009541,0.077518,0.039759,0.024142,0.139500,-0.044780,-0.003904,0.211936,-0.311505,0.260056,-0.154680,0.356901,0.157490,0.104006,-0.156611,0.798212,-3.251003,-0.959282,0.586700,2.531691,-2.187349,4.493067,-3.752291,-2.105935,0.152559,1.258348,1.068921,0.459313,0.201411,-0.742749,1.552813,0.889147,-1.485878,2.978456,-2.671076,1.118470,-0.263520,0.280345,0.365841,0.251590,-0.488873,0.171514,0.223785,1.233850,-1.093154,1.688444,-1.474623,0.626168,-0.065880,0.070086,0.091460,0.062898,-0.122218,0.042878,0.055946,0.308463,-0.273288,0.422111,-0.368656,0.156542,-0.065880,0.070086,0.091460,0.062898,-0.122218,0.042878,0.055946,0.308463,-0.273288,0.422111,-0.368656,0.156542,0.009541,0.077518,0.039759,0.024142,0.139500,-0.044780,-0.003904,0.211936,-0.311505,0.260056,-0.154680,0.356901,0.157490,0.104006,-0.156611,0.798212,-3.251003,-0.959282,0.586700,2.531691,-2.187349,4.493067,-3.752291,-2.105935
840,41,0.840000,1,Forward,1.000000,0.000000,0.000000,-0.288378,0.101439,-0.096608,0.022378,-0.022967,-0.999486,1.000000,0.000000,0.000000,-0.002340,0.076336,0.040844,0.039359,0.051707,-0.040797,-0.000038,0.258381,-0.313873,0.326340,-0.223709,0.285069,-0.933008,-0.147865,0.188248,0.659527,-4.632494,0.729882,0.021336,2.080533,0.556617,2.731791,-3.307150,-3.766334,-0.263520,0.280345,0.365841,0.251590,-0.488873,0.171514,0.223785,1.233850,-1.093154,1.688444,-1.474623,0.626168,-0.158012,0.010389,-0.471706,-0.157387,-0.780761,1.046116,-1.278405,1.414696,-0.367898,-0.059460,0.195908,0.163977,-0.039503,0.002597,-0.117927,-0.039347,-0.195190,0.261529,-0.319601,0.353674,-0.091974,-0.014865,0.048977,0.040994,-0.039503,0.002597,-0.117927,-0.039347,-0.195190,0.261529,-0.319601,0.353674,-0.091974,-0.014865,0.048977,0.040994,-0.002340,0.076336,0.040844,0.039359,0.051707,-0.040797,-0.000038,0.258381,-0.313873,0.326340,-0.223709,0.285069,-0.933009,-0.147865,0.188248,0.659527,-4.632494,0.729882,0.021336,2.080533,0.556617,2.731791,-3.307150,-3.766334
860,42,0.860000,1,Forward,1.000000,0.000000,0.000000,-0.291999,-0.025956,-0.010132,0.022091,-0.016871,-0.999614,1.000000,0.000000,0.000000,-0.017597,0.068171,0.024827,0.033525,-0.049782,0.040825,-0.072433,0.297438,-0.245468,0.244880,-0.164243,0.190902,-0.736963,-0.610019,-1.298139,-0.760933,-4.940297,5.115456,-4.851070,1.799953,4.052542,-5.884309,4.742345,-4.623435,-0.158012,0.010389,-0.471706,-0.157387,-0.780761,1.046116,-1.278405,1.414696,-0.367898,-0.059460,0.195908,0.163977,-0.111605,0.310683,-0.199485,-0.110804,0.101871,0.609671,-0.948057,0.724122,0.148527,-0.721695,0.526880,-0.073542,-0.027901,0.077671,-0.049871,-0.027701,0.025468,0.152418,-0.237014,0.181030,0.037132,-0.180424,0.131720,-0.018385,-0.027901,0.077671,-0.049871,-0.027701,0.025468,0.152418,-0.237014,0.181030,0.037132,-0.180424,0.131720,-0.018385,-0.017597,0.068171,0.024827,0.033525,-0.049782,0.040825,-0.072433,0.297438,-0.245468,0.244880,-0.164243,0.190902,-0.736963,-0.610019,-1.298139,-0.760933,-4.940296,5.115456,-4.851070,1.799953,4.052542,-5.884310,4.742345,-4.623435
880,43,0.880000,1,Forward,1.000000,0.000000,0.000000,-0.318035,-0.041333,0.017849,0.021275,-0.010662,-0.999717,1.000000,0.000000,0.000000,-0.032083,0.061018,-0.005655,0.010627,-0.088074,0.124305,-0.159847,0.292806,-0.140584,0.086080,-0.049351,0.102703,-0.648992,-0.256339,-1.589472,-1.261515,-0.473869,3.385607,-3.863070,-1.098927,5.209291,-7.923012,5.563519,-3.996868,-0.111605,0.310683,-0.199485,-0.110804,0.101871,0.609671,-0.948057,0.724122,0.148527,-0.721695,0.526880,-0.073542,-0.498584,0.112444,0.066691,-0.147000,-0.063233,0.176385,-0.702213,0.392872,0.524048,-1.079019,0.819822,-0.573707,-0.124646,0.028111,0.016673,-0.036750,-0.015808,0.044096,-0.175553,0.098218,0.131012,-0.269755,0.204956,-0.143427,-0.124646,0.028111,0.016673,-0.036750,-0.015808,0.044096,-0.175553,0.098218,0.131012,-0.269755,0.204956,-0.143427,-0.032083,0.061018,-0.005655,0.010627,-0.088074,0.124305,-0.159847,0.292806,-0.140584,0.086080,-0.049351,0.102703,-0.648992,-0.256339,-1.589472,-1.261515,-0.473869,3.385607,-3.863070,-1.098927,5.209291,-7.923012,5.563519,-3.996868
900,44,0.900000,1,Forward,1.000000,0.000000,0.000000,-0.353669,-0.030460,0.046883,0.020649,-0.003657,-0.999780,1.000000,0.000000,0.000000,-0.059446,0.046090,-0.021083,-0.015280,-0.078997,0.143810,-0.206954,0.244063,-0.029277,-0.064650,0.058208,0.006933,-1.609199,-0.878337,-0.369349,-1.237481,0.853563,-0.195136,-1.507487,-2.927186,5.228402,-6.813851,4.871903,-4.680748,-0.498584,0.112444,0.066691,-0.147000,-0.063233,0.176385,-0.702213,0.392872,0.524048,-1.079019,0.819822,-0.573707,-0.606895,0.022809,-0.003520,-0.377936,-0.488849,0.170389,-0.205075,0.479276,1.057352,-1.106667,1.087128,-0.971357,-0.151724,0.005702,-0.000880,-0.094484,-0.122212,0.042597,-0.051269,0.119819,0.264338,-0.276667,0.271782,-0.242839,-0.151724,0.005702,-0.000880,-0.094484,-0.122212,0.042597,-0.051269,0.119819,0.264338,-0.276667,0.271782,-0.242839,-0.059446,0.046090,-0.021083,-0.015280,-0.078997,0.143810,-0.206954,0.244063,-0.029277,-0.064650,0.058208,0.006933,-1.609199,-0.878337,-0.369349,-1.237481,0.853563,-0.195136,-1.507487,-2.927186,5.228402,-6.813851,4.871903,-4.680748
920,45,0.920000,1,Forward,1.000000,0.000000,0.000000,-0.413977,0.037315,0.054325,0.021238,0.004485,-0.999764,1.000000,0.000000,0.000000,-0.086524,0.026498,-0.025537,-0.043345,-0.083217,0.117735,-0.191450,0.193802,0.088072,-0.169737,0.148862,-0.093004,-1.096727,-0.940088,-0.094047,-1.246211,-0.617477,-1.690886,1.763583,-2.047041,5.527475,-4.309635,4.076192,-4.459141,-0.606895,0.022809,-0.003520,-0.377936,-0.488849,0.170389,-0.205075,0.479276,1.057352,-1.106667,1.087128,-0.971357,-0.814506,0.025093,0.037011,-0.538675,-0.576021,-0.138034,-0.177459,0.593571,1.535462,-1.504724,1.609573,-1.284665,-0.203626,0.006273,0.009253,-0.134669,-0.144005,-0.034508,-0.044365,0.148393,0.383866,-0.376181,0.402393,-0.321166,-0.203626,0.006273,0.009253,-0.134669,-0.144005,-0.034508,-0.044365,0.148393,0.383866,-0.376181,0.402393,-0.321166,-0.086524,0.026498,-0.025537,-0.043345,-0.083217,0.117735,-0.191450,0.193802,0.088072,-0.169737,0.148862,-0.093004,-1.096727,-0.940088,-0.094047,-1.246211,-0.617477,-1.690886,1.763583,-2.047041,5.527475,-4.309635,4.076192,-4.459141
940,46,0.940000,1,Forward,1.000000,0.000000,0.000000,0.157764,0.004792,0.004254,0.020626,0.001970,-0.999785,1.000000,0.000000,0.000000,-0.098957,0.022807,-0.016578,-0.049233,-0.028931,0.062944,-0.140595,0.140600,0.079963,-0.255200,0.247560,-0.113470,-0.485171,0.190524,0.796479,0.162301,3.512794,-3.163270,2.911856,-3.303503,-2.086476,-3.909657,4.810270,1.509243,-0.814506,0.025093,0.037011,-0.538675,-0.576021,-0.138034,-0.177459,0.593571,1.535462,-1.504724,1.609573,-1.284665,-1.018715,-0.110880,-0.214685,-1.390104,-0.755548,-0.162074,-0.023641,0.503468,2.718527,-1.543720,1.903403,-2.073317,-0.254679,-0.027720,-0.053671,-0.347526,-0.188887,-0.040519,-0.005910,0.125867,0.679632,-0.385930,0.475851,-0.518329,-0.254679,-0.027720,-0.053671,-0.347526,-0.188887,-0.040519,-0.005910,0.125867,0.679632,-0.385930,0.475851,-0.518329,-0.098957,0.022807,-0.016578,-0.049233,-0.028931,0.062944,-0.140595,0.140600,0.079963,-0.255200,0.247560,-0.113470,-0.485171,0.190524,0.796479,0.162301,3.512794,-3.163270,2.911856,-3.303502,-2.086476,-3.909657,4.810270,1.509243
960,47,0.960000,1,Forward,1.000000,0.000000,0.000000,0.120976,0.017485,-0.058328,0.021142,-0.000733,-0.999776,1.000000,0.000000,0.000000,-0.103931,0.024856,-0.003062,-0.046457,0.032502,-0.000108,-0.072401,0.080449,0.051557,-0.316668,0.342394,-0.084236,-0.133591,0.067155,0.591467,0.100023,2.691138,-2.952601,3.444730,-2.695714,-0.768004,-2.540749,4.325058,1.010802,-1.018715,-0.110880,-0.214685,-1.390104,-0.755548,-0.162074,-0.023641,0.503468,2.718527,-1.543720,1.903403,-2.073317,-1.301913,-0.146121,-0.339293,-1.676372,-1.226636,-0.239393,0.424743,0.471610,3.094029,-1.405171,1.819016,-2.485954,-0.325478,-0.036530,-0.084823,-0.419093,-0.306659,-0.059848,0.106186,0.117902,0.773507,-0.351293,0.454754,-0.621489,-0.325478,-0.036530,-0.084823,-0.419093,-0.306659,-0.059848,0.106186,0.117902,0.773507,-0.351293,0.454754,-0.621489,-0.103931,0.024856,-0.003062,-0.046457,0.032502,-0.000108,-0.072401,0.080449,0.051557,-0.316668,0.342394,-0.084236,-0.133591,0.067155,0.591467,0.100023,2.691138,-2.952602,3.444730,-2.695714,-0.768004,-2.540749,4.325058,1.010802
980,48,0.980000,1,Forward,1.000000,0.000000,0.000000,0.141435,-0.019810,-0.011271,0.020820,-0.003429,-0.999777,1.000000,0.000000,0.000000,-0.105332,0.025109,-0.002697,-0.045402,0.066088,-0.052424,0.011203,0.041745,0.067498,-0.341253,0.399747,-0.090459,-0.032813,-0.019296,-0.186400,0.017065,1.122342,-2.283154,4.214985,-1.522063,1.674316,-0.694567,2.160289,-1.060566,-1.301913,-0.146121,-0.339293,-1.676372,-1.226636,-0.239393,0.424743,0.471610,3.094029,-1.405171,1.819016,-2.485954,-1.157780,-0.414770,-0.325470,-1.212982,-1.607189,-0.498489,0.798324,0.789574,3.375431,-1.338855,1.502090,-2.923409,-0.289445,-0.103693,-0.081367,-0.303245,-0.401797,-0.124622,0.199581,0.197393,0.843858,-0.334714,0.375523,-0.730852,-0.289445,-0.103693,-0.081367,-0.303245,-0.401797,-0.124622,0.199581,0.197393,0.843858,-0.334714,0.375523,-0.730852,-0.105332,0.025109,-0.002697,-0.045402,0.066088,-0.052424,0.011203,0.041745,0.067498,-0.341253,0.399747,-0.090459,-0.032813,-0.019296,-0.186400,0.017065,1.122342,-2.283154,4.214985,-1.522063,1.674316,-0.694567,2.160289,-1.060566
1000,49,1.000000,1,Forward,1.000000,0.000000,0.000000,0.253047,0.086612,0.007591,0.022171,-0.008124,-0.999721,1.000000,0.000000,0.000000,-0.105054,0.012365,-0.010292,-0.043063,0.066989,-0.101487,0.103398,0.033161,0.130351,-0.340521,0.404193,-0.143695,0.006038,-0.874370,-0.413921,0.171313,-0.528421,-2.330090,4.451023,0.116098,3.946952,0.250321,-0.417959,-3.485758,-1.157780,-0.414770,-0.325470,-1.212982,-1.607189,-0.498489,0.798324,0.789574,3.375431,-1.338855,1.502090,-2.923409,-0.816867,-0.342811,-0.153166,-0.696722,-1.051595,-0.855945,1.104163,0.545873,2.903455,-0.878349,0.919461,-2.428932,-0.204217,-0.085703,-0.038291,-0.174180,-0.262899,-0.213986,0.276041,0.136468,0.725864,-0.219587,0.229865,-0.607233,-0.204217,-0.085703,-0.038291,-0.174180,-0.262899,-0.213986,0.276041,0.136468,0.725864,-0.219587,0.229865,-0.607233,-0.105054,0.012365,-0.010292,-0.043063,0.066989,-0.101487,0.103398,0.033161,0.130351,-0.340521,0.404193,-0.143695,0.006038,-0.874370,-0.413921,0.171313,-0.528421,-2.330090,4.451023,0.116098,3.946952,0.250321,-0.417959,-3.485758
1020,50,1.020000,1,Forward,1.000000,0.000000,0.000000,0.475075,0.077668,0.003503,0.023835,-0.017031,-0.999571,1.000000,0.000000,0.000000,-0.106492,-0.009105,-0.014023,-0.036945,0.047140,-0.154696,0.190039,0.042036,0.224549,-0.301692,0.349669,-0.224729,-0.129145,-1.088511,-0.053686,0.369322,-1.250903,-2.593363,3.981825,0.592541,5.137577,2.309530,-3.242172,-4.320711,-0.816867,-0.342811,-0.153166,-0.696722,-1.051595,-0.855945,1.104163,0.545873,2.903455,-0.878349,0.919461,-2.428932,0.146080,0.256616,0.113400,0.198088,0.825425,-1.175401,0.966883,-0.628143,0.260937,-0.351359,0.392263,-0.130179,0.036520,0.064154,0.028350,0.049522,0.206356,-0.293850,0.241721,-0.157036,0.065234,-0.087840,0.098066,-0.032545,0.036520,0.064154,0.028350,0.049522,0.206356,-0.293850,0.241721,-0.157036,0.065234,-0.087840,0.098066,-0.032545,-0.106492,-0.009105,-0.014023,-0.036945,0.047140,-0.154696,0.190039,0.042036,0.224549,-0.301692,0.349669,-0.224729,-0.129145,-1.088511,-0.053686,0.369322,-1.250903,-2.593363,3.981825,0.592541,5.137577,2.309530,-3.242172,-4.320711
1040,51,1.040000,1,Forward,1.000000,0.000000,0.000000,0.545325,0.012842,-0.043083,0.024263,-0.027869,-0.999317,1.000000,0.000000,0.000000,-0.092125,-0.007989,-0.005401,-0.023032,0.077038,-0.208520,0.242210,-0.002668,0.214867,-0.225620,0.257355,-0.197727,1.131624,0.606600,0.647788,0.876242,2.500997,-2.587524,1.862642,-3.202532,-2.269746,3.973613,-4.682939,3.057722,0.146080,0.256616,0.113400,0.198088,0.825425,-1.175401,0.966883,-0.628143,0.260937,-0.351359,0.392263,-0.130179,0.131610,0.204204,-0.097116,-0.116912,0.629267,-0.560462,0.450216,-0.447184,0.115321,0.124295,-0.038635,0.448661,0.032903,0.051051,-0.024279,-0.029228,0.157317,-0.140115,0.112554,-0.111796,0.028830,0.031074,-0.009659,0.112165,0.032903,0.051051,-0.024279,-0.029228,0.157317,-0.140115,0.112554,-0.111796,0.028830,0.031074,-0.009659,0.112165,-0.092125,-0.007989,-0.005401,-0.023032,0.077038,-0.208520,0.242210,-0.002668,0.214867,-0.225620,0.257355,-0.197727,1.131624,0.606600,0.647788,0.876242,2.500997,-2.587524,1.862642,-3.202532,-2.269746,3.973613,-4.682939,3.057722
1060,52,1.060000,1,Forward,1.000000,0.000000,0.000000,0.475125,0.001731,-0.062637,0.024358,-0.037495,-0.999000,1.000000,0.000000,0.000000,-0.055964,0.011598,0.000914,-0.015239,0.123938,-0.222265,0.237103,-0.067723,0.149741,-0.128013,0.151471,-0.091602,2.163963,1.115777,0.132183,0.219123,1.994432,0.183945,-1.193760,-2.858318,-3.395196,4.791377,-5.062129,5.686711,0.131610,0.204204,-0.097116,-0.116912,0.629267,-0.560462,0.450216,-0.447184,0.115321,0.124295,-0.038635,0.448661,-0.168299,0.255014,0.097525,-0.274422,0.760083,-0.469292,0.532254,-0.098726,-0.016488,0.478575,-0.398031,1.180604,-0.042075,0.063753,0.024381,-0.068605,0.190021,-0.117323,0.133064,-0.024681,-0.004122,0.119644,-0.099508,0.295151,-0.042075,0.063753,0.024381,-0.068605,0.190021,-0.117323,0.133064,-0.024681,-0.004122,0.119644,-0.099508,0.295151,-0.055964,0.011598,0.000914,-0.015239,0.123938,-0.222265,0.237103,-0.067723,0.149741,-0.128013,0.151471,-0.091602,2.163963,1.115777,0.132183,0.219123,1.994432,0.183945,-1.193760,-2.858318,-3.395197,4.791377,-5.062129,5.686711
1080,53,1.080000,1,Forward,1.000000,0.000000,0.000000,0.400418,0.050067,-0.082149,0.025271,-0.045688,-0.998636,1.000000,0.000000,0.000000,-0.028956,0.035734,0.008336,-0.021858,0.160492,-0.200678,0.204630,-0.092980,0.083040,-0.026016,0.046036,0.054651,0.929691,1.191658,0.455501,-0.547052,1.628733,1.441337,-1.760225,-0.363773,-3.012290,4.784956,-4.901593,7.245998,-0.168299,0.255014,0.097525,-0.274422,0.760083,-0.469292,0.532254,-0.098726,-0.016488,0.478575,-0.398031,1.180604,-0.213402,0.276556,0.411500,-0.065227,0.864234,-0.519371,0.653219,-0.078116,-0.128541,0.563294,-0.904933,1.445860,-0.053350,0.069139,0.102875,-0.016307,0.216058,-0.129843,0.163305,-0.019529,-0.032135,0.140823,-0.226233,0.361465,-0.053350,0.069139,0.102875,-0.016307,0.216058,-0.129843,0.163305,-0.019529,-0.032135,0.140823,-0.226233,0.361465,-0.028956,0.035734,0.008336,-0.021858,0.160492,-0.200678,0.204630,-0.092980,0.083040,-0.026016,0.046036,0.054651,0.929691,1.191658,0.455501,-0.547052,1.628733,1.441338,-1.760225,-0.363773,-3.012290,4.784956,-4.901593,7.245998
1100,54,1.100000,1,Forward,1.000000,0.000000,0.000000,0.244864,0.015935,-0.119835,0.025872,-0.051065,-0.998360,1.000000,0.000000,0.000000,-0.023132,0.055149,0.027349,-0.025324,0.190715,-0.170364,0.183354,-0.079698,0.030008,0.054151,-0.060662,0.189635,0.017768,0.814108,1.034693,-0.018996,1.357572,1.484017,-0.666195,1.111463,-2.288970,3.409647,-4.938447,6.023427,-0.213402,0.276556,0.411500,-0.065227,0.864234,-0.519371,0.653219,-0.078116,-0.128541,0.563294,-0.904933,1.445860,-0.083912,0.388236,0.416602,0.059763,1.049903,-0.531848,0.752189,0.005578,-0.375239,0.931532,-1.434154,1.735911,-0.020978,0.097059,0.104150,0.014941,0.262476,-0.132962,0.188047,0.001394,-0.093810,0.232883,-0.358538,0.433978,-0.020978,0.097059,0.104150,0.014941,0.262476,-0.132962,0.188047,0.001394,-0.093810,0.232883,-0.358538,0.433978,-0.023132,0.055149,0.027349,-0.025324,0.190715,-0.170364,0.183354,-0.079698,0.030008,0.054151,-0.060662,0.189635,0.017768,0.814108,1.034693,-0.018996,1.357572,1.484017,-0.666195,1.111463,-2.288970,3.409647,-4.938447,6.023428
1120,55,1.120000,1,Forward,1.000000,0.000000,0.000000,-0.755353,-0.536459,-0.120914,0.017116,-0.039067,-0.999090,1.000000,0.000000,0.000000,-0.022711,0.061380,0.047551,-0.022860,0.221249,-0.143148,0.135260,-0.049475,-0.020069,0.127823,-0.081699,0.298302,0.003109,0.006037,1.213983,0.222928,1.477232,1.226767,-3.032762,1.621040,-2.342027,3.426610,0.085864,4.784781,-0.083912,0.388236,0.416602,0.059763,1.049903,-0.531848,0.752189,0.005578,-0.375239,0.931532,-1.434154,1.735911,0.099418,0.827313,0.203024,0.108603,0.836571,-0.543814,0.651386,0.415763,-0.857667,1.544385,-1.826634,1.712858,0.024854,0.206828,0.050756,0.027151,0.209143,-0.135953,0.162847,0.103941,-0.214417,0.386096,-0.456659,0.428215,0.024854,0.206828,0.050756,0.027151,0.209143,-0.135953,0.162847,0.103941,-0.214417,0.386096,-0.456659,0.428215,-0.022711,0.061380,0.047551,-0.022860,0.221249,-0.143148,0.135260,-0.049475,-0.020069,0.127823,-0.081699,0.298302,0.003109,0.006037,1.213983,0.222928,1.477232,1.226767,-3.032762,1.621040,-2.342027,3.426610,0.085864,4.784781
1140,56,1.140000,1,Forward,1.000000,0.000000,0.000000,-0.862976,-0.841090,-0.071148,0.000265,-0.020367,-0.999793,1.000000,0.000000,0.000000,-0.019204,0.065196,0.068591,-0.011479,0.230578,-0.105952,0.072295,0.004078,-0.089027,0.176554,-0.076413,0.365253,0.075678,-0.134297,0.644148,0.575002,-0.208399,3.362241,-3.053550,3.107874,-3.547415,-0.654448,0.364496,2.591188,0.099418,0.827313,0.203024,0.108603,0.836571,-0.543814,0.651386,0.415763,-0.857667,1.544385,-1.826634,1.712858,0.293577,1.313502,0.666264,0.175526,0.787204,-0.685040,0.767064,0.593607,-1.153825,2.620965,-2.365796,1.609135,0.073394,0.328376,0.166566,0.043882,0.196801,-0.171260,0.191766,0.148402,-0.288456,0.655241,-0.591449,0.402284,0.073394,0.328376,0.166566,0.043882,0.196801,-0.171260,0.191766,0.148402,-0.288456,0.655241,-0.591449,0.402284,-0.019204,0.065196,0.068591,-0.011479,0.230578,-0.105952,0.072295,0.004078,-0.089027,0.176554,-0.076413,0.365253,0.075678,-0.134297,0.644148,0.575002,-0.208399,3.362241,-3.053550,3.107874,-3.547415,-0.654448,0.364496,2.591188
1160,57,1.160000,1,Forward,1.000000,0.000000,0.000000,0.188494,-0.127490,0.089955,-0.004195,-0.021594,-0.999758,1.000000,0.000000,0.000000,-0.011950,0.067449,0.067388,-0.003544,0.208985,-0.048392,0.025215,0.077358,-0.168242,0.156872,-0.076129,0.390504,0.481045,0.314233,-0.416527,0.262977,-1.387717,2.283691,-1.984689,3.641062,-3.772165,-0.489166,-0.213232,0.730397,0.293577,1.313502,0.666264,0.175526,0.787204,-0.685040,0.767064,0.593607,-1.153825,2.620965,-2.365796,1.609135,0.257874,1.486683,1.258248,0.423042,0.579583,-0.549993,1.351028,0.809592,-1.376901,3.533630,-3.263040,1.607337,0.064468,0.371671,0.314562,0.105761,0.144896,-0.137498,0.337757,0.202398,-0.344225,0.883408,-0.815760,0.401834,0.064468,0.371671,0.314562,0.105761,0.144896,-0.137498,0.337757,0.202398,-0.344225,0.883408,-0.815760,0.401834,-0.011950,0.067449,0.067388,-0.003544,0.208985,-0.048392,0.025215,0.077358,-0.168242,0.156872,-0.076129,0.390504,0.481045,0.314233,-0.416527,0.262977,-1.387718,2.283691,-1.984689,3.641062,-3.772165,-0.489166,-0.213232,0.730397
1180,58,1.180000,1,Forward,1.000000,0.000000,0.000000,0.354016,0.230418,0.057959,-0.000341,-0.028735,-0.999587,1.000000,0.000000,0.000000,-0.002770,0.073696,0.058327,0.006417,0.171257,-0.029199,0.006245,0.151704,-0.241853,0.185239,-0.106214,0.394889,0.433496,0.289954,-0.429045,0.575397,-1.979468,0.264996,-0.415293,3.482099,-3.344499,2.476914,-2.232788,0.060360,0.257874,1.486683,1.258248,0.423042,0.579583,-0.549993,1.351028,0.809592,-1.376901,3.533630,-3.263040,1.607337,0.193342,1.281483,1.139338,0.481053,0.180171,-0.714142,1.550575,0.868140,-1.284267,3.220767,-2.933968,1.169968,0.048335,0.320371,0.284835,0.120263,0.045043,-0.178535,0.387644,0.217035,-0.321067,0.805192,-0.733492,0.292492,0.048335,0.320371,0.284835,0.120263,0.045043,-0.178535,0.387644,0.217035,-0.321067,0.805192,-0.733492,0.292492,-0.002770,0.073696,0.058327,0.006417,0.171257,-0.029199,0.006245,0.151704,-0.241853,0.185239,-0.106214,0.394889,0.433496,0.289954,-0.429045,0.575397,-1.979468,0.264996,-0.415293,3.482099,-3.344499,2.476915,-2.232788,0.060360
1200,59,1.200000,1,Forward,1.000000,0.000000,0.000000,0.127980,0.375113,-0.051513,0.006838,-0.031941,-0.999466,1.000000,0.000000,0.000000,0.005403,0.077492,0.052448,0.022835,0.116988,-0.042269,0.011938,0.209939,-0.284690,0.261416,-0.168686,0.363411,0.361260,0.117572,-0.178173,0.889807,-2.836581,-1.090833,0.663191,2.430883,-1.578429,4.486683,-3.645298,-1.963760,0.193342,1.281483,1.139338,0.481053,0.180171,-0.714142,1.550575,0.868140,-1.284267,3.220767,-2.933968,1.169968,-0.277503,0.279187,0.453936,0.217847,-0.509069,0.164256,0.323498,1.202579,-0.997578,1.802089,-1.687939,0.599081,-0.069376,0.069797,0.113484,0.054462,-0.127267,0.041064,0.080874,0.300645,-0.249394,0.450522,-0.421985,0.149770,-0.069376,0.069797,0.113484,0.054462,-0.127267,0.041064,0.080874,0.300645,-0.249394,0.450522,-0.421985,0.149770,0.005403,0.077492,0.052448,0.022835,0.116988,-0.042269,0.011938,0.209939,-0.284690,0.261416,-0.168686,0.363411,0.361260,0.117572,-0.178173,0.889807,-2.836581,-1.090833,0.663191,2.430884,-1.578429,4.486683,-3.645298,-1.963760
1220,60,1.220000,1,Forward,1.000000,0.000000,0.000000,-0.284955,0.093339,-0.094512,0.009721,-0.027320,-0.999579,1.000000,0.000000,0.000000,-0.004422,0.074676,0.054335,0.036935,0.037936,-0.043344,0.018437,0.253996,-0.283735,0.330495,-0.238720,0.288684,-0.877774,-0.257131,0.255293,0.550681,-4.220825,0.447724,0.180508,1.956131,0.561314,2.917693,-3.445424,-3.995880,-0.277503,0.279187,0.453936,0.217847,-0.509069,0.164256,0.323498,1.202579,-0.997578,1.802089,-1.687939,0.599081,-0.196184,-0.043822,-0.429161,-0.114423,-0.817195,1.098075,-1.212561,1.404078,-0.291987,-0.024983,0.138221,0.142131,-0.049046,-0.010955,-0.107290,-0.028606,-0.204299,0.274519,-0.303140,0.351020,-0.072997,-0.006246,0.034555,0.035533,-0.049046,-0.010955,-0.107290,-0.028606,-0.204299,0.274519,-0.303140,0.351020,-0.072997,-0.006246,0.034555,0.035533,-0.004422,0.074676,0.054335,0.036935,0.037936,-0.043344,0.018437,0.253996,-0.283735,0.330495,-0.238720,0.288684,-0.877774,-0.257131,0.255293,0.550681,-4.220825,0.447724,0.180508,1.956131,0.561314,2.917693,-3.445424,-3.995880
1240,61,1.240000,1,Forward,1.000000,0.000000,0.000000,-0.261313,-0.081354,-0.007114,0.008431,-0.021703,-0.999729,1.000000,0.000000,0.000000,-0.020960,0.063974,0.038942,0.033211,-0.057972,0.037682,-0.052590,0.291961,-0.218354,0.250294,-0.179463,0.190199,-0.840930,-0.742492,-1.280001,-0.575444,-4.740467,5.192341,-4.817784,1.777381,3.861344,-5.866206,4.773644,-4.813966,-0.196184,-0.043822,-0.429161,-0.114423,-0.817195,1.098075,-1.212561,1.404078,-0.291987,-0.024983,0.138221,0.142131,-0.045474,0.325686,-0.225960,-0.138360,0.012198,0.568692,-0.782991,0.693893,0.233660,-0.664277,0.436620,-0.108365,-0.011369,0.081421,-0.056490,-0.034590,0.003050,0.142173,-0.195748,0.173473,0.058415,-0.166069,0.109155,-0.027091,-0.011369,0.081421,-0.056490,-0.034590,0.003050,0.142173,-0.195748,0.173473,0.058415,-0.166069,0.109155,-0.027091,-0.020960,0.063974,0.038942,0.033211,-0.057972,0.037682,-0.052590,0.291961,-0.218354,0.250294,-0.179463,0.190199,-0.840930,-0.742492,-1.280001,-0.575444,-4.740466,5.192341,-4.817784,1.777381,3.861344,-5.866206,4.773644,-4.813966
1260,62,1.260000,1,Forward,1.000000,0.000000,0.000000,-0.279256,-0.061645,0.021339,0.007071,-0.016265,-0.999843,1.000000,0.000000,0.000000,-0.031847,0.056965,0.003784,0.010732,-0.097960,0.120341,-0.134657,0.286859,-0.116170,0.094338,-0.066877,0.098530,-0.366079,-0.185239,-1.913694,-1.310935,-0.663246,3.301314,-3.515393,-1.124603,5.099194,-7.754782,5.418518,-4.150811,-0.045474,0.325686,-0.225960,-0.138360,0.012198,0.568692,-0.782991,0.693893,0.233660,-0.664277,0.436620,-0.108365,-0.548263,0.135534,0.056376,-0.148059,-0.012494,0.222305,-0.671111,0.340584,0.534255,-1.060796,0.767416,-0.684487,-0.137066,0.033884,0.014094,-0.037015,-0.003123,0.055576,-0.167778,0.085146,0.133564,-0.265199,0.191854,-0.171122,-0.137066,0.033884,0.014094,-0.037015,-0.003123,0.055576,-0.167778,0.085146,0.133564,-0.265199,0.191854,-0.171122,-0.031847,0.056965,0.003784,0.010732,-0.097960,0.120341,-0.134657,0.286859,-0.116170,0.094338,-0.066877,0.098530,-0.366079,-0.185239,-1.913694,-1.310935,-0.663246,3.301314,-3.515393,-1.124603,5.099194,-7.754782,5.418518,-4.150811
1280,63,1.280000,1,Forward,1.000000,0.000000,0.000000,-0.268628,-0.074258,0.050637,0.005663,-0.010804,-0.999926,1.000000,0.000000,0.000000,-0.059801,0.045494,-0.017080,-0.015111,-0.085609,0.142683,-0.181909,0.236376,-0.012514,-0.056653,0.041538,-0.004909,-1.757048,-0.683689,-0.606107,-1.223900,1.151984,0.029465,-1.666645,-3.037969,4.797858,-6.878908,4.964437,-5.110127,-0.548263,0.135534,0.056376,-0.148059,-0.012494,0.222305,-0.671111,0.340584,0.534255,-1.060796,0.767416,-0.684487,-0.599230,0.050167,0.036134,-0.320741,-0.479271,0.155349,-0.170056,0.465822,1.024785,-1.003984,0.971117,-0.983895,-0.149807,0.012542,0.009033,-0.080185,-0.119818,0.038837,-0.042514,0.116455,0.256196,-0.250996,0.242779,-0.245974,-0.149807,0.012542,0.009033,-0.080185,-0.119818,0.038837,-0.042514,0.116455,0.256196,-0.250996,0.242779,-0.245974,-0.059801,0.045494,-0.017080,-0.015111,-0.085609,0.142683,-0.181909,0.236376,-0.012514,-0.056653,0.041538,-0.004909,-1.757048,-0.683689,-0.606107,-1.223900,1.151984,0.029465,-1.666645,-3.037969,4.797858,-6.878907,4.964437,-5.110127
1300,64,1.300000,1,Forward,1.000000,0.000000,0.000000,-0.363513,-0.002576,0.047172,0.005396,-0.003862,-0.999978,1.000000,0.000000,0.000000,-0.090699,0.028877,-0.022306,-0.041091,-0.083054,0.118192,-0.171517,0.185653,0.096832,-0.156881,0.129445,-0.105583,-1.225909,-0.810276,-0.057029,-1.118506,-0.331954,-1.674782,1.477726,-2.032575,5.121732,-3.987539,3.870504,-4.363060,-0.599230,0.050167,0.036134,-0.320741,-0.479271,0.155349,-0.170056,0.465822,1.024785,-1.003984,0.971117,-0.983895,-0.788182,0.021820,-0.002971,-0.529455,-0.551156,-0.097345,-0.185507,0.531092,1.477507,-1.429586,1.529988,-1.369856,-0.197046,0.005455,-0.000743,-0.132364,-0.137789,-0.024336,-0.046377,0.132773,0.369377,-0.357397,0.382497,-0.342464,-0.197046,0.005455,-0.000743,-0.132364,-0.137789,-0.024336,-0.046377,0.132773,0.369377,-0.357397,0.382497,-0.342464,-0.090699,0.028877,-0.022306,-0.041091,-0.083054,0.118192,-0.171517,0.185653,0.096832,-0.156881,0.129445,-0.105583,-1.225910,-0.810276,-0.057029,-1.118506,-0.331954,-1.674782,1.477726,-2.032575,5.121732,-3.987539,3.870504,-4.363060
1320,65,1.320000,1,Forward,1.000000,0.000000,0.000000,-0.186194,0.179813,-0.002289,0.008164,0.000748,-0.999966,1.000000,0.000000,0.000000,-0.102294,0.022860,-0.015917,-0.052717,-0.053049,0.065905,-0.127894,0.137550,0.123684,-0.239070,0.227011,-0.127773,-0.221124,0.106778,0.563126,-0.175512,3.050300,-2.994818,2.503360,-2.980056,-1.699009,-3.792437,4.796779,1.375075,-0.788182,0.021820,-0.002971,-0.529455,-0.551156,-0.097345,-0.185507,0.531092,1.477507,-1.429586,1.529988,-1.369856,-1.102786,-0.110443,-0.176931,-1.227105,-0.712797,-0.156974,-0.014141,0.472827,2.675029,-1.544137,1.823151,-2.015708,-0.275697,-0.027611,-0.044233,-0.306776,-0.178199,-0.039243,-0.003535,0.118207,0.668757,-0.386034,0.455788,-0.503927,-0.275697,-0.027611,-0.044233,-0.306776,-0.178199,-0.039243,-0.003535,0.118207,0.668757,-0.386034,0.455788,-0.503927,-0.102294,0.022860,-0.015917,-0.052717,-0.053049,0.065905,-0.127894,0.137550,0.123684,-0.239070,0.227011,-0.127773,-0.221124,0.106778,0.563126,-0.175512,3.050300,-2.994818,2.503360,-2.980056,-1.699009,-3.792437,4.796779,1.375075
1340,66,1.340000,1,Forward,1.000000,0.000000,0.000000,0.062721,0.143690,-0.053357,0.011365,0.000077,-0.999935,1.000000,0.000000,0.000000,-0.105477,0.025357,-0.005494,-0.052608,0.006927,0.004717,-0.067890,0.081142,0.089663,-0.304282,0.322223,-0.097519,-0.153831,0.122907,0.489793,0.081068,2.745270,-2.908482,3.068883,-2.591561,-1.244205,-2.814078,4.351124,1.171947,-1.102786,-0.110443,-0.176931,-1.227105,-0.712797,-0.156974,-0.014141,0.472827,2.675029,-1.544137,1.823151,-2.015708,-1.337536,-0.169506,-0.342881,-1.663899,-1.182840,-0.209470,0.431627,0.434586,3.185170,-1.378303,1.773702,-2.546239,-0.334384,-0.042377,-0.085720,-0.415975,-0.295710,-0.052368,0.107907,0.108647,0.796292,-0.344576,0.443425,-0.636560,-0.334384,-0.042377,-0.085720,-0.415975,-0.295710,-0.052368,0.107907,0.108647,0.796292,-0.344576,0.443425,-0.636560,-0.105477,0.025357,-0.005494,-0.052608,0.006927,0.004717,-0.067890,0.081142,0.089663,-0.304282,0.322223,-0.097519,-0.153831,0.122907,0.489793,0.081068,2.745270,-2.908482,3.068883,-2.591561,-1.244205,-2.814078,4.351124,1.171947
1360,67,1.360000,1,Forward,1.000000,0.000000,0.000000,0.168127,0.051331,-0.002239,0.012608,-0.003094,-0.999916,1.000000,0.000000,0.000000,-0.107678,0.024855,-0.005939,-0.051498,0.042592,-0.046563,0.010775,0.043242,0.096282,-0.332305,0.382159,-0.099810,-0.082213,-0.097001,-0.199187,0.031352,1.241724,-2.229741,4.045692,-1.516376,1.236618,-0.817805,2.313966,-0.846208,-1.337536,-0.169506,-0.342881,-1.663899,-1.182840,-0.209470,0.431627,0.434586,3.185170,-1.378303,1.773702,-2.546239,-1.174546,-0.390894,-0.355018,-1.264039,-1.578153,-0.451454,0.784298,0.766351,3.484457,-1.333989,1.509452,-3.063824,-0.293637,-0.097724,-0.088754,-0.316010,-0.394538,-0.112863,0.196075,0.191588,0.871114,-0.333497,0.377363,-0.765956,-0.293637,-0.097724,-0.088754,-0.316010,-0.394538,-0.112863,0.196075,0.191588,0.871114,-0.333497,0.377363,-0.765956,-0.107678,0.024855,-0.005939,-0.051498,0.042592,-0.046563,0.010775,0.043242,0.096282,-0.332305,0.382159,-0.099810,-0.082213,-0.097001,-0.199187,0.031352,1.241724,-2.229741,4.045692,-1.516376,1.236618,-0.817805,2.313965,-0.846208
1380,68,1.380000,1,Forward,1.000000,0.000000,0.000000,0.247109,0.144766,0.016509,0.015127,-0.007799,-0.999855,1.000000,0.000000,0.000000,-0.107826,0.012689,-0.013917,-0.049300,0.045735,-0.093686,0.100768,0.035323,0.151567,-0.334737,0.393001,-0.150126,0.002539,-0.805159,-0.436481,0.150744,-0.420815,-2.222363,4.375568,0.161286,3.603022,0.096162,-0.066105,-3.376373,-1.174546,-0.390894,-0.355018,-1.264039,-1.578153,-0.451454,0.784298,0.766351,3.484457,-1.333989,1.509452,-3.063824,-0.866834,-0.361445,-0.199282,-0.755208,-1.122851,-0.803374,1.027898,0.580797,3.125756,-0.952336,0.957826,-2.664490,-0.216708,-0.090361,-0.049821,-0.188802,-0.280713,-0.200844,0.256974,0.145199,0.781439,-0.238084,0.239456,-0.666123,-0.216708,-0.090361,-0.049821,-0.188802,-0.280713,-0.200844,0.256974,0.145199,0.781439,-0.238084,0.239456,-0.666123,-0.107826,0.012689,-0.013917,-0.049300,0.045735,-0.093686,0.100768,0.035323,0.151567,-0.334737,0.393001,-0.150126,0.002539,-0.805159,-0.436481,0.150744,-0.420815,-2.222363,4.375568,0.161286,3.603022,0.096162,-0.066105,-3.376373
1400,69,1.400000,1,Forward,1.000000,0.000000,0.000000,0.455156,0.134119,0.011685,0.017916,-0.016314,-0.999706,1.000000,0.000000,0.000000,-0.109123,-0.008190,-0.018448,-0.043479,0.026454,-0.144939,0.183633,0.046613,0.241884,-0.303708,0.346748,-0.231795,-0.117692,-1.084049,-0.102354,0.357756,-1.263975,-2.506996,3.753316,0.750879,5.027519,1.873980,-2.844780,-4.428906,-0.866834,-0.361445,-0.199282,-0.755208,-1.122851,-0.803374,1.027898,0.580797,3.125756,-0.952336,0.957826,-2.664490,0.109582,0.234851,0.141354,0.204795,0.718145,-1.187676,1.015728,-0.573996,0.374283,-0.368485,0.382405,-0.234110,0.027396,0.058713,0.035338,0.051199,0.179536,-0.296919,0.253932,-0.143499,0.093571,-0.092121,0.095601,-0.058528,0.027396,0.058713,0.035338,0.051199,0.179536,-0.296919,0.253932,-0.143499,0.093571,-0.092121,0.095601,-0.058528,-0.109123,-0.008190,-0.018448,-0.043479,0.026454,-0.144939,0.183633,0.046613,0.241884,-0.303708,0.346748,-0.231795,-0.117692,-1.084049,-0.102354,0.357756,-1.263975,-2.506996,3.753316,0.750879,5.027519,1.873980,-2.844780,-4.428907
1420,70,1.420000,1,Forward,1.000000,0.000000,0.000000,0.519940,0.063272,-0.042019,0.019365,-0.026664,-0.999457,1.000000,0.000000,0.000000,-0.095596,-0.008609,-0.008500,-0.028561,0.054335,-0.200781,0.237334,0.006335,0.234145,-0.230949,0.257024,-0.210588,1.063594,0.505656,0.765936,0.948977,2.370008,-2.758460,2.064039,-2.974468,-2.112414,3.909146,-4.653038,2.737851,0.109582,0.234851,0.141354,0.204795,0.718145,-1.187676,1.015728,-0.573996,0.374283,-0.368485,0.382405,-0.234110,0.132598,0.197017,-0.083459,-0.090750,0.586985,-0.574768,0.496281,-0.472282,0.151846,0.113583,-0.028211,0.377727,0.033150,0.049254,-0.020865,-0.022687,0.146746,-0.143692,0.124070,-0.118070,0.037961,0.028396,-0.007053,0.094432,0.033150,0.049254,-0.020865,-0.022687,0.146746,-0.143692,0.124070,-0.118070,0.037961,0.028396,-0.007053,0.094432,-0.095596,-0.008609,-0.008500,-0.028561,0.054335,-0.200781,0.237334,0.006335,0.234145,-0.230949,0.257024,-0.210588,1.063594,0.505656,0.765936,0.948977,2.370007,-2.758460,2.064038,-2.974468,-2.112414,3.909146,-4.653038,2.737851
1440,71,1.440000,1,Forward,1.000000,0.000000,0.000000,0.458964,0.035506,-0.065995,0.020182,-0.035947,-0.999150,1.000000,0.000000,0.000000,-0.060099,0.009493,0.000241,-0.017845,0.102437,-0.218424,0.237554,-0.059149,0.166740,-0.132990,0.152089,-0.107265,2.156185,1.058801,0.250410,0.393765,2.131288,-0.012538,-0.911755,-2.999238,-3.579048,4.833380,-5.010446,5.599761,0.132598,0.197017,-0.083459,-0.090750,0.586985,-0.574768,0.496281,-0.472282,0.151846,0.113583,-0.028211,0.377727,-0.164167,0.248764,0.076396,-0.277037,0.676465,-0.452247,0.532135,-0.112748,0.044644,0.466506,-0.373458,1.114231,-0.041042,0.062191,0.019099,-0.069259,0.169116,-0.113062,0.133034,-0.028187,0.011161,0.116626,-0.093364,0.278558,-0.041042,0.062191,0.019099,-0.069259,0.169116,-0.113062,0.133034,-0.028187,0.011161,0.116626,-0.093364,0.278558,-0.060099,0.009493,0.000241,-0.017845,0.102437,-0.218423,0.237554,-0.059149,0.166740,-0.132990,0.152089,-0.107265,2.156185,1.058801,0.250410,0.393765,2.131288,-0.012538,-0.911755,-2.999238,-3.579048,4.833380,-5.010446,5.599761
1460,72,1.460000,1,Forward,1.000000,0.000000,0.000000,0.400830,0.080558,-0.080921,0.021703,-0.044108,-0.998791,1.000000,0.000000,0.000000,-0.031866,0.033303,0.008110,-0.022154,0.140319,-0.198807,0.208009,-0.088795,0.098494,-0.030310,0.048745,0.038218,1.016449,1.192753,0.434068,-0.463543,1.664110,1.389308,-1.679392,-0.603421,-3.049273,4.814795,-4.789057,7.223428,-0.164167,0.248764,0.076396,-0.277037,0.676465,-0.452247,0.532135,-0.112748,0.044644,0.466506,-0.373458,1.114231,-0.210613,0.288170,0.382383,-0.084422,0.799856,-0.496466,0.643252,-0.074106,-0.077855,0.554460,-0.866653,1.422508,-0.052653,0.072043,0.095596,-0.021106,0.199964,-0.124117,0.160813,-0.018527,-0.019464,0.138615,-0.216663,0.355627,-0.052653,0.072043,0.095596,-0.021106,0.199964,-0.124117,0.160813,-0.018527,-0.019464,0.138615,-0.216663,0.355627,-0.031866,0.033303,0.008110,-0.022154,0.140319,-0.198807,0.208009,-0.088795,0.098494,-0.030310,0.048745,0.038218,1.016449,1.192753,0.434068,-0.463543,1.664110,1.389308,-1.679392,-0.603421,-3.049273,4.814795,-4.789057,7.223428
1480,73,1.480000,1,Forward,1.000000,0.000000,0.000000,0.285472,0.065643,-0.113726,0.023208,-0.050123,-0.998473,1.000000,0.000000,0.000000,-0.024549,0.054257,0.027665,-0.025462,0.171598,-0.168491,0.183954,-0.079130,0.044363,0.050550,-0.057347,0.176025,0.085298,0.916793,1.034272,-0.044819,1.416834,1.507269,-0.823337,0.975190,-2.344355,3.444278,-4.868537,6.206975,-0.210613,0.288170,0.382383,-0.084422,0.799856,-0.496466,0.643252,-0.074106,-0.077855,0.554460,-0.866653,1.422508,-0.094289,0.386379,0.411108,0.063768,1.027118,-0.522433,0.754853,0.002014,-0.333032,0.916376,-1.397897,1.689630,-0.023572,0.096595,0.102777,0.015942,0.256780,-0.130608,0.188713,0.000503,-0.083258,0.229094,-0.349474,0.422408,-0.023572,0.096595,0.102777,0.015942,0.256780,-0.130608,0.188713,0.000503,-0.083258,0.229094,-0.349474,0.422408,-0.024549,0.054257,0.027665,-0.025462,0.171598,-0.168491,0.183954,-0.079130,0.044363,0.050550,-0.057347,0.176025,0.085298,0.916793,1.034272,-0.044819,1.416834,1.507269,-0.823337,0.975190,-2.344355,3.444278,-4.868538,6.206975
1500,74,1.500000,1,Forward,1.000000,0.000000,0.000000,-0.484594,-0.313968,-0.127433,0.018891,-0.044099,-0.998849,1.000000,0.000000,0.000000,-0.023490,0.065488,0.046637,-0.021201,0.205353,-0.141986,0.148141,-0.050226,-0.007662,0.125074,-0.102392,0.286769,0.033909,0.208423,1.060900,0.244921,1.697681,1.225637,-2.920782,1.571528,-2.427873,3.449029,0.123752,4.836215,-0.094289,0.386379,0.411108,0.063768,1.027118,-0.522433,0.754853,0.002014,-0.333032,0.916376,-1.397897,1.689630,0.095546,0.795608,0.204538,0.113869,0.859149,-0.530416,0.704138,0.385556,-0.828536,1.507992,-1.938363,1.754527,0.023886,0.198902,0.051135,0.028467,0.214787,-0.132604,0.176035,0.096389,-0.207134,0.376998,-0.484591,0.438632,0.023886,0.198902,0.051135,0.028467,0.214787,-0.132604,0.176035,0.096389,-0.207134,0.376998,-0.484591,0.438632,-0.023490,0.065488,0.046637,-0.021201,0.205353,-0.141986,0.148141,-0.050226,-0.007662,0.125074,-0.102392,0.286769,0.033909,0.208423,1.060900,0.244921,1.697681,1.225637,-2.920782,1.571528,-2.427873,3.449029,0.123752,4.836214
1520,75,1.520000,1,Forward,1.000000,0.000000,0.000000,-0.839914,-0.752559,-0.069830,0.004373,-0.026744,-0.999633,1.000000,0.000000,0.000000,-0.019373,0.069038,0.067115,-0.010714,0.222251,-0.106922,0.083438,0.000604,-0.078722,0.175579,-0.089349,0.360345,0.114461,-0.210953,0.707609,0.530988,0.228878,3.106757,-3.161198,2.937925,-3.643528,-0.337224,0.712416,2.988066,0.095546,0.795608,0.204538,0.113869,0.859149,-0.530416,0.704138,0.385556,-0.828536,1.507992,-1.938363,1.754527,0.269873,1.281025,0.620771,0.200940,0.734986,-0.660497,0.782925,0.612779,-1.111326,2.465314,-2.412686,1.630384,0.067468,0.320256,0.155193,0.050235,0.183746,-0.165124,0.195731,0.153195,-0.277831,0.616329,-0.603172,0.407596,0.067468,0.320256,0.155193,0.050235,0.183746,-0.165124,0.195731,0.153195,-0.277831,0.616329,-0.603172,0.407596,-0.019373,0.069038,0.067114,-0.010714,0.222251,-0.106922,0.083438,0.000604,-0.078722,0.175579,-0.089349,0.360345,0.114461,-0.210953,0.707609,0.530988,0.228878,3.106757,-3.161198,2.937925,-3.643528,-0.337224,0.712416,2.988066
1540,76,1.540000,1,Forward,1.000000,0.000000,0.000000,0.060221,-0.205997,0.079692,-0.001268,-0.025688,-0.999669,1.000000,0.000000,0.000000,-0.012208,0.069027,0.068480,-0.001008,0.205192,-0.051031,0.033101,0.073253,-0.158046,0.159331,-0.083517,0.391073,0.450230,0.184418,-0.266610,0.395092,-1.274485,2.325698,-2.153048,3.674097,-3.750983,-0.458086,-0.002998,0.941297,0.269873,1.281025,0.620771,0.200940,0.734986,-0.660497,0.782925,0.612779,-1.111326,2.465314,-2.412686,1.630384,0.272911,1.515456,1.191869,0.405324,0.593138,-0.580358,1.346688,0.802989,-1.357000,3.457093,-3.270106,1.615408,0.068228,0.378864,0.297967,0.101331,0.148285,-0.145089,0.336672,0.200747,-0.339250,0.864273,-0.817527,0.403852,0.068228,0.378864,0.297967,0.101331,0.148285,-0.145089,0.336672,0.200747,-0.339250,0.864273,-0.817527,0.403852,-0.012208,0.069027,0.068480,-0.001008,0.205192,-0.051031,0.033101,0.073253,-0.158046,0.159331,-0.083517,0.391073,0.450230,0.184418,-0.266610,0.395092,-1.274485,2.325698,-2.153048,3.674097,-3.750982,-0.458086,-0.002998,0.941297
1560,77,1.560000,1,Forward,1.000000,0.000000,0.000000,0.274638,0.125001,0.057848,0.000473,-0.031026,-0.999518,1.000000,0.000000,0.000000,-0.003067,0.073674,0.061251,0.009458,0.169884,-0.029866,0.010819,0.148225,-0.233002,0.186105,-0.109888,0.397356,0.443908,0.243838,-0.377812,0.552069,-1.865685,0.391978,-0.577579,3.512858,-3.434777,2.339367,-2.056711,0.107479,0.272911,1.515456,1.191869,0.405324,0.593138,-0.580358,1.346688,0.802989,-1.357000,3.457093,-3.270106,1.615408,0.221094,1.312370,1.150181,0.485328,0.225459,-0.764025,1.556724,0.850172,-1.248644,3.308686,-2.967907,1.212097,0.055273,0.328093,0.287545,0.121332,0.056365,-0.191006,0.389181,0.212543,-0.312161,0.827172,-0.741977,0.303024,0.055273,0.328093,0.287545,0.121332,0.056365,-0.191006,0.389181,0.212543,-0.312161,0.827172,-0.741977,0.303024,-0.003067,0.073674,0.061251,0.009458,0.169884,-0.029866,0.010819,0.148225,-0.233002,0.186105,-0.109888,0.397356,0.443908,0.243838,-0.377812,0.552069,-1.865685,0.391978,-0.577579,3.512858,-3.434777,2.339367,-2.056711,0.107479
1580,78,1.580000,1,Forward,1.000000,0.000000,0.000000,0.139236,0.321563,-0.041088,0.006409,-0.034234,-0.999393,1.000000,0.000000,0.000000,0.006027,0.077361,0.055372,0.024829,0.118699,-0.041994,0.013987,0.206941,-0.276459,0.260931,-0.169013,0.368454,0.422728,0.134709,-0.207242,0.828836,-2.669361,-1.087427,0.557030,2.451528,-1.585943,4.457906,-3.482613,-1.819173,0.221094,1.312370,1.150181,0.485328,0.225459,-0.764025,1.556724,0.850172,-1.248644,3.308686,-2.967907,1.212097,-0.227497,0.356926,0.526765,0.251890,-0.411720,0.013720,0.504776,1.139717,-1.048225,1.985957,-1.840761,0.644696,-0.056874,0.089231,0.131691,0.062973,-0.102930,0.003430,0.126194,0.284929,-0.262056,0.496489,-0.460190,0.161174,-0.056874,0.089231,0.131691,0.062973,-0.102930,0.003430,0.126194,0.284929,-0.262056,0.496489,-0.460190,0.161174,0.006027,0.077361,0.055372,0.024829,0.118699,-0.041994,0.013987,0.206941,-0.276459,0.260931,-0.169013,0.368454,0.422728,0.134709,-0.207242,0.828836,-2.669361,-1.087427,0.557030,2.451528,-1.585943,4.457906,-3.482613,-1.819173
1600,79,1.600000,1,Forward,1.000000,0.000000,0.000000,-0.292305,0.069054,-0.088885,0.008772,-0.029607,-0.999523,1.000000,0.000000,0.000000,-0.001609,0.074740,0.057071,0.038232,0.045750,-0.050264,0.020855,0.249265,-0.281589,0.335775,-0.239004,0.296360,-0.746834,-0.272313,0.258116,0.541013,-3.874010,-0.048872,0.258927,1.822184,0.186270,3.333326,-3.532727,-3.879867,-0.227497,0.356926,0.526765,0.251890,-0.411720,0.013720,0.504776,1.139717,-1.048225,1.985957,-1.840761,0.644696,-0.216990,-0.068461,-0.385977,-0.094278,-0.843140,1.132061,-1.180200,1.446864,-0.349561,0.043645,0.097970,0.175638,-0.054248,-0.017115,-0.096494,-0.023570,-0.210785,0.283015,-0.295050,0.361716,-0.087390,0.010911,0.024493,0.043910,-0.054248,-0.017115,-0.096494,-0.023570,-0.210785,0.283015,-0.295050,0.361716,-0.087390,0.010911,0.024493,0.043910,-0.001609,0.074740,0.057071,0.038232,0.045750,-0.050264,0.020855,0.249265,-0.281589,0.335775,-0.239004,0.296360,-0.746834,-0.272313,0.258116,0.541013,-3.874010,-0.048872,0.258927,1.822184,0.186270,3.333326,-3.532727,-3.879867
1620,80,1.620000,1,Forward,1.000000,0.000000,0.000000,-0.287244,-0.130478,-0.012131,0.006582,-0.023500,-0.999702,1.000000,0.000000,0.000000,-0.017894,0.063371,0.043208,0.035519,-0.049124,0.027980,-0.048094,0.288923,-0.223203,0.260436,-0.183119,0.198565,-0.884749,-0.787194,-1.175225,-0.506293,-4.823870,5.206913,-4.710100,1.950646,3.549124,-5.704802,4.593141,-4.806367,-0.216990,-0.068461,-0.385977,-0.094278,-0.843140,1.132061,-1.180200,1.446864,-0.349561,0.043645,0.097970,0.175638,-0.020595,0.325856,-0.236477,-0.127857,-0.023637,0.597228,-0.751300,0.734168,0.201024,-0.591390,0.417524,-0.087158,-0.005149,0.081464,-0.059119,-0.031964,-0.005909,0.149307,-0.187825,0.183542,0.050256,-0.147848,0.104381,-0.021790,-0.005149,0.081464,-0.059119,-0.031964,-0.005909,0.149307,-0.187825,0.183542,0.050256,-0.147848,0.104381,-0.021790,-0.017894,0.063371,0.043208,0.035519,-0.049124,0.027980,-0.048094,0.288923,-0.223203,0.260436,-0.183119,0.198565,-0.884749,-0.787194,-1.175225,-0.506293,-4.823870,5.206913,-4.710100,1.950646,3.549125,-5.704802,4.593141,-4.806368
1640,81,1.640000,1,Forward,1.000000,0.000000,0.000000,-0.298805,-0.113217,0.015160,0.004181,-0.017644,-0.999836,1.000000,0.000000,0.000000,-0.028322,0.056436,0.007757,0.014019,-0.093785,0.114131,-0.128192,0.288258,-0.123783,0.107558,-0.072038,0.105998,-0.320164,-0.165985,-1.980120,-1.275971,-0.942641,3.541635,-3.425864,-0.893754,5.026202,-7.609230,5.385346,-4.206558,-0.020595,0.325856,-0.236477,-0.127857,-0.023637,0.597228,-0.751300,0.734168,0.201024,-0.591390,0.417524,-0.087158,-0.532002,0.152555,0.039508,-0.137011,0.016463,0.226003,-0.692245,0.311156,0.502103,-1.062065,0.725036,-0.654331,-0.133001,0.038139,0.009877,-0.034253,0.004116,0.056501,-0.173061,0.077789,0.125526,-0.265516,0.181259,-0.163583,-0.133001,0.038139,0.009877,-0.034253,0.004116,0.056501,-0.173061,0.077789,0.125526,-0.265516,0.181259,-0.163583,-0.028322,0.056436,0.007757,0.014019,-0.093785,0.114131,-0.128192,0.288258,-0.123783,0.107558,-0.072038,0.105998,-0.320164,-0.165985,-1.980120,-1.275971,-0.942641,3.541635,-3.425864,-0.893754,5.026202,-7.609229,5.385346,-4.206558
1660,82,1.660000,1,Forward,1.000000,0.000000,0.000000,-0.265529,-0.133493,0.051512,0.001610,-0.012170,-0.999925,1.000000,0.000000,0.000000,-0.056168,0.046236,-0.015399,-0.011527,-0.083745,0.141162,-0.176716,0.238204,-0.020957,-0.046220,0.034829,0.002556,-1.763281,-0.609941,-0.736512,-1.220414,1.112227,0.234422,-1.798227,-3.104708,4.772060,-7.100056,4.875096,-5.096093,-0.532002,0.152555,0.039508,-0.137011,0.016463,0.226003,-0.692245,0.311156,0.502103,-1.062065,0.725036,-0.654331,-0.597761,0.059510,0.033330,-0.294399,-0.468755,0.160687,-0.200026,0.455672,0.968347,-0.995392,0.915082,-0.975220,-0.149440,0.014877,0.008333,-0.073600,-0.117189,0.040172,-0.050006,0.113918,0.242087,-0.248848,0.228770,-0.243805,-0.149440,0.014877,0.008333,-0.073600,-0.117189,0.040172,-0.050006,0.113918,0.242087,-0.248848,0.228770,-0.243805,-0.056168,0.046236,-0.015399,-0.011527,-0.083745,0.141162,-0.176716,0.238204,-0.020957,-0.046220,0.034829,0.002556,-1.763281,-0.609941,-0.736512,-1.220414,1.112227,0.234422,-1.798227,-3.104708,4.772060,-7.100056,4.875096,-5.096093
1680,83,1.680000,1,Forward,1.000000,0.000000,0.000000,-0.360307,-0.064619,0.049203,0.000113,-0.005360,-0.999986,1.000000,0.000000,0.000000,-0.088620,0.030534,-0.022329,-0.036951,-0.080919,0.119371,-0.170400,0.186146,0.086985,-0.150176,0.120125,-0.099468,-1.335906,-0.780998,-0.118595,-1.088501,-0.290516,-1.578994,1.252560,-2.089168,5.055918,-4.147575,3.735182,-4.447070,-0.597761,0.059510,0.033330,-0.294399,-0.468755,0.160687,-0.200026,0.455672,0.968347,-0.995392,0.915082,-0.975220,-0.765550,0.037782,-0.012470,-0.493305,-0.548732,-0.072809,-0.201442,0.509802,1.395853,-1.395279,1.450525,-1.361061,-0.191388,0.009446,-0.003117,-0.123326,-0.137183,-0.018202,-0.050360,0.127450,0.348963,-0.348820,0.362631,-0.340265,-0.191388,0.009446,-0.003117,-0.123326,-0.137183,-0.018202,-0.050360,0.127450,0.348963,-0.348820,0.362631,-0.340265,-0.088620,0.030534,-0.022329,-0.036951,-0.080919,0.119371,-0.170400,0.186146,0.086985,-0.150176,0.120125,-0.099468,-1.335906,-0.780998,-0.118595,-1.088501,-0.290516,-1.578994,1.252559,-2.089168,5.055918,-4.147575,3.735182,-4.447070
1700,84,1.700000,1,Forward,1.000000,0.000000,0.000000,-0.517390,0.286847,-0.005742,0.004168,0.004290,-0.999982,1.000000,0.000000,0.000000,-0.102485,0.022987,-0.017273,-0.052356,-0.069867,0.069191,-0.130044,0.141049,0.143406,-0.233285,0.213927,-0.125373,-0.168432,0.069878,0.466943,-0.406572,2.587404,-2.888845,2.355453,-2.777964,-1.007916,-3.784333,4.603813,1.201692,-0.765550,0.037782,-0.012470,-0.493305,-0.548732,-0.072809,-0.201442,0.509802,1.395853,-1.395279,1.450525,-1.361061,-1.161606,-0.120278,-0.124958,-1.073816,-0.711098,-0.202050,-0.056387,0.445101,2.596928,-1.576022,1.777475,-1.862487,-0.290401,-0.030070,-0.031239,-0.268454,-0.177775,-0.050512,-0.014097,0.111275,0.649232,-0.394005,0.444369,-0.465622,-0.290401,-0.030070,-0.031239,-0.268454,-0.177775,-0.050512,-0.014097,0.111275,0.649232,-0.394005,0.444369,-0.465622,-0.102485,0.022987,-0.017273,-0.052356,-0.069867,0.069191,-0.130044,0.141049,0.143406,-0.233285,0.213927,-0.125373,-0.168432,0.069878,0.466943,-0.406572,2.587403,-2.888845,2.355452,-2.777964,-1.007916,-3.784333,4.603813,1.201692
1720,85,1.720000,1,Forward,1.000000,0.000000,0.000000,0.057683,0.172969,-0.047838,0.008155,0.004588,-0.999956,1.000000,0.000000,0.000000,-0.106876,0.025693,-0.006644,-0.052530,-0.006518,0.006279,-0.074905,0.084424,0.102113,-0.302013,0.308663,-0.092706,-0.300490,0.143179,0.554361,0.176801,3.068926,-3.080352,2.813097,-2.691202,-1.860395,-3.040678,4.382520,1.408718,-1.161606,-0.120278,-0.124958,-1.073816,-0.711098,-0.202050,-0.056387,0.445101,2.596928,-1.576022,1.777475,-1.862487,-1.331936,-0.171501,-0.347295,-1.707971,-1.207427,-0.197578,0.387623,0.433826,3.273700,-1.416907,1.775197,-2.505669,-0.332984,-0.042875,-0.086824,-0.426993,-0.301857,-0.049394,0.096906,0.108456,0.818425,-0.354227,0.443799,-0.626417,-0.332984,-0.042875,-0.086824,-0.426993,-0.301857,-0.049394,0.096906,0.108456,0.818425,-0.354227,0.443799,-0.626417,-0.106876,0.025693,-0.006644,-0.052530,-0.006518,0.006279,-0.074905,0.084424,0.102113,-0.302013,0.308663,-0.092706,-0.300490,0.143179,0.554361,0.176801,3.068926,-3.080352,2.813097,-2.691202,-1.860395,-3.040678,4.382520,1.408718
1740,86,1.740000,1,Forward,1.000000,0.000000,0.000000,0.206759,0.010226,-0.001322,0.008746,0.000570,-0.999962,1.000000,0.000000,0.000000,-0.111304,0.025220,-0.005624,-0.049877,0.035266,-0.046290,0.000449,0.043923,0.098406,-0.335050,0.372570,-0.090354,-0.171061,-0.105464,-0.128439,0.094071,1.516397,-2.247336,3.936006,-1.663352,0.810305,-1.053452,2.552122,-0.616327,-1.331936,-0.171501,-0.347295,-1.707971,-1.207427,-0.197578,0.387623,0.433826,3.273700,-1.416907,1.775197,-2.505669,-1.203171,-0.370488,-0.358683,-1.349670,-1.584481,-0.425432,0.741445,0.747730,3.540063,-1.388763,1.546018,-3.049810,-0.300793,-0.092622,-0.089671,-0.337418,-0.396120,-0.106358,0.185361,0.186932,0.885016,-0.347191,0.386505,-0.762453,-0.300793,-0.092622,-0.089671,-0.337418,-0.396120,-0.106358,0.185361,0.186932,0.885016,-0.347191,0.386505,-0.762453,-0.111304,0.025220,-0.005624,-0.049877,0.035266,-0.046290,0.000449,0.043923,0.098406,-0.335050,0.372570,-0.090354,-0.171061,-0.105464,-0.128439,0.094071,1.516397,-2.247336,3.936006,-1.663352,0.810305,-1.053452,2.552122,-0.616327
1760,87,1.760000,1,Forward,1.000000,0.000000,0.000000,0.228368,0.076305,0.019124,0.009947,-0.003922,-0.999943,1.000000,0.000000,0.000000,-0.112366,0.013840,-0.012370,-0.047308,0.042818,-0.092193,0.089649,0.032982,0.147465,-0.342144,0.390113,-0.136503,-0.016323,-0.748805,-0.383134,0.143499,-0.233579,-2.133998,4.371044,0.011828,3.355340,-0.118603,0.274654,-3.183332,-1.203171,-0.370488,-0.358683,-1.349670,-1.584481,-0.425432,0.741445,0.747730,3.540063,-1.388763,1.546018,-3.049810,-0.928510,-0.382585,-0.237677,-0.830030,-1.255091,-0.783597,0.950880,0.594075,3.285197,-1.060032,1.034748,-2.816547,-0.232128,-0.095646,-0.059419,-0.207508,-0.313773,-0.195899,0.237720,0.148519,0.821299,-0.265008,0.258687,-0.704137,-0.232128,-0.095646,-0.059419,-0.207508,-0.313773,-0.195899,0.237720,0.148519,0.821299,-0.265008,0.258687,-0.704137,-0.112366,0.013840,-0.012370,-0.047308,0.042818,-0.092193,0.089649,0.032982,0.147465,-0.342144,0.390113,-0.136503,-0.016323,-0.748805,-0.383134,0.143499,-0.233579,-2.133998,4.371043,0.011828,3.355340,-0.118603,0.274654,-3.183333
1780,88,1.780000,1,Forward,1.000000,0.000000,0.000000,0.415521,0.083247,0.019938,0.011650,-0.011667,-0.999864,1.000000,0.000000,0.000000,-0.113711,-0.006739,-0.017562,-0.041645,0.024523,-0.142478,0.171513,0.043617,0.236557,-0.317874,0.352297,-0.217768,-0.110983,-1.093040,-0.173597,0.346825,-1.286007,-2.477916,3.683643,0.779853,5.066120,1.523271,-2.432056,-4.502437,-0.928510,-0.382585,-0.237677,-0.830030,-1.255091,-0.783597,0.950880,0.594075,3.285197,-1.060032,1.034748,-2.816547,0.023162,0.200009,0.143251,0.185242,0.579968,-1.183002,1.068157,-0.477129,0.571415,-0.421460,0.400837,-0.394616,0.005791,0.050002,0.035813,0.046310,0.144992,-0.295751,0.267039,-0.119282,0.142854,-0.105365,0.100209,-0.098654,0.005791,0.050002,0.035813,0.046310,0.144992,-0.295751,0.267039,-0.119282,0.142854,-0.105365,0.100209,-0.098654,-0.113711,-0.006739,-0.017562,-0.041645,0.024523,-0.142478,0.171513,0.043617,0.236557,-0.317874,0.352297,-0.217768,-0.110983,-1.093040,-0.173597,0.346825,-1.286007,-2.477916,3.683643,0.779853,5.066120,1.523271,-2.432056,-4.502437
1800,89,1.800000,1,Forward,1.000000,0.000000,0.000000,0.472153,0.022256,-0.029533,0.012256,-0.021087,-0.999703,1.000000,0.000000,0.000000,-0.102101,-0.009256,-0.008801,-0.027472,0.044086,-0.198788,0.229924,0.010931,0.244724,-0.247076,0.264735,-0.212543,0.912870,0.365267,0.721283,0.893202,1.832015,-2.794629,2.412198,-2.492412,-1.140195,3.902188,-4.652190,1.775659,0.023162,0.200009,0.143251,0.185242,0.579968,-1.183002,1.068157,-0.477129,0.571415,-0.421460,0.400837,-0.394616,0.134648,0.194986,-0.060951,-0.035886,0.609322,-0.613826,0.545766,-0.519784,0.201618,0.084065,0.022707,0.340857,0.033662,0.048747,-0.015238,-0.008972,0.152331,-0.153456,0.136441,-0.129946,0.050405,0.021016,0.005677,0.085214,0.033662,0.048747,-0.015238,-0.008972,0.152331,-0.153456,0.136441,-0.129946,0.050405,0.021016,0.005677,0.085214,-0.102101,-0.009256,-0.008801,-0.027472,0.044086,-0.198788,0.229924,0.010931,0.244724,-0.247076,0.264735,-0.212543,0.912870,0.365267,0.721283,0.893202,1.832015,-2.794629,2.412198,-2.492412,-1.140195,3.902188,-4.652190,1.775659
1820,90,1.820000,1,Forward,1.000000,0.000000,0.000000,0.389295,-0.014553,-0.064014,0.012070,-0.029115,-0.999503,1.000000,0.000000,0.000000,-0.070466,0.006815,0.000778,-0.016038,0.092445,-0.218882,0.237499,-0.055198,0.185264,-0.146565,0.161228,-0.118907,2.029283,0.984892,0.326964,0.488659,2.328045,-0.169232,-0.547507,-3.210948,-3.436634,4.993115,-4.918904,5.350935,0.134648,0.194986,-0.060951,-0.035886,0.609322,-0.613826,0.545766,-0.519784,0.201618,0.084065,0.022707,0.340857,-0.160699,0.225383,0.089011,-0.255760,0.600807,-0.390200,0.493056,-0.158608,0.154885,0.461049,-0.295447,1.058788,-0.040175,0.056346,0.022253,-0.063940,0.150202,-0.097550,0.123264,-0.039652,0.038721,0.115262,-0.073862,0.264697,-0.040175,0.056346,0.022253,-0.063940,0.150202,-0.097550,0.123264,-0.039652,0.038721,0.115262,-0.073862,0.264697,-0.070466,0.006815,0.000778,-0.016038,0.092445,-0.218882,0.237499,-0.055198,0.185264,-0.146565,0.161228,-0.118907,2.029283,0.984892,0.326964,0.488659,2.328045,-0.169232,-0.547507,-3.210947,-3.436634,4.993115,-4.918904,5.350934
1840,91,1.840000,1,Forward,1.000000,0.000000,0.000000,0.315256,0.019044,-0.080947,0.012386,-0.035616,-0.999289,1.000000,0.000000,0.000000,-0.040679,0.029249,0.010536,-0.018683,0.130478,-0.197615,0.209665,-0.090693,0.121062,-0.039646,0.061850,0.024316,1.173147,1.131914,0.523935,-0.385478,1.591446,1.569476,-1.714486,-0.909309,-2.851696,5.030540,-4.576337,7.161340,-0.160699,0.225383,0.089011,-0.255760,0.600807,-0.390200,0.493056,-0.158608,0.154885,0.461049,-0.295447,1.058788,-0.212456,0.292588,0.364639,-0.113117,0.745981,-0.439184,0.587992,-0.090026,0.029314,0.570992,-0.740233,1.386927,-0.053114,0.073147,0.091160,-0.028279,0.186495,-0.109796,0.146998,-0.022506,0.007328,0.142748,-0.185058,0.346732,-0.053114,0.073147,0.091160,-0.028279,0.186495,-0.109796,0.146998,-0.022506,0.007328,0.142748,-0.185058,0.346732,-0.040679,0.029249,0.010536,-0.018683,0.130478,-0.197615,0.209665,-0.090693,0.121062,-0.039646,0.061850,0.024316,1.173147,1.131914,0.523935,-0.385478,1.591446,1.569476,-1.714486,-0.909309,-2.851696,5.030540,-4.576337,7.161340
1860,92,1.860000,1,Forward,1.000000,0.000000,0.000000,0.233962,0.029165,-0.107252,0.013024,-0.040369,-0.999100,1.000000,0.000000,0.000000,-0.030073,0.051005,0.031535,-0.023057,0.160141,-0.163046,0.180333,-0.085141,0.069449,0.046467,-0.039054,0.163029,0.235561,1.004998,1.119985,-0.145009,1.336197,1.722366,-1.195411,0.833159,-2.254358,3.703110,-4.643679,6.284809,-0.212456,0.292588,0.364639,-0.113117,0.745981,-0.439184,0.587992,-0.090026,0.029314,0.570992,-0.740233,1.386927,-0.117028,0.357847,0.434891,0.055385,1.023894,-0.508758,0.709720,-0.036665,-0.231751,0.948237,-1.265485,1.656209,-0.029257,0.089462,0.108723,0.013846,0.255974,-0.127189,0.177430,-0.009166,-0.057938,0.237059,-0.316371,0.414052,-0.029257,0.089462,0.108723,0.013846,0.255974,-0.127189,0.177430,-0.009166,-0.057938,0.237059,-0.316371,0.414052,-0.030073,0.051005,0.031535,-0.023057,0.160141,-0.163046,0.180333,-0.085141,0.069449,0.046467,-0.039054,0.163029,0.235561,1.004998,1.119985,-0.145009,1.336197,1.722366,-1.195411,0.833159,-2.254358,3.703110,-4.643679,6.284808
1880,93,1.880000,1,Forward,1.000000,0.000000,0.000000,0.083552,0.008311,-0.140704,0.012501,-0.040860,-0.999087,1.000000,0.000000,0.000000,-0.027644,0.066413,0.051047,-0.017506,0.194817,-0.137431,0.166535,-0.058091,0.017309,0.126431,-0.128701,0.276199,0.098579,0.431416,0.869488,0.325690,1.809906,1.069960,-1.727270,1.497564,-2.456494,3.667750,-1.980849,4.955978,-0.117028,0.357847,0.434891,0.055385,1.023894,-0.508758,0.709720,-0.036665,-0.231751,0.948237,-1.265485,1.656209,0.058739,0.638808,0.274275,0.071927,0.889712,-0.502564,0.708564,0.305645,-0.765887,1.374866,-1.889596,1.808987,0.014685,0.159702,0.068569,0.017982,0.222428,-0.125641,0.177141,0.076411,-0.191472,0.343716,-0.472399,0.452247,0.014685,0.159702,0.068569,0.017982,0.222428,-0.125641,0.177141,0.076411,-0.191472,0.343716,-0.472399,0.452247,-0.027644,0.066413,0.051047,-0.017506,0.194817,-0.137431,0.166535,-0.058091,0.017309,0.126431,-0.128701,0.276199,0.098579,0.431416,0.869488,0.325690,1.809906,1.069960,-1.727270,1.497564,-2.456494,3.667750,-1.980849,4.955978
