fynngwu/rl_sar-ARES/sim_record/output/recording_processed.csv
timestamp_ms,step,sim_time,phase,phase_name,cmd_x,cmd_y,cmd_yaw,obs_0,obs_1,obs_2,obs_3,obs_4,obs_5,obs_6,obs_7,obs_8,obs_9,obs_10,obs_11,obs_12,obs_13,obs_14,obs_15,obs_16,obs_17,obs_18,obs_19,obs_20,obs_21,obs_22,obs_23,obs_24,obs_25,obs_26,obs_27,obs_28,obs_29,obs_30,obs_31,obs_32,obs_33,obs_34,obs_35,obs_36,obs_37,obs_38,obs_39,obs_40,obs_41,obs_42,obs_43,obs_44,raw_action_0,raw_action_1,raw_action_2,raw_action_3,raw_action_4,raw_action_5,raw_action_6,raw_action_7,raw_action_8,raw_action_9,raw_action_10,raw_action_11,scaled_action_0,scaled_action_1,scaled_action_2,scaled_action_3,scaled_action_4,scaled_action_5,scaled_action_6,scaled_action_7,scaled_action_8,scaled_action_9,scaled_action_10,scaled_action_11,target_q_0,target_q_1,target_q_2,target_q_3,target_q_4,target_q_5,target_q_6,target_q_7,target_q_8,target_q_9,target_q_10,target_q_11,joint_pos_0,joint_pos_1,joint_pos_2,joint_pos_3,joint_pos_4,joint_pos_5,joint_pos_6,joint_pos_7,joint_pos_8,joint_pos_9,joint_pos_10,joint_pos_11,joint_vel_0,joint_vel_1,joint_vel_2,joint_vel_3,joint_vel_4,joint_vel_5,joint_vel_6,joint_vel_7,joint_vel_8,joint_vel_9,joint_vel_10,joint_vel_11
20,0,0.020000,0,Stand,0.000000,0.000000,0.000000,-0.000000,0.000000,-0.000000,0.000000,-0.000000,-1.000000,0.000000,0.000000,0.000000,-0.000000,0.000000,0.000000,0.000000,0.000000,-0.000000,-0.000000,0.000000,0.000000,0.000000,-0.000000,-0.000000,-0.000000,0.000000,0.000000,0.000000,0.000000,-0.000000,-0.000000,0.000000,0.000000,0.000000,-0.000000,0.000000,0.000000,0.000000,0.000000,0.000000,0.000000,0.000000,0.000000,0.000000,0.000000,0.000000,0.000000,0.000000,-0.133649,0.058652,0.111287,-0.065514,-0.404696,-0.041433,0.090925,0.175439,0.646099,0.159546,-0.350556,-0.424489,-0.033412,0.014663,0.027822,-0.016379,-0.101174,-0.010358,0.022731,0.043860,0.161525,0.039886,-0.087639,-0.106122,-0.033412,0.014663,0.027822,-0.016379,-0.101174,-0.010358,0.022731,0.043860,0.161525,0.039886,-0.087639,-0.106122,-0.000000,0.000000,0.000000,0.000000,0.000000,-0.000000,-0.000000,0.000000,0.000000,0.000000,-0.000000,-0.000000,-0.000000,0.000000,0.000000,0.000000,0.000000,-0.000000,-0.000000,0.000000,0.000000,0.000000,-0.000000,0.000000
40,1,0.040000,0,Stand,0.000000,0.000000,0.000000,0.031843,0.013560,0.006257,0.000223,-0.000569,-1.000000,0.000000,0.000000,0.000000,-0.003999,0.003313,0.004688,-0.002057,-0.022734,-0.002958,0.005672,0.010506,0.047846,0.011570,-0.025391,-0.031189,-0.294013,0.229066,0.341162,-0.166655,-1.537239,-0.186761,0.360177,0.683135,2.921445,0.716612,-1.576085,-1.928446,-0.133649,0.058652,0.111287,-0.065514,-0.404696,-0.041433,0.090925,0.175439,0.646099,0.159546,-0.350556,-0.424489,-0.039322,-0.110898,-0.051471,0.112011,-0.204305,0.007631,0.145163,0.143509,0.097463,-0.052722,0.152994,-0.050875,-0.009830,-0.027724,-0.012868,0.028003,-0.051076,0.001908,0.036291,0.035877,0.024366,-0.013180,0.038249,-0.012719,-0.009830,-0.027724,-0.012868,0.028003,-0.051076,0.001908,0.036291,0.035877,0.024366,-0.013180,0.038249,-0.012719,-0.003999,0.003313,0.004688,-0.002057,-0.022734,-0.002958,0.005672,0.010506,0.047846,0.011570,-0.025391,-0.031189,-0.294013,0.229066,0.341162,-0.166655,-1.537239,-0.186761,0.360177,0.683135,2.921445,0.716612,-1.576085,-1.928446
60,2,0.060000,0,Stand,0.000000,0.000000,0.000000,0.068262,0.061309,0.004114,0.001285,-0.001864,-0.999997,0.000000,0.000000,0.000000,-0.008373,0.001687,0.004846,0.000355,-0.038773,-0.003350,0.009861,0.019349,0.062230,0.009566,-0.020693,-0.040366,-0.169429,-0.186308,-0.119444,0.223971,-0.477088,0.057177,0.152699,0.326454,-0.070391,-0.362338,0.811360,0.062510,-0.039322,-0.110898,-0.051471,0.112011,-0.204305,0.007631,0.145163,0.143509,0.097463,-0.052722,0.152994,-0.050875,0.002777,-0.022275,0.010446,-0.038268,-0.173006,0.067547,0.022135,0.071062,0.547406,0.055882,-0.277371,-0.447601,0.000694,-0.005569,0.002611,-0.009567,-0.043252,0.016887,0.005534,0.017765,0.136851,0.013970,-0.069343,-0.111900,0.000694,-0.005569,0.002611,-0.009567,-0.043252,0.016887,0.005534,0.017765,0.136851,0.013970,-0.069343,-0.111900,-0.008373,0.001687,0.004846,0.000355,-0.038773,-0.003350,0.009861,0.019349,0.062230,0.009566,-0.020693,-0.040366,-0.169429,-0.186308,-0.119444,0.223971,-0.477088,0.057177,0.152699,0.326454,-0.070391,-0.362338,0.811360,0.062510
80,3,0.080000,0,Stand,0.000000,0.000000,0.000000,0.186259,-0.047970,-0.097191,0.000315,-0.003851,-0.999993,0.000000,0.000000,0.000000,-0.008870,0.001921,0.004773,0.004116,-0.014519,0.000334,0.008246,0.008125,0.024693,0.007510,-0.017402,-0.026360,0.160057,0.101557,0.135370,0.133785,2.405612,0.192661,-0.960069,-1.791201,-3.576089,0.037110,1.331583,2.637383,0.002777,-0.022275,0.010446,-0.038268,-0.173006,0.067547,0.022135,0.071062,0.547406,0.055882,-0.277371,-0.447601,-0.463514,-0.047819,-0.007811,-0.585333,-0.904447,-0.154252,0.198869,0.231678,1.375529,0.073283,-0.790096,-1.474040,-0.115879,-0.011955,-0.001953,-0.146333,-0.226112,-0.038563,0.049717,0.057919,0.343882,0.018321,-0.197524,-0.360000,-0.115879,-0.011955,-0.001953,-0.146333,-0.226112,-0.038563,0.049717,0.057919,0.343882,0.018321,-0.197524,-0.360000,-0.008870,0.001921,0.004773,0.004116,-0.014519,0.000334,0.008246,0.008125,0.024693,0.007510,-0.017402,-0.026360,0.160057,0.101557,0.135370,0.133785,2.405612,0.192661,-0.960069,-1.791201,-3.576089,0.037110,1.331584,2.637383
100,4,0.100000,0,Stand,0.000000,0.000000,0.000000,-0.293407,0.126757,-0.098367,0.002121,0.001210,-0.999997,0.000000,0.000000,0.000000,-0.002620,-0.001177,0.010005,0.001675,0.021759,0.020250,-0.018245,-0.018583,-0.033497,-0.022290,0.026271,0.017997,0.371931,-0.247150,0.327867,-0.229447,1.306281,0.915111,-1.134622,-0.848252,-2.213420,-1.508669,1.995730,1.541984,-0.463514,-0.047819,-0.007811,-0.585333,-0.904447,-0.154252,0.198869,0.231678,1.375529,0.073283,-0.790096,-1.474040,-0.512173,0.017625,0.149333,-0.190286,-0.862891,-0.313706,0.124147,-0.024249,1.420371,0.135458,-1.128271,-1.265466,-0.128043,0.004406,0.037333,-0.047572,-0.215723,-0.078427,0.031037,-0.006062,0.355093,0.033864,-0.282068,-0.316367,-0.128043,0.004406,0.037333,-0.047572,-0.215723,-0.078427,0.031037,-0.006062,0.355093,0.033864,-0.282068,-0.316367,-0.002620,-0.001177,0.010005,0.001675,0.021759,0.020250,-0.018245,-0.018583,-0.033497,-0.022290,0.026271,0.017997,0.371931,-0.247150,0.327867,-0.229447,1.306281,0.915111,-1.134622,-0.848252,-2.213420,-1.508670,1.995730,1.541984
120,5,0.120000,0,Stand,0.000000,0.000000,0.000000,-0.060195,0.023722,-0.010257,0.003061,0.003264,-0.999990,0.000000,0.000000,0.000000,-0.000381,-0.002404,0.011700,0.000726,0.030765,0.028920,-0.028952,-0.025937,-0.047165,-0.034685,0.042477,0.028345,-0.014283,0.022922,-0.037292,0.035627,-0.004405,0.136579,-0.163289,-0.108803,0.154829,-0.054458,0.064335,-0.057748,-0.512173,0.017625,0.149333,-0.190286,-0.862891,-0.313706,0.124147,-0.024249,1.420371,0.135458,-1.128271,-1.265466,-0.133588,-0.084698,0.116008,0.035812,-0.781483,-0.189302,0.101129,0.124954,0.819026,0.021242,-0.550488,-0.581626,-0.033397,-0.021175,0.029002,0.008953,-0.195371,-0.047326,0.025282,0.031239,0.204757,0.005310,-0.137622,-0.145406,-0.033397,-0.021175,0.029002,0.008953,-0.195371,-0.047326,0.025282,0.031239,0.204757,0.005310,-0.137622,-0.145406,-0.000381,-0.002404,0.011700,0.000726,0.030765,0.028920,-0.028952,-0.025937,-0.047165,-0.034685,0.042477,0.028345,-0.014283,0.022922,-0.037292,0.035627,-0.004405,0.136579,-0.163289,-0.108803,0.154829,-0.054458,0.064335,-0.057748
140,6,0.140000,0,Stand,0.000000,0.000000,0.000000,0.062851,-0.057538,0.003356,0.002002,0.002208,-0.999996,0.000000,0.000000,0.000000,-0.001263,-0.001208,0.010169,0.002259,0.025068,0.026665,-0.026576,-0.023825,-0.034861,-0.027828,0.034691,0.020714,-0.053394,0.072285,-0.088542,0.092019,-0.420119,-0.228801,0.259723,0.204862,0.831159,0.521940,-0.607609,-0.527190,-0.133588,-0.084698,0.116008,0.035812,-0.781483,-0.189302,0.101129,0.124954,0.819026,0.021242,-0.550488,-0.581626,-0.071456,-0.113440,-0.011049,-0.046007,-0.519375,0.026120,0.040193,0.029491,0.521553,-0.027490,-0.230673,-0.484080,-0.017864,-0.028360,-0.002762,-0.011502,-0.129844,0.006530,0.010048,0.007373,0.130388,-0.006873,-0.057668,-0.121020,-0.017864,-0.028360,-0.002762,-0.011502,-0.129844,0.006530,0.010048,0.007373,0.130388,-0.006873,-0.057668,-0.121020,-0.001263,-0.001208,0.010169,0.002259,0.025068,0.026665,-0.026576,-0.023825,-0.034861,-0.027828,0.034691,0.020714,-0.053394,0.072285,-0.088542,0.092019,-0.420119,-0.228801,0.259723,0.204862,0.831159,0.521940,-0.607609,-0.527190
160,7,0.160000,0,Stand,0.000000,0.000000,0.000000,0.026616,-0.076948,-0.005431,0.000487,0.001519,-0.999999,0.000000,0.000000,0.000000,-0.001370,-0.000748,0.009339,0.003192,0.018269,0.023445,-0.021722,-0.020669,-0.020738,-0.019588,0.023422,0.012049,0.018423,0.003233,-0.017862,0.025880,-0.291174,-0.122311,0.219591,0.122355,0.616027,0.339786,-0.507831,-0.357117,-0.071456,-0.113440,-0.011049,-0.046007,-0.519375,0.026120,0.040193,0.029491,0.521553,-0.027490,-0.230673,-0.484080,-0.116225,-0.070824,0.010596,-0.028681,-0.540079,-0.031000,0.045645,0.111448,0.634486,0.070902,-0.405544,-0.509431,-0.029056,-0.017706,0.002649,-0.007170,-0.135020,-0.007750,0.011411,0.027862,0.158621,0.017725,-0.101386,-0.127358,-0.029056,-0.017706,0.002649,-0.007170,-0.135020,-0.007750,0.011411,0.027862,0.158621,0.017725,-0.101386,-0.127358,-0.001370,-0.000748,0.009339,0.003192,0.018269,0.023445,-0.021722,-0.020669,-0.020738,-0.019588,0.023422,0.012049,0.018423,0.003233,-0.017862,0.025880,-0.291174,-0.122311,0.219591,0.122355,0.616027,0.339786,-0.507831,-0.357117
180,8,0.180000,0,Stand,0.000000,0.000000,0.000000,0.049069,-0.078255,-0.010174,-0.001067,0.000647,-0.999999,0.000000,0.000000,0.000000,-0.001410,-0.000251,0.008599,0.004133,0.012510,0.020566,-0.017095,-0.018337,-0.009193,-0.012815,0.013648,0.005986,-0.013288,0.034147,-0.047336,0.056754,-0.273405,-0.144222,0.235338,0.105744,0.540944,0.322267,-0.477249,-0.264968,-0.116225,-0.070824,0.010596,-0.028681,-0.540079,-0.031000,0.045645,0.111448,0.634486,0.070902,-0.405544,-0.509431,-0.131095,-0.066079,0.073788,-0.022920,-0.487903,-0.090414,0.031961,0.162958,0.653782,0.195391,-0.576633,-0.616358,-0.032774,-0.016520,0.018447,-0.005730,-0.121976,-0.022604,0.007990,0.040739,0.163445,0.048848,-0.144158,-0.154089,-0.032774,-0.016520,0.018447,-0.005730,-0.121976,-0.022604,0.007990,0.040739,0.163445,0.048848,-0.144158,-0.154089,-0.001410,-0.000251,0.008599,0.004133,0.012510,0.020566,-0.017095,-0.018337,-0.009193,-0.012815,0.013648,0.005986,-0.013288,0.034147,-0.047336,0.056754,-0.273405,-0.144222,0.235338,0.105744,0.540943,0.322267,-0.477249,-0.264968
200,9,0.200000,0,Stand,0.000000,0.000000,0.000000,-0.000739,-0.044743,-0.006589,-0.002074,0.000487,-0.999998,0.000000,0.000000,0.000000,-0.000911,-0.000489,0.008454,0.004368,0.006718,0.016095,-0.011226,-0.014302,0.000852,-0.005117,0.003354,-0.001040,0.041967,-0.032581,0.009817,-0.007809,-0.297138,-0.253105,0.311297,0.240798,0.479914,0.399061,-0.514916,-0.382574,-0.131095,-0.066079,0.073788,-0.022920,-0.487903,-0.090414,0.031961,0.162958,0.653782,0.195391,-0.576633,-0.616358,-0.175433,-0.042894,0.047311,0.009912,-0.403051,-0.052176,0.048398,0.278354,0.667324,0.158858,-0.572104,-0.621961,-0.043858,-0.010724,0.011828,0.002478,-0.100763,-0.013044,0.012100,0.069589,0.166831,0.039714,-0.143026,-0.155490,-0.043858,-0.010724,0.011828,0.002478,-0.100763,-0.013044,0.012100,0.069589,0.166831,0.039714,-0.143026,-0.155490,-0.000911,-0.000489,0.008454,0.004368,0.006718,0.016095,-0.011226,-0.014302,0.000852,-0.005117,0.003354,-0.001040,0.041967,-0.032581,0.009817,-0.007809,-0.297138,-0.253105,0.311297,0.240798,0.479914,0.399061,-0.514916,-0.382574
220,10,0.220000,0,Stand,0.000000,0.000000,0.000000,-0.013837,-0.011636,-0.030277,-0.002390,0.000750,-0.999997,0.000000,0.000000,0.000000,-0.000203,-0.000506,0.008529,0.004871,0.001085,0.010978,-0.005010,-0.008375,0.009205,0.002099,-0.005544,-0.008991,0.032818,0.014471,0.001564,0.041739,-0.267108,-0.246460,0.303026,0.313264,0.375948,0.327503,-0.397740,-0.390051,-0.175433,-0.042894,0.047311,0.009912,-0.403051,-0.052176,0.048398,0.278354,0.667324,0.158858,-0.572104,-0.621961,-0.164234,0.005276,0.059680,0.003712,-0.418780,-0.121321,0.053888,0.156382,0.722486,0.228224,-0.646071,-0.538762,-0.041058,0.001319,0.014920,0.000928,-0.104695,-0.030330,0.013472,0.039096,0.180622,0.057056,-0.161518,-0.134690,-0.041058,0.001319,0.014920,0.000928,-0.104695,-0.030330,0.013472,0.039096,0.180622,0.057056,-0.161518,-0.134690,-0.000203,-0.000506,0.008529,0.004871,0.001085,0.010978,-0.005010,-0.008375,0.009205,0.002099,-0.005544,-0.008991,0.032818,0.014471,0.001564,0.041739,-0.267108,-0.246460,0.303026,0.313264,0.375948,0.327503,-0.397740,-0.390051
240,11,0.240000,0,Stand,0.000000,0.000000,0.000000,0.062705,-0.050220,-0.024064,-0.003251,-0.000255,-0.999995,0.000000,0.000000,0.000000,-0.000929,0.000992,0.007158,0.006844,-0.004294,0.007058,0.000213,-0.004375,0.017330,0.007703,-0.013046,-0.014186,-0.064706,0.096924,-0.096958,0.119471,-0.263480,-0.161555,0.236299,0.142137,0.410730,0.239930,-0.357392,-0.189631,-0.164234,0.005276,0.059680,0.003712,-0.418780,-0.121321,0.053888,0.156382,0.722486,0.228224,-0.646071,-0.538762,-0.127643,0.033027,0.032930,-0.015582,-0.261289,-0.108105,0.035694,0.118061,0.587707,0.225239,-0.624848,-0.498452,-0.031911,0.008257,0.008233,-0.003895,-0.065322,-0.027026,0.008924,0.029515,0.146927,0.056310,-0.156212,-0.124613,-0.031911,0.008257,0.008233,-0.003895,-0.065322,-0.027026,0.008924,0.029515,0.146927,0.056310,-0.156212,-0.124613,-0.000929,0.000992,0.007158,0.006844,-0.004294,0.007058,0.000213,-0.004375,0.017330,0.007703,-0.013046,-0.014186,-0.064706,0.096924,-0.096958,0.119471,-0.263480,-0.161555,0.236299,0.142137,0.410730,0.239930,-0.357392,-0.189631
260,12,0.260000,0,Stand,0.000000,0.000000,0.000000,0.039008,-0.063022,-0.003438,-0.004505,-0.001157,-0.999989,0.000000,0.000000,0.000000,-0.002023,0.002387,0.005411,0.008618,-0.007523,0.005730,0.003390,-0.003378,0.022314,0.009441,-0.018066,-0.015330,-0.048035,0.053152,-0.080642,0.071340,-0.108024,-0.020105,0.116387,0.008258,0.155093,0.003757,-0.185436,0.008041,-0.127643,0.033027,0.032930,-0.015582,-0.261289,-0.108105,0.035694,0.118061,0.587707,0.225239,-0.624848,-0.498452,-0.134131,-0.013089,0.011827,-0.031466,-0.273595,-0.030499,0.040942,0.220036,0.629583,0.181208,-0.557131,-0.558402,-0.033533,-0.003272,0.002957,-0.007866,-0.068399,-0.007625,0.010236,0.055009,0.157396,0.045302,-0.139283,-0.139600,-0.033533,-0.003272,0.002957,-0.007866,-0.068399,-0.007625,0.010236,0.055009,0.157396,0.045302,-0.139283,-0.139600,-0.002023,0.002387,0.005411,0.008618,-0.007523,0.005730,0.003390,-0.003378,0.022314,0.009441,-0.018066,-0.015330,-0.048035,0.053152,-0.080642,0.071340,-0.108024,-0.020105,0.116387,0.008258,0.155093,0.003757,-0.185436,0.008041
280,13,0.280000,0,Stand,0.000000,0.000000,0.000000,-0.043788,-0.029659,-0.011054,-0.005199,-0.000511,-0.999986,0.000000,0.000000,0.000000,-0.001905,0.002636,0.004882,0.009243,-0.008121,0.006426,0.004930,-0.002852,0.022321,0.007217,-0.019573,-0.014772,0.027833,-0.001934,-0.004525,0.016979,0.010983,0.057648,0.056455,0.034385,-0.081756,-0.163298,-0.017484,0.039373,-0.134131,-0.013089,0.011827,-0.031466,-0.273595,-0.030499,0.040942,0.220036,0.629583,0.181208,-0.557131,-0.558402,-0.126155,-0.028717,0.047074,0.004419,-0.382139,-0.104831,0.066045,0.265008,0.684822,0.245637,-0.645097,-0.620506,-0.031539,-0.007179,0.011769,0.001105,-0.095535,-0.026208,0.016511,0.066252,0.171206,0.061409,-0.161274,-0.155126,-0.031539,-0.007179,0.011769,0.001105,-0.095535,-0.026208,0.016511,0.066252,0.171206,0.061409,-0.161274,-0.155126,-0.001905,0.002636,0.004882,0.009243,-0.008121,0.006426,0.004930,-0.002852,0.022321,0.007217,-0.019573,-0.014772,0.027833,-0.001934,-0.004525,0.016979,0.010983,0.057648,0.056455,0.034385,-0.081756,-0.163298,-0.017484,0.039373
300,14,0.300000,0,Stand,0.000000,0.000000,0.000000,-0.079551,0.025629,-0.022150,-0.004839,0.001009,-0.999988,0.000000,0.000000,0.000000,-0.001005,0.002414,0.005129,0.009449,-0.008362,0.005842,0.006874,-0.000001,0.020123,0.005460,-0.019844,-0.016042,0.049411,-0.011327,0.016759,0.010677,-0.023174,-0.069236,0.115986,0.191792,-0.117901,-0.048051,-0.014358,-0.114002,-0.126155,-0.028717,0.047074,0.004419,-0.382139,-0.104831,0.066045,0.265008,0.684822,0.245637,-0.645097,-0.620506,-0.106179,-0.011612,0.056588,0.000954,-0.462662,-0.136691,0.063748,0.220081,0.746205,0.290588,-0.698495,-0.594641,-0.026545,-0.002903,0.014147,0.000239,-0.115665,-0.034173,0.015937,0.055020,0.186551,0.072647,-0.174624,-0.148660,-0.026545,-0.002903,0.014147,0.000239,-0.115665,-0.034173,0.015937,0.055020,0.186551,0.072647,-0.174624,-0.148660,-0.001005,0.002414,0.005129,0.009449,-0.008362,0.005842,0.006874,-0.000001,0.020123,0.005460,-0.019844,-0.016042,0.049411,-0.011327,0.016759,0.010677,-0.023174,-0.069236,0.115986,0.191792,-0.117901,-0.048051,-0.014358,-0.114002
320,15,0.320000,0,Stand,0.000000,0.000000,0.000000,-0.040470,0.018086,-0.017730,-0.004422,0.001956,-0.999988,0.000000,0.000000,0.000000,-0.000588,0.002645,0.004863,0.010122,-0.009943,0.003692,0.009742,0.003867,0.019772,0.006041,-0.021493,-0.018918,0.007430,0.021184,-0.027032,0.043304,-0.105613,-0.120197,0.156038,0.189501,0.037403,0.062903,-0.120705,-0.156049,-0.106179,-0.011612,0.056588,0.000954,-0.462662,-0.136691,0.063748,0.220081,0.746205,0.290588,-0.698495,-0.594641,-0.085564,-0.023336,0.038245,-0.015917,-0.422857,-0.102663,0.031826,0.180993,0.727332,0.254392,-0.632586,-0.556392,-0.021391,-0.005834,0.009561,-0.003979,-0.105714,-0.025666,0.007956,0.045248,0.181833,0.063598,-0.158147,-0.139098,-0.021391,-0.005834,0.009561,-0.003979,-0.105714,-0.025666,0.007956,0.045248,0.181833,0.063598,-0.158147,-0.139098,-0.000588,0.002645,0.004863,0.010122,-0.009943,0.003692,0.009742,0.003867,0.019772,0.006041,-0.021493,-0.018918,0.007430,0.021184,-0.027032,0.043304,-0.105613,-0.120197,0.156038,0.189501,0.037403,0.062903,-0.120705,-0.156049
340,16,0.340000,0,Stand,0.000000,0.000000,0.000000,-0.017519,-0.022403,-0.009860,-0.004758,0.002352,-0.999986,0.000000,0.000000,0.000000,-0.000538,0.003042,0.004221,0.010961,-0.011786,0.002525,0.012192,0.006035,0.021167,0.006397,-0.024031,-0.020653,0.000912,0.017824,-0.033624,0.040027,-0.083750,-0.027134,0.104864,0.066788,0.082684,-0.006624,-0.128557,-0.049340,-0.085564,-0.023336,0.038245,-0.015917,-0.422857,-0.102663,0.031826,0.180993,0.727332,0.254392,-0.632586,-0.556392,-0.082994,-0.032254,0.026884,-0.026031,-0.394769,-0.081987,0.030176,0.195547,0.712016,0.226821,-0.581428,-0.553621,-0.020748,-0.008063,0.006721,-0.006508,-0.098692,-0.020497,0.007544,0.048887,0.178004,0.056705,-0.145357,-0.138405,-0.020748,-0.008063,0.006721,-0.006508,-0.098692,-0.020497,0.007544,0.048887,0.178004,0.056705,-0.145357,-0.138405,-0.000538,0.003042,0.004221,0.010961,-0.011786,0.002525,0.012192,0.006035,0.021167,0.006397,-0.024031,-0.020653,0.000912,0.017824,-0.033624,0.040027,-0.083750,-0.027134,0.104864,0.066788,0.082684,-0.006624,-0.128557,-0.049340
360,17,0.360000,0,Stand,0.000000,0.000000,0.000000,-0.019458,-0.032901,-0.009582,-0.005408,0.002721,-0.999982,0.000000,0.000000,0.000000,-0.000267,0.003173,0.003814,0.011529,-0.012751,0.002859,0.013533,0.006533,0.022096,0.005218,-0.025706,-0.020591,0.019214,0.001986,-0.014385,0.023714,-0.029555,0.035398,0.046910,0.005433,0.024312,-0.081944,-0.057220,0.029242,-0.082994,-0.032254,0.026884,-0.026031,-0.394769,-0.081987,0.030176,0.195547,0.712016,0.226821,-0.581428,-0.553621,-0.094173,-0.034309,0.034151,-0.028489,-0.438480,-0.104014,0.054048,0.223625,0.714694,0.231650,-0.596362,-0.556294,-0.023543,-0.008577,0.008538,-0.007122,-0.109620,-0.026003,0.013512,0.055906,0.178674,0.057913,-0.149091,-0.139074,-0.023543,-0.008577,0.008538,-0.007122,-0.109620,-0.026003,0.013512,0.055906,0.178674,0.057913,-0.149091,-0.139074,-0.000267,0.003173,0.003814,0.011529,-0.012751,0.002859,0.013533,0.006533,0.022096,0.005218,-0.025706,-0.020591,0.019214,0.001986,-0.014385,0.023714,-0.029555,0.035398,0.046910,0.005433,0.024312,-0.081944,-0.057220,0.029242
380,18,0.380000,0,Stand,0.000000,0.000000,0.000000,-0.013973,-0.014905,-0.010025,-0.005764,0.003021,-0.999979,0.000000,0.000000,0.000000,0.000192,0.003129,0.003606,0.011910,-0.013296,0.003150,0.014326,0.006900,0.022150,0.003887,-0.026269,-0.020060,0.024839,-0.004233,-0.008401,0.016922,-0.025734,0.003856,0.034563,0.024217,-0.007009,-0.056341,-0.012598,0.024187,-0.094173,-0.034309,0.034151,-0.028489,-0.438480,-0.104014,0.054048,0.223625,0.714694,0.231650,-0.596362,-0.556294,-0.094470,-0.029674,0.037106,-0.026158,-0.430608,-0.107774,0.056247,0.214445,0.724520,0.244003,-0.619345,-0.563702,-0.023617,-0.007419,0.009277,-0.006539,-0.107652,-0.026943,0.014062,0.053611,0.181130,0.061001,-0.154836,-0.140925,-0.023617,-0.007419,0.009277,-0.006539,-0.107652,-0.026943,0.014062,0.053611,0.181130,0.061001,-0.154836,-0.140925,0.000192,0.003129,0.003606,0.011910,-0.013296,0.003150,0.014326,0.006900,0.022150,0.003887,-0.026269,-0.020060,0.024839,-0.004233,-0.008401,0.016922,-0.025734,0.003856,0.034563,0.024217,-0.007009,-0.056341,-0.012598,0.024187
400,19,0.400000,0,Stand,0.000000,0.000000,0.000000,-0.006000,-0.006817,-0.008915,-0.005916,0.003159,-0.999978,0.000000,0.000000,0.000000,0.000706,0.002992,0.003455,0.012202,-0.013856,0.002992,0.014938,0.007415,0.022155,0.003225,-0.026489,-0.019745,0.026396,-0.008479,-0.006833,0.013036,-0.029195,-0.013552,0.027284,0.025890,0.005280,-0.020510,-0.009617,0.011135,-0.094470,-0.029674,0.037106,-0.026158,-0.430608,-0.107774,0.056247,0.214445,0.724520,0.244003,-0.619345,-0.563702,-0.101937,-0.022505,0.033890,-0.016614,-0.413746,-0.103375,0.056821,0.223428,0.713746,0.229512,-0.612361,-0.558484,-0.025484,-0.005626,0.008473,-0.004154,-0.103436,-0.025844,0.014205,0.055857,0.178437,0.057378,-0.153090,-0.139621,-0.025484,-0.005626,0.008473,-0.004154,-0.103436,-0.025844,0.014205,0.055857,0.178437,0.057378,-0.153090,-0.139621,0.000706,0.002992,0.003455,0.012202,-0.013856,0.002992,0.014938,0.007415,0.022155,0.003225,-0.026489,-0.019745,0.026396,-0.008479,-0.006833,0.013036,-0.029195,-0.013552,0.027284,0.025890,0.005280,-0.020510,-0.009617,0.011135
420,20,0.420000,0,Stand,0.000000,0.000000,0.000000,0.004379,-0.003795,-0.010357,-0.005994,0.003093,-0.999977,0.000000,0.000000,0.000000,0.001154,0.002913,0.003245,0.012580,-0.014298,0.002716,0.015233,0.007783,0.022235,0.002995,-0.026419,-0.019426,0.022054,-0.004655,-0.010789,0.020243,-0.017342,-0.015028,0.007459,0.011834,0.003315,-0.004130,0.009779,0.020645,-0.101937,-0.022505,0.033890,-0.016614,-0.413746,-0.103375,0.056821,0.223428,0.713746,0.229512,-0.612361,-0.558484,-0.108253,-0.020989,0.027540,-0.018035,-0.410836,-0.101369,0.057119,0.222428,0.705711,0.227829,-0.612902,-0.557016,-0.027063,-0.005247,0.006885,-0.004509,-0.102709,-0.025342,0.014280,0.055607,0.176428,0.056957,-0.153225,-0.139254,-0.027063,-0.005247,0.006885,-0.004509,-0.102709,-0.025342,0.014280,0.055607,0.176428,0.056957,-0.153225,-0.139254,0.001154,0.002913,0.003245,0.012580,-0.014298,0.002716,0.015233,0.007783,0.022235,0.002995,-0.026419,-0.019426,0.022054,-0.004655,-0.010789,0.020243,-0.017342,-0.015028,0.007459,0.011834,0.003315,-0.004130,0.009779,0.020645
440,21,0.440000,0,Stand,0.000000,0.000000,0.000000,0.012182,-0.002242,-0.010017,-0.006047,0.002868,-0.999978,0.000000,0.000000,0.000000,0.001501,0.002879,0.002933,0.013059,-0.014506,0.002494,0.015156,0.007825,0.022235,0.002943,-0.026019,-0.018868,0.015895,-0.000831,-0.017065,0.024910,-0.006738,-0.008185,-0.009755,-0.001968,-0.001823,-0.003107,0.025256,0.030084,-0.108253,-0.020989,0.027540,-0.018035,-0.410836,-0.101369,0.057119,0.222428,0.705711,0.227829,-0.612902,-0.557016,-0.113485,-0.022804,0.024679,-0.021861,-0.403201,-0.093743,0.057830,0.227033,0.702621,0.221011,-0.607302,-0.555023,-0.028371,-0.005701,0.006170,-0.005465,-0.100800,-0.023436,0.014458,0.056758,0.175655,0.055253,-0.151826,-0.138756,-0.028371,-0.005701,0.006170,-0.005465,-0.100800,-0.023436,0.014458,0.056758,0.175655,0.055253,-0.151826,-0.138756,0.001501,0.002879,0.002933,0.013059,-0.014506,0.002494,0.015156,0.007825,0.022235,0.002943,-0.026019,-0.018868,0.015895,-0.000831,-0.017065,0.024910,-0.006738,-0.008185,-0.009755,-0.001968,-0.001823,-0.003107,0.025256,0.030084
460,22,0.460000,0,Stand,0.000000,0.000000,0.000000,0.012413,0.001737,-0.009456,-0.006023,0.002616,-0.999978,0.000000,0.000000,0.000000,0.001833,0.002843,0.002608,0.013528,-0.014461,0.002492,0.014769,0.007684,0.022029,0.002745,-0.025321,-0.018223,0.017448,-0.002803,-0.015384,0.022215,0.007121,0.003526,-0.024246,-0.009293,-0.014723,-0.012307,0.039358,0.032241,-0.113485,-0.022804,0.024679,-0.021861,-0.403201,-0.093743,0.057830,0.227033,0.702621,0.221011,-0.607302,-0.555023,-0.119842,-0.027599,0.028318,-0.017751,-0.410439,-0.093446,0.063230,0.237383,0.704429,0.210713,-0.613323,-0.557431,-0.029960,-0.006900,0.007080,-0.004438,-0.102610,-0.023361,0.015808,0.059346,0.176107,0.052678,-0.153331,-0.139358,-0.029960,-0.006900,0.007080,-0.004438,-0.102610,-0.023361,0.015808,0.059346,0.176107,0.052678,-0.153331,-0.139358,0.001833,0.002843,0.002608,0.013528,-0.014461,0.002492,0.014769,0.007684,0.022029,0.002745,-0.025321,-0.018223,0.017448,-0.002803,-0.015384,0.022215,0.007121,0.003526,-0.024246,-0.009293,-0.014723,-0.012307,0.039358,0.032241
480,23,0.480000,0,Stand,0.000000,0.000000,0.000000,0.002445,0.001441,-0.010945,-0.005983,0.002531,-0.999979,0.000000,0.000000,0.000000,0.002345,0.002655,0.002543,0.013839,-0.014235,0.002726,0.014124,0.007497,0.021833,0.002470,-0.024449,-0.017771,0.028288,-0.011396,-0.001595,0.013492,0.013341,0.013471,-0.028345,-0.008288,-0.008773,-0.012491,0.033775,0.017314,-0.119842,-0.027599,0.028318,-0.017751,-0.410439,-0.093446,0.063230,0.237383,0.704429,0.210713,-0.613323,-0.557431,-0.122448,-0.025394,0.033405,-0.011183,-0.428832,-0.106034,0.071805,0.246422,0.707941,0.216596,-0.626295,-0.559642,-0.030612,-0.006348,0.008351,-0.002796,-0.107208,-0.026508,0.017951,0.061606,0.176985,0.054149,-0.156574,-0.139911,-0.030612,-0.006348,0.008351,-0.002796,-0.107208,-0.026508,0.017951,0.061606,0.176985,0.054149,-0.156574,-0.139911,0.002345,0.002655,0.002543,0.013839,-0.014235,0.002726,0.014124,0.007497,0.021833,0.002470,-0.024449,-0.017771,0.028288,-0.011396,-0.001595,0.013492,0.013341,0.013471,-0.028345,-0.008288,-0.008773,-0.012491,0.033775,0.017314
500,24,0.500000,0,Stand,0.000000,0.000000,0.000000,-0.000572,0.008368,-0.007886,-0.005836,0.002519,-0.999980,0.000000,0.000000,0.000000,0.002881,0.002415,0.002460,0.014094,-0.014238,0.002727,0.013739,0.007577,0.021915,0.002518,-0.024029,-0.017767,0.027834,-0.016552,-0.001854,0.007986,-0.012120,-0.006729,-0.020755,0.010394,0.014485,0.007644,0.024142,-0.009589,-0.122448,-0.025394,0.033405,-0.011183,-0.428832,-0.106034,0.071805,0.246422,0.707941,0.216596,-0.626295,-0.559642,-0.121021,-0.023311,0.031109,-0.009564,-0.427330,-0.102901,0.067480,0.243949,0.710624,0.219560,-0.624081,-0.559525,-0.030255,-0.005828,0.007777,-0.002391,-0.106833,-0.025725,0.016870,0.060987,0.177656,0.054890,-0.156020,-0.139881,-0.030255,-0.005828,0.007777,-0.002391,-0.106833,-0.025725,0.016870,0.060987,0.177656,0.054890,-0.156020,-0.139881,0.002881,0.002415,0.002460,0.014094,-0.014238,0.002727,0.013739,0.007577,0.021915,0.002518,-0.024029,-0.017767,0.027834,-0.016552,-0.001854,0.007986,-0.012120,-0.006729,-0.020755,0.010394,0.014485,0.007644,0.024142,-0.009589
520,25,0.520000,0,Stand,0.000000,0.000000,0.000000,-0.004835,0.010626,0.001207,-0.005627,0.002613,-0.999981,0.000000,0.000000,0.000000,0.003325,0.002066,0.002333,0.014232,-0.014455,0.002500,0.013333,0.007810,0.022084,0.002752,-0.023641,-0.018096,0.018057,-0.017018,-0.010012,0.007250,-0.007580,-0.012809,-0.018698,0.011019,0.002439,0.013196,0.013652,-0.019016,-0.121021,-0.023311,0.031109,-0.009564,-0.427330,-0.102901,0.067480,0.243949,0.710624,0.219560,-0.624081,-0.559525,-0.118038,-0.024417,0.028123,-0.010441,-0.415732,-0.090734,0.060817,0.242954,0.712111,0.210639,-0.605652,-0.553936,-0.029509,-0.006104,0.007031,-0.002610,-0.103933,-0.022683,0.015204,0.060739,0.178028,0.052660,-0.151413,-0.138484,-0.029509,-0.006104,0.007031,-0.002610,-0.103933,-0.022683,0.015204,0.060739,0.178028,0.052660,-0.151413,-0.138484,0.003325,0.002066,0.002333,0.014232,-0.014455,0.002500,0.013333,0.007810,0.022084,0.002752,-0.023641,-0.018096,0.018057,-0.017018,-0.010012,0.007250,-0.007580,-0.012809,-0.018698,0.011019,0.002439,0.013196,0.013652,-0.019016
540,26,0.540000,0,Stand,0.000000,0.000000,0.000000,-0.001024,0.007608,0.004164,-0.005468,0.002646,-0.999982,0.000000,0.000000,0.000000,0.003562,0.001819,0.002014,0.014467,-0.014369,0.002443,0.012868,0.007833,0.021850,0.002797,-0.023348,-0.018282,0.008447,-0.009875,-0.019164,0.014211,0.009940,0.001069,-0.024991,-0.003182,-0.019135,-0.002505,0.014900,-0.004646,-0.118038,-0.024417,0.028123,-0.010441,-0.415732,-0.090734,0.060817,0.242954,0.712111,0.210639,-0.605652,-0.553936,-0.119303,-0.026275,0.029859,-0.010863,-0.416400,-0.087708,0.064706,0.248552,0.711508,0.204142,-0.599713,-0.552548,-0.029826,-0.006569,0.007465,-0.002716,-0.104100,-0.021927,0.016176,0.062138,0.177877,0.051036,-0.149928,-0.138137,-0.029826,-0.006569,0.007465,-0.002716,-0.104100,-0.021927,0.016176,0.062138,0.177877,0.051036,-0.149928,-0.138137,0.003562,0.001819,0.002014,0.014467,-0.014369,0.002443,0.012868,0.007833,0.021850,0.002797,-0.023348,-0.018282,0.008447,-0.009875,-0.019164,0.014211,0.009940,0.001069,-0.024991,-0.003182,-0.019135,-0.002505,0.014900,-0.004646
560,27,0.560000,0,Stand,0.000000,0.000000,0.000000,-0.004008,0.007463,0.003271,-0.005320,0.002714,-0.999982,0.000000,0.000000,0.000000,0.003739,0.001636,0.001644,0.014763,-0.014016,0.002593,0.012357,0.007746,0.021226,0.002549,-0.023007,-0.018309,0.009144,-0.008585,-0.018210,0.015294,0.021189,0.010306,-0.025562,-0.004370,-0.036877,-0.016907,0.017996,-0.000180,-0.119303,-0.026275,0.029859,-0.010863,-0.416400,-0.087708,0.064706,0.248552,0.711508,0.204142,-0.599713,-0.552548,-0.119885,-0.025437,0.034480,-0.008804,-0.428037,-0.093822,0.071482,0.253264,0.710344,0.207920,-0.604903,-0.550258,-0.029971,-0.006359,0.008620,-0.002201,-0.107009,-0.023456,0.017871,0.063316,0.177586,0.051980,-0.151226,-0.137564,-0.029971,-0.006359,0.008620,-0.002201,-0.107009,-0.023456,0.017871,0.063316,0.177586,0.051980,-0.151226,-0.137564,0.003739,0.001636,0.001644,0.014763,-0.014016,0.002593,0.012357,0.007746,0.021226,0.002549,-0.023007,-0.018309,0.009144,-0.008585,-0.018210,0.015294,0.021189,0.010306,-0.025562,-0.004370,-0.036877,-0.016907,0.017996,-0.000180
580,28,0.580000,0,Stand,0.000000,0.000000,0.000000,-0.005063,0.008641,0.002387,-0.005150,0.002815,-0.999983,0.000000,0.000000,0.000000,0.003894,0.001501,0.001254,0.015104,-0.013630,0.002718,0.011934,0.007755,0.020460,0.002257,-0.022696,-0.018373,0.006983,-0.005717,-0.020247,0.018086,0.017994,0.004467,-0.018768,0.002971,-0.038146,-0.013538,0.013849,-0.005121,-0.119885,-0.025437,0.034480,-0.008804,-0.428037,-0.093822,0.071482,0.253264,0.710344,0.207920,-0.604903,-0.550258,-0.118812,-0.024114,0.036124,-0.007297,-0.428637,-0.095233,0.072301,0.252338,0.710204,0.211932,-0.609147,-0.549835,-0.029703,-0.006028,0.009031,-0.001824,-0.107159,-0.023808,0.018075,0.063085,0.177551,0.052983,-0.152287,-0.137459,-0.029703,-0.006028,0.009031,-0.001824,-0.107159,-0.023808,0.018075,0.063085,0.177551,0.052983,-0.152287,-0.137459,0.003894,0.001501,0.001254,0.015104,-0.013630,0.002718,0.011934,0.007755,0.020460,0.002257,-0.022696,-0.018373,0.006983,-0.005717,-0.020247,0.018086,0.017994,0.004467,-0.018768,0.002971,-0.038146,-0.013538,0.013849,-0.005121
600,29,0.600000,0,Stand,0.000000,0.000000,0.000000,-0.004868,0.007734,0.001691,-0.004992,0.002913,-0.999983,0.000000,0.000000,0.000000,0.004011,0.001419,0.000826,0.015499,-0.013346,0.002751,0.011657,0.007889,0.019792,0.002054,-0.022540,-0.018558,0.005364,-0.003227,-0.021797,0.020585,0.012058,0.000778,-0.011104,0.008496,-0.030131,-0.008917,0.004249,-0.011326,-0.118812,-0.024114,0.036124,-0.007297,-0.428637,-0.095233,0.072301,0.252338,0.710204,0.211932,-0.609147,-0.549835,-0.118887,-0.023404,0.036345,-0.006199,-0.425642,-0.094434,0.071906,0.252039,0.708033,0.211541,-0.608250,-0.548971,-0.029722,-0.005851,0.009086,-0.001550,-0.106410,-0.023608,0.017977,0.063010,0.177008,0.052885,-0.152063,-0.137243,-0.029722,-0.005851,0.009086,-0.001550,-0.106410,-0.023608,0.017977,0.063010,0.177008,0.052885,-0.152063,-0.137243,0.004011,0.001419,0.000826,0.015499,-0.013346,0.002751,0.011657,0.007889,0.019792,0.002054,-0.022540,-0.018558,0.005364,-0.003227,-0.021797,0.020585,0.012058,0.000778,-0.011104,0.008496,-0.030131,-0.008917,0.004249,-0.011326
620,30,0.620000,0,Stand,0.000000,0.000000,0.000000,-0.004623,0.005980,0.000400,-0.004869,0.003007,-0.999984,0.000000,0.000000,0.000000,0.004105,0.001389,0.000380,0.015945,-0.013143,0.002773,0.011489,0.008091,0.019254,0.001864,-0.022511,-0.018804,0.004611,-0.000701,-0.022388,0.023098,0.008991,0.001256,-0.006932,0.011002,-0.025221,-0.009945,0.000228,-0.012702,-0.118887,-0.023404,0.036345,-0.006199,-0.425642,-0.094434,0.071906,0.252039,0.708033,0.211541,-0.608250,-0.548971,-0.119170,-0.022504,0.036779,-0.006675,-0.422475,-0.094561,0.071128,0.250979,0.707479,0.213500,-0.609023,-0.550347,-0.029793,-0.005626,0.009195,-0.001669,-0.105619,-0.023640,0.017782,0.062745,0.176870,0.053375,-0.152256,-0.137587,-0.029793,-0.005626,0.009195,-0.001669,-0.105619,-0.023640,0.017782,0.062745,0.176870,0.053375,-0.152256,-0.137587,0.004105,0.001389,0.000380,0.015945,-0.013143,0.002773,0.011489,0.008091,0.019254,0.001864,-0.022511,-0.018804,0.004611,-0.000701,-0.022388,0.023098,0.008991,0.001256,-0.006932,0.011002,-0.025221,-0.009945,0.000228,-0.012702
640,31,0.640000,0,Stand,0.000000,0.000000,0.000000,-0.005263,0.004853,-0.000941,-0.004769,0.003110,-0.999984,0.000000,0.000000,0.000000,0.004208,0.001384,-0.000055,0.016415,-0.012988,0.002801,0.011392,0.008339,0.018790,0.001657,-0.022542,-0.019073,0.005594,-0.000142,-0.021218,0.023635,0.006926,0.001694,-0.003602,0.013045,-0.021819,-0.010807,-0.002679,-0.013650,-0.119170,-0.022504,0.036779,-0.006675,-0.422475,-0.094561,0.071128,0.250979,0.707479,0.213500,-0.609023,-0.550347,-0.119378,-0.022234,0.037284,-0.007515,-0.420797,-0.094701,0.070567,0.249835,0.707418,0.215283,-0.610865,-0.551201,-0.029845,-0.005559,0.009321,-0.001879,-0.105199,-0.023675,0.017642,0.062459,0.176855,0.053821,-0.152716,-0.137800,-0.029845,-0.005559,0.009321,-0.001879,-0.105199,-0.023675,0.017642,0.062459,0.176855,0.053821,-0.152716,-0.137800,0.004208,0.001384,-0.000055,0.016415,-0.012988,0.002801,0.011392,0.008339,0.018790,0.001657,-0.022542,-0.019073,0.005594,-0.000142,-0.021218,0.023635,0.006926,0.001694,-0.003602,0.013045,-0.021819,-0.010807,-0.002679,-0.013650
660,32,0.660000,0,Stand,0.000000,0.000000,0.000000,-0.006061,0.003085,-0.001916,-0.004702,0.003229,-0.999984,0.000000,0.000000,0.000000,0.004337,0.001377,-0.000460,0.016883,-0.012878,0.002849,0.011360,0.008603,0.018418,0.001435,-0.022656,-0.019349,0.006876,-0.000363,-0.019761,0.023296,0.004628,0.002963,-0.000666,0.013106,-0.016598,-0.011446,-0.007295,-0.013648,-0.119378,-0.022234,0.037284,-0.007515,-0.420797,-0.094701,0.070567,0.249835,0.707418,0.215283,-0.610865,-0.551201,-0.120310,-0.021959,0.037967,-0.007506,-0.420870,-0.094804,0.071429,0.250638,0.707162,0.215522,-0.611137,-0.551555,-0.030077,-0.005490,0.009492,-0.001877,-0.105218,-0.023701,0.017857,0.062659,0.176791,0.053880,-0.152784,-0.137889,-0.030077,-0.005490,0.009492,-0.001877,-0.105218,-0.023701,0.017857,0.062659,0.176791,0.053880,-0.152784,-0.137889,0.004337,0.001377,-0.000460,0.016883,-0.012878,0.002849,0.011360,0.008603,0.018418,0.001435,-0.022656,-0.019349,0.006876,-0.000363,-0.019761,0.023296,0.004628,0.002963,-0.000666,0.013106,-0.016598,-0.011446,-0.007295,-0.013648
680,33,0.680000,0,Stand,0.000000,0.000000,0.000000,-0.005879,0.001714,-0.002693,-0.004665,0.003347,-0.999983,0.000000,0.000000,0.000000,0.004485,0.001371,-0.000841,0.017348,-0.012816,0.002912,0.011371,0.008870,0.018143,0.001207,-0.022833,-0.019618,0.007771,-0.000334,-0.018644,0.023249,0.002222,0.003244,0.001228,0.013314,-0.012092,-0.011383,-0.009611,-0.013111,-0.120310,-0.021959,0.037967,-0.007506,-0.420870,-0.094804,0.071429,0.250638,0.707162,0.215522,-0.611137,-0.551555,-0.120312,-0.021206,0.038982,-0.007150,-0.421293,-0.096400,0.072180,0.250763,0.705897,0.217393,-0.612383,-0.551878,-0.030078,-0.005301,0.009745,-0.001788,-0.105323,-0.024100,0.018045,0.062691,0.176474,0.054348,-0.153096,-0.137969,-0.030078,-0.005301,0.009745,-0.001788,-0.105323,-0.024100,0.018045,0.062691,0.176474,0.054348,-0.153096,-0.137969,0.004485,0.001371,-0.000841,0.017348,-0.012816,0.002912,0.011371,0.008870,0.018143,0.001207,-0.022833,-0.019618,0.007771,-0.000334,-0.018644,0.023249,0.002222,0.003244,0.001228,0.013314,-0.012092,-0.011383,-0.009611,-0.013111
700,34,0.700000,0,Stand,0.000000,0.000000,0.000000,-0.005427,0.001477,-0.003344,-0.004636,0.003456,-0.999983,0.000000,0.000000,0.000000,0.004652,0.001361,-0.001199,0.017808,-0.012804,0.002941,0.011424,0.009165,0.017938,0.001017,-0.023038,-0.019894,0.008829,-0.000648,-0.017386,0.022810,-0.000145,0.000879,0.003185,0.015277,-0.009261,-0.008840,-0.010381,-0.013918,-0.120312,-0.021206,0.038982,-0.007150,-0.421293,-0.096400,0.072180,0.250763,0.705897,0.217393,-0.612383,-0.551878,-0.120183,-0.020438,0.038916,-0.007261,-0.418539,-0.096204,0.071453,0.249919,0.704088,0.218154,-0.611953,-0.551899,-0.030046,-0.005109,0.009729,-0.001815,-0.104635,-0.024051,0.017863,0.062480,0.176022,0.054539,-0.152988,-0.137975,-0.030046,-0.005109,0.009729,-0.001815,-0.104635,-0.024051,0.017863,0.062480,0.176022,0.054539,-0.152988,-0.137975,0.004652,0.001361,-0.001199,0.017808,-0.012804,0.002941,0.011424,0.009165,0.017938,0.001017,-0.023038,-0.019894,0.008829,-0.000648,-0.017386,0.022810,-0.000145,0.000879,0.003185,0.015277,-0.009261,-0.008840,-0.010381,-0.013918
720,35,0.720000,0,Stand,0.000000,0.000000,0.000000,-0.005046,0.001371,-0.003932,-0.004609,0.003558,-0.999983,0.000000,0.000000,0.000000,0.004843,0.001342,-0.001531,0.018257,-0.012810,0.002956,0.011481,0.009467,0.017755,0.000841,-0.023218,-0.020151,0.010036,-0.001223,-0.016031,0.022137,-0.000368,0.000864,0.002603,0.014795,-0.008919,-0.008922,-0.008182,-0.012026,-0.120183,-0.020438,0.038916,-0.007261,-0.418539,-0.096204,0.071453,0.249919,0.704088,0.218154,-0.611953,-0.551899,-0.120727,-0.020310,0.038634,-0.007435,-0.416074,-0.095259,0.070880,0.249360,0.702837,0.217632,-0.611913,-0.552053,-0.030182,-0.005078,0.009659,-0.001859,-0.104018,-0.023815,0.017720,0.062340,0.175709,0.054408,-0.152978,-0.138013,-0.030182,-0.005078,0.009659,-0.001859,-0.104018,-0.023815,0.017720,0.062340,0.175709,0.054408,-0.152978,-0.138013,0.004843,0.001342,-0.001531,0.018257,-0.012810,0.002956,0.011481,0.009467,0.017755,0.000841,-0.023218,-0.020151,0.010036,-0.001223,-0.016031,0.022137,-0.000368,0.000864,0.002603,0.014795,-0.008919,-0.008922,-0.008182,-0.012026
740,36,0.740000,0,Stand,0.000000,0.000000,0.000000,-0.004598,0.000836,-0.004295,-0.004591,0.003651,-0.999983,0.000000,0.000000,0.000000,0.005059,0.001307,-0.001835,0.018689,-0.012809,0.002999,0.011511,0.009729,0.017576,0.000636,-0.023349,-0.020343,0.011201,-0.002038,-0.014748,0.021253,0.000153,0.002745,0.000890,0.012180,-0.008785,-0.010874,-0.005667,-0.008229,-0.120727,-0.020310,0.038634,-0.007435,-0.416074,-0.095259,0.070880,0.249360,0.702837,0.217632,-0.611913,-0.552053,-0.121563,-0.019920,0.039398,-0.007074,-0.416481,-0.095849,0.072280,0.250205,0.702044,0.217633,-0.613364,-0.552252,-0.030391,-0.004980,0.009849,-0.001768,-0.104120,-0.023962,0.018070,0.062551,0.175511,0.054408,-0.153341,-0.138063,-0.030391,-0.004980,0.009849,-0.001768,-0.104120,-0.023962,0.018070,0.062551,0.175511,0.054408,-0.153341,-0.138063,0.005059,0.001307,-0.001835,0.018689,-0.012809,0.002999,0.011511,0.009729,0.017576,0.000636,-0.023349,-0.020343,0.011201,-0.002038,-0.014748,0.021253,0.000153,0.002745,0.000890,0.012180,-0.008785,-0.010874,-0.005667,-0.008229
760,37,0.760000,0,Stand,0.000000,0.000000,0.000000,-0.004477,0.000668,-0.004562,-0.004578,0.003740,-0.999983,0.000000,0.000000,0.000000,0.005301,0.001251,-0.002109,0.019097,-0.012809,0.003053,0.011525,0.009966,0.017408,0.000420,-0.023449,-0.020490,0.012682,-0.003264,-0.013107,0.019945,-0.000126,0.002685,0.000529,0.011576,-0.008111,-0.010663,-0.004559,-0.006840,-0.121563,-0.019920,0.039398,-0.007074,-0.416481,-0.095849,0.072280,0.250205,0.702044,0.217633,-0.613364,-0.552252,-0.121969,-0.019200,0.040306,-0.006527,-0.417528,-0.096862,0.073764,0.250967,0.701436,0.218525,-0.615054,-0.552403,-0.030492,-0.004800,0.010076,-0.001632,-0.104382,-0.024216,0.018441,0.062742,0.175359,0.054631,-0.153763,-0.138101,-0.030492,-0.004800,0.010076,-0.001632,-0.104382,-0.024216,0.018441,0.062742,0.175359,0.054631,-0.153763,-0.138101,0.005301,0.001251,-0.002109,0.019097,-0.012809,0.003053,0.011525,0.009966,0.017408,0.000420,-0.023449,-0.020490,0.012682,-0.003264,-0.013107,0.019945,-0.000126,0.002685,0.000529,0.011576,-0.008111,-0.010663,-0.004559,-0.006840
780,38,0.780000,0,Stand,0.000000,0.000000,0.000000,-0.005348,0.001536,-0.004170,-0.004552,0.003842,-0.999982,0.000000,0.000000,0.000000,0.005561,0.001137,-0.002328,0.019445,-0.012613,0.003044,0.011562,0.010240,0.016835,0.000228,-0.023507,-0.020620,0.013411,-0.007822,-0.009285,0.015196,0.014967,-0.002763,0.002827,0.015085,-0.041346,-0.009375,-0.001381,-0.005712,-0.121969,-0.019200,0.040306,-0.006527,-0.417528,-0.096862,0.073764,0.250967,0.701436,0.218525,-0.615054,-0.552403,-0.121347,-0.017895,0.041622,-0.005828,-0.418622,-0.097893,0.074626,0.251011,0.703507,0.220652,-0.618436,-0.552727,-0.030337,-0.004474,0.010406,-0.001457,-0.104656,-0.024473,0.018656,0.062753,0.175877,0.055163,-0.154609,-0.138182,-0.030337,-0.004474,0.010406,-0.001457,-0.104656,-0.024473,0.018656,0.062753,0.175877,0.055163,-0.154609,-0.138182,0.005561,0.001137,-0.002328,0.019445,-0.012613,0.003044,0.011562,0.010240,0.016835,0.000228,-0.023507,-0.020620,0.013411,-0.007822,-0.009285,0.015196,0.014967,-0.002763,0.002827,0.015085,-0.041346,-0.009375,-0.001381,-0.005712
800,39,0.800000,0,Stand,0.000000,0.000000,0.000000,-0.005320,0.001470,-0.003374,-0.004522,0.003949,-0.999982,0.000000,0.000000,0.000000,0.005857,0.000938,-0.002482,0.019706,-0.012482,0.002910,0.011660,0.010572,0.016174,0.000086,-0.023531,-0.020716,0.015780,-0.011090,-0.006822,0.011893,0.000651,-0.008347,0.005796,0.017021,-0.025773,-0.006201,-0.001047,-0.003927,-0.121347,-0.017895,0.041622,-0.005828,-0.418622,-0.097893,0.074626,0.251011,0.703507,0.220652,-0.618436,-0.552727,-0.121827,-0.016885,0.041646,-0.005203,-0.415737,-0.097468,0.074060,0.251191,0.703173,0.221242,-0.619625,-0.553983,-0.030457,-0.004221,0.010411,-0.001301,-0.103934,-0.024367,0.018515,0.062798,0.175793,0.055310,-0.154906,-0.138496,-0.030457,-0.004221,0.010411,-0.001301,-0.103934,-0.024367,0.018515,0.062798,0.175793,0.055310,-0.154906,-0.138496,0.005857,0.000938,-0.002482,0.019706,-0.012482,0.002910,0.011660,0.010572,0.016174,0.000086,-0.023531,-0.020716,0.015780,-0.011090,-0.006822,0.011893,0.000651,-0.008347,0.005796,0.017021,-0.025773,-0.006201,-0.001047,-0.003927
820,40,0.820000,0,Stand,0.000000,0.000000,0.000000,-0.004091,0.000545,-0.003225,-0.004509,0.004035,-0.999982,0.000000,0.000000,0.000000,0.006190,0.000705,-0.002607,0.019932,-0.012623,0.002720,0.011790,0.010907,0.015887,-0.000021,-0.023552,-0.020764,0.017072,-0.011853,-0.006010,0.011084,-0.010840,-0.009947,0.006712,0.016298,-0.008434,-0.004891,-0.001067,-0.001416,-0.121827,-0.016885,0.041646,-0.005203,-0.415737,-0.097468,0.074060,0.251191,0.703173,0.221242,-0.619625,-0.553983,-0.122285,-0.016333,0.041649,-0.004919,-0.413022,-0.097082,0.074107,0.251357,0.701752,0.221571,-0.619289,-0.555314,-0.030571,-0.004083,0.010412,-0.001230,-0.103256,-0.024270,0.018527,0.062839,0.175438,0.055393,-0.154822,-0.138828,-0.030571,-0.004083,0.010412,-0.001230,-0.103256,-0.024270,0.018527,0.062839,0.175438,0.055393,-0.154822,-0.138828,0.006190,0.000705,-0.002607,0.019932,-0.012623,0.002720,0.011790,0.010907,0.015887,-0.000021,-0.023552,-0.020764,0.017072,-0.011853,-0.006010,0.011084,-0.010840,-0.009947,0.006712,0.016298,-0.008434,-0.004891,-0.001067,-0.001416
840,41,0.840000,0,Stand,0.000000,0.000000,0.000000,-0.002921,0.000052,-0.003503,-0.004507,0.004096,-0.999981,0.000000,0.000000,0.000000,0.006543,0.000466,-0.002719,0.020150,-0.012897,0.002514,0.011924,0.011228,0.015818,-0.000105,-0.023567,-0.020779,0.017933,-0.012043,-0.005290,0.010806,-0.014751,-0.010422,0.006672,0.015852,-0.001403,-0.003776,-0.000600,-0.000431,-0.122285,-0.016333,0.041649,-0.004919,-0.413022,-0.097082,0.074107,0.251357,0.701752,0.221571,-0.619289,-0.555314,-0.122745,-0.016272,0.041417,-0.005274,-0.411293,-0.096816,0.074082,0.251420,0.700870,0.221502,-0.618652,-0.556406,-0.030686,-0.004068,0.010354,-0.001319,-0.102823,-0.024204,0.018521,0.062855,0.175218,0.055376,-0.154663,-0.139101,-0.030686,-0.004068,0.010354,-0.001319,-0.102823,-0.024204,0.018521,0.062855,0.175218,0.055376,-0.154663,-0.139101,0.006543,0.000466,-0.002719,0.020150,-0.012897,0.002514,0.011924,0.011228,0.015818,-0.000105,-0.023567,-0.020779,0.017933,-0.012043,-0.005290,0.010806,-0.014751,-0.010422,0.006672,0.015852,-0.001403,-0.003776,-0.000600,-0.000431
860,42,0.860000,0,Stand,0.000000,0.000000,0.000000,-0.002638,0.000027,-0.003762,-0.004507,0.004148,-0.999981,0.000000,0.000000,0.000000,0.006911,0.000221,-0.002814,0.020361,-0.013191,0.002313,0.012047,0.011534,0.015811,-0.000172,-0.023572,-0.020785,0.018574,-0.012323,-0.004600,0.010421,-0.014502,-0.009737,0.005689,0.014873,0.000142,-0.003116,-0.000140,-0.000162,-0.122745,-0.016272,0.041417,-0.005274,-0.411293,-0.096816,0.074082,0.251420,0.700870,0.221502,-0.618652,-0.556406,-0.123332,-0.015922,0.041477,-0.005629,-0.411195,-0.097184,0.074514,0.251550,0.700431,0.221300,-0.617929,-0.556200,-0.030833,-0.003981,0.010369,-0.001407,-0.102799,-0.024296,0.018628,0.062888,0.175108,0.055325,-0.154482,-0.139050,-0.030833,-0.003981,0.010369,-0.001407,-0.102799,-0.024296,0.018628,0.062888,0.175108,0.055325,-0.154482,-0.139050,0.006911,0.000221,-0.002814,0.020361,-0.013191,0.002313,0.012047,0.011534,0.015811,-0.000172,-0.023572,-0.020785,0.018574,-0.012323,-0.004600,0.010421,-0.014502,-0.009737,0.005689,0.014873,0.000142,-0.003116,-0.000140,-0.000162
880,43,0.880000,0,Stand,0.000000,0.000000,0.000000,-0.001807,0.000078,-0.003870,-0.004506,0.004186,-0.999981,0.000000,0.000000,0.000000,0.007276,-0.000018,-0.002911,0.020575,-0.013467,0.002129,0.012140,0.011812,0.015823,-0.000221,-0.023568,-0.020784,0.018028,-0.011664,-0.005039,0.010934,-0.013326,-0.008789,0.003991,0.013142,0.000902,-0.002063,0.000321,0.000152,-0.123332,-0.015922,0.041477,-0.005629,-0.411195,-0.097184,0.074514,0.251550,0.700431,0.221300,-0.617929,-0.556200,-0.123825,-0.015396,0.042193,-0.005684,-0.411463,-0.098013,0.075266,0.252240,0.700312,0.221582,-0.618343,-0.556433,-0.030956,-0.003849,0.010548,-0.001421,-0.102866,-0.024503,0.018816,0.063060,0.175078,0.055395,-0.154586,-0.139108,-0.030956,-0.003849,0.010548,-0.001421,-0.102866,-0.024503,0.018816,0.063060,0.175078,0.055395,-0.154586,-0.139108,0.007276,-0.000018,-0.002911,0.020575,-0.013467,0.002129,0.012140,0.011812,0.015823,-0.000221,-0.023568,-0.020784,0.018028,-0.011664,-0.005039,0.010934,-0.013326,-0.008789,0.003991,0.013142,0.000902,-0.002063,0.000321,0.000152
900,44,0.900000,0,Stand,0.000000,0.000000,0.000000,-0.000675,0.000122,-0.004008,-0.004504,0.004203,-0.999981,0.000000,0.000000,0.000000,0.007625,-0.000236,-0.003022,0.020806,-0.013720,0.001963,0.012200,0.012055,0.015858,-0.000242,-0.023562,-0.020784,0.017163,-0.010529,-0.005783,0.011904,-0.012138,-0.007688,0.002282,0.011415,0.002305,-0.000630,0.000265,-0.000038,-0.123825,-0.015396,0.042193,-0.005684,-0.411463,-0.098013,0.075266,0.252240,0.700312,0.221582,-0.618343,-0.556433,-0.124367,-0.015078,0.042563,-0.005580,-0.411056,-0.098400,0.075950,0.252435,0.699664,0.221639,-0.619138,-0.556616,-0.031092,-0.003770,0.010641,-0.001395,-0.102764,-0.024600,0.018988,0.063109,0.174916,0.055410,-0.154785,-0.139154,-0.031092,-0.003770,0.010641,-0.001395,-0.102764,-0.024600,0.018988,0.063109,0.174916,0.055410,-0.154785,-0.139154,0.007625,-0.000236,-0.003022,0.020806,-0.013720,0.001963,0.012200,0.012055,0.015858,-0.000242,-0.023562,-0.020784,0.017163,-0.010529,-0.005783,0.011904,-0.012138,-0.007688,0.002282,0.011415,0.002305,-0.000630,0.000265,-0.000038
920,45,0.920000,0,Stand,0.000000,0.000000,0.000000,0.000057,-0.000020,-0.004241,-0.004504,0.004203,-0.999981,0.000000,0.000000,0.000000,0.007960,-0.000435,-0.003144,0.021055,-0.013940,0.001834,0.012223,0.012258,0.015916,-0.000247,-0.023561,-0.020787,0.016558,-0.009564,-0.006288,0.012725,-0.010253,-0.005615,0.000491,0.009353,0.003241,-0.000114,-0.000099,-0.000205,-0.124367,-0.015078,0.042563,-0.005580,-0.411056,-0.098400,0.075950,0.252435,0.699664,0.221639,-0.619138,-0.556616,-0.124972,-0.014761,0.042904,-0.005490,-0.411356,-0.098742,0.076634,0.252803,0.699614,0.221626,-0.619407,-0.556412,-0.031243,-0.003690,0.010726,-0.001373,-0.102839,-0.024685,0.019159,0.063201,0.174903,0.055407,-0.154852,-0.139103,-0.031243,-0.003690,0.010726,-0.001373,-0.102839,-0.024685,0.019159,0.063201,0.174903,0.055407,-0.154852,-0.139103,0.007960,-0.000435,-0.003144,0.021055,-0.013940,0.001834,0.012223,0.012258,0.015916,-0.000247,-0.023561,-0.020787,0.016558,-0.009564,-0.006288,0.012725,-0.010253,-0.005615,0.000491,0.009353,0.003241,-0.000114,-0.000099,-0.000205
940,46,0.940000,0,Stand,0.000000,0.000000,0.000000,0.000588,-0.000140,-0.004642,-0.004507,0.004192,-0.999981,0.000000,0.000000,0.000000,0.008282,-0.000610,-0.003278,0.021323,-0.014124,0.001746,0.012216,0.012425,0.015993,-0.000244,-0.023568,-0.020795,0.015922,-0.008355,-0.006846,0.013772,-0.008571,-0.003618,-0.000911,0.007706,0.004175,0.000223,-0.000475,-0.000492,-0.124972,-0.014761,0.042904,-0.005490,-0.411356,-0.098742,0.076634,0.252803,0.699614,0.221626,-0.619407,-0.556412,-0.124973,-0.014644,0.043506,-0.005652,-0.411869,-0.099627,0.077160,0.252607,0.699734,0.222115,-0.620162,-0.556166,-0.031243,-0.003661,0.010876,-0.001413,-0.102967,-0.024907,0.019290,0.063152,0.174934,0.055529,-0.155041,-0.139042,-0.031243,-0.003661,0.010876,-0.001413,-0.102967,-0.024907,0.019290,0.063152,0.174934,0.055529,-0.155041,-0.139042,0.008282,-0.000610,-0.003278,0.021323,-0.014124,0.001746,0.012216,0.012425,0.015993,-0.000244,-0.023568,-0.020795,0.015922,-0.008355,-0.006846,0.013772,-0.008571,-0.003618,-0.000911,0.007706,0.004175,0.000223,-0.000475,-0.000492
960,47,0.960000,0,Stand,0.000000,0.000000,0.000000,0.000835,-0.000272,-0.004873,-0.004512,0.004175,-0.999981,0.000000,0.000000,0.000000,0.008598,-0.000771,-0.003416,0.021603,-0.014277,0.001694,0.012180,0.012558,0.016085,-0.000235,-0.023583,-0.020808,0.015681,-0.007867,-0.006999,0.014137,-0.006993,-0.001932,-0.002377,0.006051,0.004825,0.000570,-0.000824,-0.000720,-0.124973,-0.014644,0.043506,-0.005652,-0.411869,-0.099627,0.077160,0.252607,0.699734,0.222115,-0.620162,-0.556166,-0.125347,-0.014520,0.044062,-0.005661,-0.412282,-0.100072,0.077936,0.253411,0.699374,0.221999,-0.620245,-0.555939,-0.031337,-0.003630,0.011015,-0.001415,-0.103070,-0.025018,0.019484,0.063353,0.174844,0.055500,-0.155061,-0.138985,-0.031337,-0.003630,0.011015,-0.001415,-0.103070,-0.025018,0.019484,0.063353,0.174844,0.055500,-0.155061,-0.138985,0.008598,-0.000771,-0.003416,0.021603,-0.014277,0.001694,0.012180,0.012558,0.016085,-0.000235,-0.023583,-0.020808,0.015681,-0.007867,-0.006999,0.014137,-0.006993,-0.001932,-0.002377,0.006051,0.004825,0.000570,-0.000824,-0.000720
980,48,0.980000,0,Stand,0.000000,0.000000,0.000000,0.000660,-0.000101,-0.005022,-0.004515,0.004161,-0.999981,0.000000,0.000000,0.000000,0.008913,-0.000927,-0.003553,0.021885,-0.014397,0.001669,0.012119,0.012672,0.016177,-0.000220,-0.023599,-0.020832,0.015794,-0.007784,-0.006785,0.014077,-0.005421,-0.000803,-0.003505,0.005372,0.004402,0.000757,-0.000728,-0.001456,-0.125347,-0.014520,0.044062,-0.005661,-0.412282,-0.100072,0.077936,0.253411,0.699374,0.221999,-0.620245,-0.555939,-0.125620,-0.014265,0.044564,-0.005689,-0.412989,-0.100556,0.078453,0.253876,0.699728,0.222330,-0.620711,-0.555925,-0.031405,-0.003566,0.011141,-0.001422,-0.103247,-0.025139,0.019613,0.063469,0.174932,0.055582,-0.155178,-0.138981,-0.031405,-0.003566,0.011141,-0.001422,-0.103247,-0.025139,0.019613,0.063469,0.174932,0.055582,-0.155178,-0.138981,0.008913,-0.000927,-0.003553,0.021885,-0.014397,0.001669,0.012119,0.012672,0.016177,-0.000220,-0.023599,-0.020832,0.015794,-0.007784,-0.006785,0.014077,-0.005421,-0.000803,-0.003505,0.005372,0.004402,0.000757,-0.000728,-0.001456
1000,49,1.000000,1,Forward,1.000000,0.000000,0.000000,0.000621,0.000204,-0.005119,-0.004513,0.004148,-0.999981,1.000000,0.000000,0.000000,0.009227,-0.001079,-0.003690,0.022168,-0.014494,0.001656,0.012040,0.012778,0.016265,-0.000193,-0.023614,-0.020876,0.015634,-0.007492,-0.006848,0.014226,-0.004516,-0.000518,-0.004230,0.005246,0.004367,0.001649,-0.000727,-0.002563,-0.125620,-0.014265,0.044564,-0.005689,-0.412989,-0.100556,0.078453,0.253876,0.699728,0.222330,-0.620711,-0.555925,-0.076121,0.017836,-0.084424,-0.054229,0.102536,0.153549,-0.279484,-0.086513,1.045329,0.386752,-0.812533,-1.085076,-0.019030,0.004459,-0.021106,-0.013557,0.025634,0.038387,-0.069871,-0.021628,0.261332,0.096688,-0.203133,-0.271269,-0.019030,0.004459,-0.021106,-0.013557,0.025634,0.038387,-0.069871,-0.021628,0.261332,0.096688,-0.203133,-0.271269,0.009227,-0.001079,-0.003690,0.022168,-0.014494,0.001656,0.012040,0.012778,0.016265,-0.000193,-0.023614,-0.020876,0.015634,-0.007492,-0.006848,0.014226,-0.004516,-0.000518,-0.004230,0.005246,0.004367,0.001649,-0.000727,-0.002563
1020,50,1.020000,1,Forward,1.000000,0.000000,0.000000,-0.039379,-0.156624,-0.020750,-0.007134,0.004802,-0.999963,1.000000,0.000000,0.000000,0.010010,-0.001405,-0.003540,0.022477,-0.013142,0.007205,0.011006,0.008511,0.021702,-0.001380,-0.029596,-0.021241,0.048686,-0.017620,0.012870,0.016044,0.101116,0.407709,-0.073049,-0.319517,0.408116,-0.083251,-0.453625,-0.023941,-0.076121,0.017836,-0.084424,-0.054229,0.102536,0.153549,-0.279484,-0.086513,1.045329,0.386752,-0.812533,-1.085076,-0.113528,0.046796,-0.167674,-0.085134,0.417975,0.251647,-0.508194,-0.515818,1.230409,0.447388,-0.693727,-1.777308,-0.028382,0.011699,-0.041918,-0.021283,0.104494,0.062912,-0.127049,-0.128954,0.307602,0.111847,-0.173432,-0.360000,-0.028382,0.011699,-0.041918,-0.021283,0.104494,0.062912,-0.127049,-0.128954,0.307602,0.111847,-0.173432,-0.360000,0.010010,-0.001405,-0.003540,0.022477,-0.013142,0.007205,0.011006,0.008511,0.021702,-0.001380,-0.029596,-0.021241,0.048686,-0.017620,0.012870,0.016044,0.101116,0.407709,-0.073049,-0.319517,0.408116,-0.083251,-0.453625,-0.023941
1040,51,1.040000,1,Forward,1.000000,0.000000,0.000000,-0.081030,-0.252775,-0.040801,-0.011986,0.006301,-0.999908,1.000000,0.000000,0.000000,0.011029,-0.001386,-0.004743,0.023289,-0.009274,0.019247,0.004059,-0.000549,0.035103,-0.002190,-0.040978,-0.024774,0.055067,0.007105,-0.103715,0.051569,0.254379,0.692126,-0.475673,-0.510153,0.768877,-0.005190,-0.648475,-0.264178,-0.113528,0.046796,-0.167674,-0.085134,0.417975,0.251647,-0.508194,-0.515818,1.230409,0.447388,-0.693727,-1.777308,-0.294133,0.040969,-0.216692,-0.230507,0.573856,0.245603,-0.533320,-0.981681,1.452475,0.247037,-0.217247,-2.479350,-0.073533,0.010242,-0.054173,-0.057627,0.143464,0.061401,-0.133330,-0.245420,0.363119,0.061759,-0.054312,-0.360000,-0.073533,0.010242,-0.054173,-0.057627,0.143464,0.061401,-0.133330,-0.245420,0.363119,0.061759,-0.054312,-0.360000,0.011029,-0.001386,-0.004743,0.023289,-0.009274,0.019247,0.004059,-0.000549,0.035103,-0.002190,-0.040978,-0.024774,0.055067,0.007105,-0.103715,0.051569,0.254379,0.692126,-0.475673,-0.510153,0.768877,-0.005190,-0.648475,-0.264178
1060,52,1.060000,1,Forward,1.000000,0.000000,0.000000,-0.144224,-0.235420,-0.051145,-0.016784,0.008989,-0.999819,1.000000,0.000000,0.000000,0.011882,-0.000900,-0.007286,0.024695,-0.001729,0.035265,-0.022141,-0.011298,0.051990,-0.000997,-0.045059,-0.035412,0.043988,0.025402,-0.157107,0.075146,0.445457,0.842390,-1.598465,-0.541762,0.866414,0.120080,-0.062738,-0.684729,-0.294133,0.040969,-0.216692,-0.230507,0.573856,0.245603,-0.533320,-0.981681,1.452475,0.247037,-0.217247,-2.479350,-0.569543,0.011269,-0.218776,-0.384002,0.492879,0.170696,-0.359410,-1.260866,1.727473,-0.181727,0.311380,-2.988231,-0.142386,0.002817,-0.054694,-0.096001,0.123220,0.042674,-0.089852,-0.315216,0.431868,-0.045432,0.077845,-0.360000,-0.142386,0.002817,-0.054694,-0.096001,0.123220,0.042674,-0.089852,-0.315216,0.431868,-0.045432,0.077845,-0.360000,0.011882,-0.000900,-0.007286,0.024695,-0.001729,0.035265,-0.022141,-0.011298,0.051990,-0.000997,-0.045059,-0.035412,0.043988,0.025402,-0.157107,0.075146,0.445457,0.842390,-1.598465,-0.541762,0.866414,0.120080,-0.062738,-0.684729
1080,53,1.080000,1,Forward,1.000000,0.000000,0.000000,-0.270746,-0.220530,-0.020781,-0.021194,0.014025,-0.999677,1.000000,0.000000,0.000000,0.012729,0.002618,-0.010642,0.025343,0.007556,0.052522,-0.054922,-0.021703,0.072743,-0.008044,-0.014461,-0.056184,0.060182,0.222466,-0.183951,-0.003466,0.492855,0.702463,-1.554269,-0.521949,1.123868,-0.457981,1.889053,-1.219854,-0.569543,0.011269,-0.218776,-0.384002,0.492879,0.170696,-0.359410,-1.260866,1.727473,-0.181727,0.311380,-2.988231,-0.809176,-0.025473,-0.179972,-0.440299,0.298829,0.082222,-0.208657,-1.218735,1.970172,-0.650560,0.719002,-3.216457,-0.202294,-0.006368,-0.044993,-0.110075,0.074707,0.020556,-0.052164,-0.304684,0.492543,-0.162640,0.179751,-0.360000,-0.202294,-0.006368,-0.044993,-0.110075,0.074707,0.020556,-0.052164,-0.304684,0.492543,-0.162640,0.179751,-0.360000,0.012729,0.002618,-0.010642,0.025343,0.007556,0.052522,-0.054922,-0.021703,0.072743,-0.008044,-0.014461,-0.056184,0.060182,0.222466,-0.183951,-0.003466,0.492855,0.702463,-1.554269,-0.521949,1.123868,-0.457981,1.889053,-1.219854
1100,54,1.100000,1,Forward,1.000000,0.000000,0.000000,-0.318126,-0.197967,0.028791,-0.025219,0.020352,-0.999475,1.000000,0.000000,0.000000,0.012518,0.008357,-0.014270,0.025517,0.015201,0.062103,-0.075479,-0.029458,0.100926,-0.044945,0.046486,-0.088733,-0.048105,0.272294,-0.193336,0.003004,0.337531,0.338771,-0.521451,-0.342585,1.569144,-2.133486,3.341536,-1.840505,-0.809176,-0.025473,-0.179972,-0.440299,0.298829,0.082222,-0.208657,-1.218735,1.970172,-0.650560,0.719002,-3.216457,-0.930242,-0.065356,-0.124109,-0.447252,0.043375,-0.033885,-0.091087,-0.856885,2.190921,-0.990883,0.976829,-3.215070,-0.232560,-0.016339,-0.031027,-0.111813,0.010844,-0.008471,-0.022772,-0.214221,0.547730,-0.247721,0.244207,-0.360000,-0.232560,-0.016339,-0.031027,-0.111813,0.010844,-0.008471,-0.022772,-0.214221,0.547730,-0.247721,0.244207,-0.360000,0.012518,0.008357,-0.014270,0.025518,0.015201,0.062103,-0.075479,-0.029458,0.100926,-0.044945,0.046486,-0.088733,-0.048105,0.272294,-0.193336,0.003004,0.337531,0.338771,-0.521451,-0.342585,1.569144,-2.133486,3.341536,-1.840505
1120,55,1.120000,1,Forward,1.000000,0.000000,0.000000,-0.250997,-0.128245,0.110095,-0.027969,0.025675,-0.999279,1.000000,0.000000,0.000000,0.009084,0.013446,-0.015519,0.026591,0.017397,0.062040,-0.067812,-0.030728,0.139513,-0.103129,0.123040,-0.135347,-0.251099,0.217851,-0.002370,0.078511,0.006357,-0.180980,0.793334,0.051216,2.117797,-2.931619,3.674411,-2.583627,-0.930242,-0.065356,-0.124109,-0.447252,0.043375,-0.033885,-0.091087,-0.856885,2.190921,-0.990883,0.976829,-3.215070,-0.916480,-0.132429,-0.153669,-0.474395,-0.165220,-0.051498,-0.029824,-0.398722,2.483119,-1.207474,1.216570,-3.277486,-0.229120,-0.033107,-0.038417,-0.118599,-0.041305,-0.012875,-0.007456,-0.099681,0.620780,-0.301868,0.304142,-0.360000,-0.229120,-0.033107,-0.038417,-0.118599,-0.041305,-0.012875,-0.007456,-0.099681,0.620780,-0.301868,0.304142,-0.360000,0.009084,0.013446,-0.015519,0.026591,0.017397,0.062040,-0.067812,-0.030728,0.139513,-0.103129,0.123040,-0.135347,-0.251099,0.217851,-0.002370,0.078511,0.006357,-0.180980,0.793334,0.051216,2.117797,-2.931619,3.674411,-2.583627
1140,56,1.140000,1,Forward,1.000000,0.000000,0.000000,-0.153076,-0.017171,0.166316,-0.028518,0.029117,-0.999169,1.000000,0.000000,0.000000,0.002401,0.013933,-0.014845,0.029133,0.011959,0.045340,-0.043142,-0.021444,0.190198,-0.172992,0.197801,-0.199325,-0.396793,-0.101579,0.046027,0.159048,-0.396315,-1.295787,1.367007,0.622689,2.765282,-3.582792,3.445014,-3.497932,-0.916480,-0.132429,-0.153669,-0.474395,-0.165220,-0.051498,-0.029824,-0.398722,2.483119,-1.207474,1.216570,-3.277486,-0.818162,-0.181094,-0.203663,-0.496103,-0.376442,-0.104161,0.141032,0.011780,2.673584,-1.149615,1.347632,-3.176053,-0.204541,-0.045274,-0.050916,-0.124026,-0.094110,-0.026040,0.035258,0.002945,0.668396,-0.287404,0.336908,-0.360000,-0.204541,-0.045274,-0.050916,-0.124026,-0.094110,-0.026040,0.035258,0.002945,0.668396,-0.287404,0.336908,-0.360000,0.002401,0.013933,-0.014845,0.029133,0.011959,0.045340,-0.043142,-0.021444,0.190198,-0.172992,0.197801,-0.199325,-0.396793,-0.101579,0.046027,0.159048,-0.396315,-1.295787,1.367007,0.622689,2.765282,-3.582792,3.445014,-3.497932
1160,57,1.160000,1,Forward,1.000000,0.000000,0.000000,-0.085203,0.054945,0.185487,-0.027500,0.031061,-0.999139,1.000000,0.000000,0.000000,-0.006037,0.007568,-0.016235,0.032665,-0.000827,0.011200,-0.008280,-0.002051,0.253588,-0.227708,0.258959,-0.279718,-0.446412,-0.409929,-0.113002,0.182508,-0.739384,-1.757953,1.799727,1.093378,3.375817,-2.238079,2.677533,-4.262173,-0.818162,-0.181094,-0.203663,-0.496103,-0.376442,-0.104161,0.141032,0.011780,2.673584,-1.149615,1.347632,-3.176053,-0.716332,-0.212454,-0.190569,-0.400705,-0.456576,-0.228430,0.365529,0.387580,2.791624,-0.912821,1.170464,-2.936320,-0.179083,-0.053113,-0.047642,-0.100176,-0.114144,-0.057108,0.091382,0.096895,0.697906,-0.228205,0.292616,-0.360000,-0.179083,-0.053113,-0.047642,-0.100176,-0.114144,-0.057108,0.091382,0.096895,0.697906,-0.228205,0.292616,-0.360000,-0.006037,0.007568,-0.016235,0.032665,-0.000827,0.011200,-0.008280,-0.002051,0.253588,-0.227708,0.258959,-0.279718,-0.446412,-0.409929,-0.113002,0.182508,-0.739384,-1.757953,1.799727,1.093378,3.375816,-2.238079,2.677533,-4.262173
1180,58,1.180000,1,Forward,1.000000,0.000000,0.000000,0.006938,0.064874,0.183192,-0.026104,0.031283,-0.999170,1.000000,0.000000,0.000000,-0.015694,-0.003511,-0.019995,0.037303,-0.018564,-0.026203,0.035141,0.023247,0.327099,-0.241368,0.284905,-0.370362,-0.512408,-0.593317,-0.192177,0.255256,-0.933653,-1.762200,2.175625,1.292418,3.810548,-0.129325,0.740799,-4.624600,-0.716332,-0.212454,-0.190569,-0.400705,-0.456576,-0.228430,0.365529,0.387580,2.791624,-0.912821,1.170464,-2.936320,-0.266341,-0.043985,0.040480,0.013706,-0.058518,-0.564913,0.772713,0.128214,2.075329,-0.464428,0.608951,-1.365457,-0.066585,-0.010996,0.010120,0.003426,-0.014629,-0.141228,0.193178,0.032054,0.518832,-0.116107,0.152238,-0.341364,-0.066585,-0.010996,0.010120,0.003426,-0.014629,-0.141228,0.193178,0.032054,0.518832,-0.116107,0.152238,-0.341364,-0.015694,-0.003511,-0.019995,0.037303,-0.018564,-0.026203,0.035141,0.023247,0.327099,-0.241368,0.284905,-0.370362,-0.512408,-0.593317,-0.192177,0.255256,-0.933653,-1.762200,2.175625,1.292418,3.810548,-0.129325,0.740799,-4.624600
1200,59,1.200000,1,Forward,1.000000,0.000000,0.000000,0.103576,-0.012018,0.174458,-0.026021,0.029534,-0.999225,1.000000,0.000000,0.000000,-0.026666,-0.011928,-0.017628,0.035600,-0.028617,-0.069521,0.091902,0.022151,0.391058,-0.205804,0.251125,-0.398119,-0.570153,-0.280301,0.304265,-0.193715,-0.256361,-2.181667,2.931137,-0.441767,2.841031,2.243630,-2.336007,-0.198306,-0.266341,-0.043985,0.040480,0.013706,-0.058518,-0.564913,0.772713,0.128214,2.075329,-0.464428,0.608951,-1.365457,0.063608,0.185596,0.228058,0.384812,0.354548,-0.405571,0.831005,-0.519781,1.257211,-0.021006,-0.039610,0.025478,0.015902,0.046399,0.057015,0.096203,0.088637,-0.101393,0.207751,-0.129945,0.314303,-0.005251,-0.009903,0.006369,0.015902,0.046399,0.057015,0.096203,0.088637,-0.101393,0.207751,-0.129945,0.314303,-0.005251,-0.009903,0.006369,-0.026666,-0.011928,-0.017628,0.035600,-0.028617,-0.069521,0.091902,0.022151,0.391058,-0.205804,0.251125,-0.398119,-0.570153,-0.280301,0.304265,-0.193715,-0.256361,-2.181667,2.931137,-0.441767,2.841031,2.243630,-2.336007,-0.198306
1220,60,1.220000,1,Forward,1.000000,0.000000,0.000000,0.117292,-0.120234,0.089260,-0.028130,0.027262,-0.999232,1.000000,0.000000,0.000000,-0.030643,-0.003439,0.000026,0.041893,-0.001863,-0.097679,0.147127,-0.032876,0.387668,-0.134720,0.160962,-0.290048,0.021594,0.733987,1.143671,0.612703,1.895193,-0.995625,2.515294,-3.206295,-1.118463,3.697012,-4.838497,6.935802,0.063608,0.185596,0.228058,0.384812,0.354548,-0.405571,0.831005,-0.519781,1.257211,-0.021006,-0.039610,0.025478,-0.057069,0.262057,0.147771,0.048304,0.335843,0.204693,0.543773,-0.417014,1.472883,0.568407,-0.373441,0.527454,-0.014267,0.065514,0.036943,0.012076,0.083961,0.051173,0.135943,-0.104253,0.368221,0.142102,-0.093360,0.131864,-0.014267,0.065514,0.036943,0.012076,0.083961,0.051173,0.135943,-0.104253,0.368221,0.142102,-0.093360,0.131864,-0.030643,-0.003439,0.000026,0.041893,-0.001863,-0.097679,0.147127,-0.032876,0.387668,-0.134720,0.160962,-0.290048,0.021594,0.733987,1.143671,0.612703,1.895193,-0.995625,2.515294,-3.206296,-1.118463,3.697012,-4.838497,6.935802
1240,61,1.240000,1,Forward,1.000000,0.000000,0.000000,-0.018194,-0.168741,0.027987,-0.031365,0.027266,-0.999136,1.000000,0.000000,0.000000,-0.029070,0.019949,0.022860,0.043451,0.036172,-0.078882,0.172698,-0.085781,0.375298,-0.033539,0.056842,-0.123921,0.116591,1.299426,1.077197,-0.142735,1.819040,1.751944,0.646938,-2.114082,-0.379807,5.122489,-4.882792,8.024705,-0.057069,0.262057,0.147771,0.048304,0.335843,0.204693,0.543773,-0.417014,1.472883,0.568407,-0.373441,0.527454,-0.253391,0.238703,0.536402,-0.091269,0.146379,0.282030,0.336294,-0.075161,1.956832,1.109901,-0.525594,1.310058,-0.063348,0.059676,0.134101,-0.022817,0.036595,0.070508,0.084073,-0.018790,0.489208,0.277475,-0.131399,0.327515,-0.063348,0.059676,0.134101,-0.022817,0.036595,0.070508,0.084073,-0.018790,0.489208,0.277475,-0.131399,0.327515,-0.029070,0.019949,0.022860,0.043451,0.036172,-0.078882,0.172698,-0.085781,0.375298,-0.033539,0.056842,-0.123921,0.116591,1.299426,1.077197,-0.142735,1.819040,1.751944,0.646938,-2.114082,-0.379807,5.122490,-4.882791,8.024705
1260,62,1.260000,1,Forward,1.000000,0.000000,0.000000,-0.218886,-0.157272,0.004505,-0.034588,0.030979,-0.998921,1.000000,0.000000,0.000000,-0.031113,0.041565,0.060314,0.029805,0.053095,-0.034452,0.161495,-0.096885,0.405547,0.087498,-0.027861,0.056675,-0.217353,0.863393,2.077423,-0.854401,0.453725,2.126953,-1.065186,0.289882,2.033074,5.590220,-3.683463,8.611470,-0.253391,0.238703,0.536402,-0.091269,0.146379,0.282030,0.336294,-0.075161,1.956832,1.109901,-0.525594,1.310058,-0.182661,0.422307,0.524839,0.015998,0.793351,0.142894,0.330040,-0.018931,1.741813,1.545694,-0.877608,1.663931,-0.045665,0.105577,0.131210,0.004000,0.198338,0.035724,0.082510,-0.004733,0.435453,0.386423,-0.219402,0.415983,-0.045665,0.105577,0.131210,0.004000,0.198338,0.035724,0.082510,-0.004733,0.435453,0.386423,-0.219402,0.415983,-0.031113,0.041565,0.060314,0.029805,0.053095,-0.034452,0.161495,-0.096885,0.405547,0.087498,-0.027861,0.056675,-0.217353,0.863393,2.077423,-0.854400,0.453725,2.126953,-1.065186,0.289882,2.033074,5.590221,-3.683463,8.611470
1280,63,1.280000,1,Forward,1.000000,0.000000,0.000000,0.272830,0.045120,-0.002183,-0.034758,0.028100,-0.999001,1.000000,0.000000,0.000000,-0.043230,0.060094,0.092559,0.017866,0.087583,0.000917,0.136714,-0.071174,0.411076,0.158844,-0.105935,0.216204,-0.990077,1.094977,1.029599,-0.522376,2.326785,2.295463,-1.134099,1.791678,-1.006816,0.314212,-3.498116,7.084728,-0.182661,0.422307,0.524839,0.015998,0.793351,0.142894,0.330040,-0.018931,1.741813,1.545694,-0.877608,1.663931,0.168176,0.664446,0.587816,0.226255,1.749799,0.444298,0.165358,-0.055382,0.022217,2.363771,-1.429586,1.767054,0.042044,0.166112,0.146954,0.056564,0.437450,0.111075,0.041339,-0.013846,0.005554,0.590943,-0.357397,0.441764,0.042044,0.166112,0.146954,0.056564,0.437450,0.111075,0.041339,-0.013846,0.005554,0.590943,-0.357397,0.441764,-0.043230,0.060094,0.092559,0.017866,0.087583,0.000917,0.136714,-0.071174,0.411075,0.158844,-0.105935,0.216204,-0.990077,1.094977,1.029599,-0.522376,2.326785,2.295463,-1.134099,1.791678,-1.006816,0.314212,-3.498116,7.084728
1300,64,1.300000,1,Forward,1.000000,0.000000,0.000000,1.282930,0.969575,0.052655,-0.018846,0.006727,-0.999800,1.000000,0.000000,0.000000,-0.053685,0.087908,0.094856,0.014260,0.185016,0.041171,0.114911,-0.030151,0.285024,0.138473,-0.168008,0.327320,-0.147666,1.350632,-0.495390,-0.192755,5.566984,1.794045,-2.122328,1.995944,-7.408178,-1.154449,-0.049774,4.545372,0.168176,0.664446,0.587816,0.226255,1.749799,0.444298,0.165358,-0.055382,0.022217,2.363771,-1.429586,1.767054,0.134223,0.762430,0.951058,0.233185,0.843934,0.371749,0.404499,0.268750,-0.639361,2.500498,-2.607666,1.937813,0.033556,0.190607,0.237765,0.058296,0.210983,0.092937,0.101125,0.067188,-0.159840,0.625125,-0.360000,0.484453,0.033556,0.190607,0.237765,0.058296,0.210983,0.092937,0.101125,0.067188,-0.159840,0.625125,-0.360000,0.484453,-0.053685,0.087908,0.094856,0.014260,0.185016,0.041171,0.114911,-0.030151,0.285024,0.138473,-0.168008,0.327320,-0.147666,1.350632,-0.495390,-0.192755,5.566984,1.794045,-2.122328,1.995944,-7.408178,-1.154449,-0.049774,4.545372
1320,65,1.320000,1,Forward,1.000000,0.000000,0.000000,0.171219,0.746680,0.131839,-0.003090,0.000507,-0.999995,1.000000,0.000000,0.000000,-0.037723,0.099511,0.086952,0.005204,0.251484,0.073040,0.054596,0.018440,0.117508,0.126723,-0.116661,0.399337,1.166585,0.234699,-0.237605,-0.458755,1.914793,1.460200,-3.030098,2.458325,-8.138415,-0.165315,2.716382,2.994262,0.134223,0.762430,0.951058,0.233185,0.843934,0.371749,0.404499,0.268750,-0.639361,2.500498,-2.607666,1.937813,0.182639,1.432608,1.171689,0.447766,0.570654,0.288816,0.599729,0.631524,-1.102545,3.206480,-3.651133,1.822333,0.045660,0.358152,0.292922,0.111942,0.142663,0.072204,0.149932,0.157881,-0.275636,0.801620,-0.360000,0.455583,0.045660,0.358152,0.292922,0.111942,0.142663,0.072204,0.149932,0.157881,-0.275636,0.801620,-0.360000,0.455583,-0.037723,0.099511,0.086952,0.005204,0.251484,0.073040,0.054596,0.018440,0.117508,0.126723,-0.116661,0.399337,1.166585,0.234699,-0.237605,-0.458755,1.914793,1.460200,-3.030098,2.458325,-8.138415,-0.165315,2.716382,2.994262
1340,66,1.340000,1,Forward,1.000000,0.000000,0.000000,-0.215371,0.368991,0.054557,0.005304,0.004165,-0.999977,1.000000,0.000000,0.000000,-0.016302,0.102672,0.082935,0.012189,0.243098,0.092307,0.012418,0.080788,-0.043734,0.149798,-0.101346,0.431211,0.932689,0.114478,-0.168216,0.656038,-1.488590,0.738090,-1.562354,3.168123,-7.395147,1.849730,-0.464207,1.018610,0.182639,1.432608,1.171689,0.447766,0.570654,0.288816,0.599729,0.631524,-1.102545,3.206480,-3.651133,1.822333,0.341989,1.567712,1.099015,0.372932,0.393464,-0.193608,0.578205,0.803498,-1.197076,3.591615,-3.336118,1.481644,0.085497,0.391928,0.274754,0.093233,0.098366,-0.048402,0.144551,0.200875,-0.299269,0.897904,-0.360000,0.370411,0.085497,0.391928,0.274754,0.093233,0.098366,-0.048402,0.144551,0.200875,-0.299269,0.897904,-0.360000,0.370411,-0.016302,0.102672,0.082935,0.012189,0.243098,0.092307,0.012418,0.080788,-0.043734,0.149798,-0.101346,0.431211,0.932690,0.114478,-0.168216,0.656038,-1.488590,0.738090,-1.562354,3.168123,-7.395148,1.849730,-0.464207,1.018610
1360,67,1.360000,1,Forward,1.000000,0.000000,0.000000,-0.120312,0.378078,-0.066254,0.012511,0.007121,-0.999896,1.000000,0.000000,0.000000,0.004737,0.108203,0.076397,0.025318,0.186654,0.085351,-0.002865,0.146176,-0.163042,0.219865,-0.137097,0.417689,1.017317,0.360182,-0.387585,0.613531,-3.211202,-0.850454,-0.321448,3.056837,-5.009192,4.344606,-2.560098,-1.160969,0.341989,1.567712,1.099015,0.372932,0.393464,-0.193608,0.578205,0.803498,-1.197076,3.591615,-3.336118,1.481644,0.277335,1.086243,0.802909,0.357147,-0.041219,-0.540639,0.398885,0.963360,-1.249165,3.305081,-2.339885,0.997941,0.069334,0.271561,0.200727,0.089287,-0.010305,-0.135160,0.099721,0.240840,-0.312291,0.826270,-0.360000,0.249485,0.069334,0.271561,0.200727,0.089287,-0.010305,-0.135160,0.099721,0.240840,-0.312291,0.826270,-0.360000,0.249485,0.004737,0.108203,0.076397,0.025318,0.186654,0.085351,-0.002865,0.146176,-0.163042,0.219865,-0.137097,0.417689,1.017317,0.360182,-0.387585,0.613531,-3.211202,-0.850454,-0.321448,3.056837,-5.009191,4.344606,-2.560099,-1.160969
1380,68,1.380000,1,Forward,1.000000,0.000000,0.000000,0.097068,0.673959,-0.134394,0.025011,0.005867,-0.999670,1.000000,0.000000,0.000000,0.023203,0.117719,0.065696,0.036993,0.105117,0.048499,-0.003018,0.203895,-0.237413,0.329986,-0.192162,0.359929,0.817788,0.511575,-0.562052,0.527176,-4.176917,-2.265208,0.173035,2.574240,-3.000202,6.050806,-2.923254,-3.194436,0.277335,1.086243,0.802909,0.357147,-0.041219,-0.540639,0.398885,0.963360,-1.249165,3.305081,-2.339885,0.997941,-0.290146,0.050534,-0.007826,0.108172,-0.800974,1.196523,-0.984688,1.570349,-0.639969,1.009089,-0.449443,0.302028,-0.072537,0.012633,-0.001956,0.027043,-0.200243,0.299131,-0.246172,0.392587,-0.159992,0.252272,-0.112361,0.075507,-0.072537,0.012633,-0.001956,0.027043,-0.200243,0.299131,-0.246172,0.392587,-0.159992,0.252272,-0.112361,0.075507,0.023203,0.117719,0.065696,0.036993,0.105117,0.048499,-0.003018,0.203895,-0.237413,0.329986,-0.192162,0.359929,0.817788,0.511575,-0.562052,0.527176,-4.176917,-2.265208,0.173035,2.574240,-3.000202,6.050805,-2.923254,-3.194436
1400,69,1.400000,1,Forward,1.000000,0.000000,0.000000,0.044634,0.432148,-0.077625,0.034562,0.004838,-0.999391,1.000000,0.000000,0.000000,0.014539,0.113423,0.054326,0.044312,-0.000865,0.080564,-0.052281,0.267762,-0.234157,0.340858,-0.183906,0.256545,-1.016642,-0.603120,-0.632179,0.168020,-5.486087,3.095024,-3.410155,3.272742,1.175005,-1.245875,1.429423,-5.368968,-0.290146,0.050534,-0.007826,0.108172,-0.800974,1.196523,-0.984688,1.570349,-0.639969,1.009089,-0.449443,0.302028,-0.120643,0.176389,-0.390426,-0.063334,-0.331685,1.282411,-0.848587,1.169800,0.032208,-0.209275,0.284100,-0.080657,-0.030161,0.044097,-0.097606,-0.015834,-0.082921,0.320603,-0.212147,0.292450,0.008052,-0.052319,0.071025,-0.020164,-0.030161,0.044097,-0.097606,-0.015834,-0.082921,0.320603,-0.212147,0.292450,0.008052,-0.052319,0.071025,-0.020164,0.014539,0.113423,0.054326,0.044312,-0.000865,0.080564,-0.052281,0.267762,-0.234157,0.340858,-0.183906,0.256545,-1.016642,-0.603120,-0.632179,0.168020,-5.486087,3.095024,-3.410155,3.272741,1.175005,-1.245875,1.429423,-5.368968
1420,70,1.420000,1,Forward,1.000000,0.000000,0.000000,-0.012161,0.298776,-0.012783,0.040752,0.005010,-0.999157,1.000000,0.000000,0.000000,-0.007057,0.094923,0.021144,0.033813,-0.077718,0.169447,-0.127055,0.305949,-0.158514,0.217493,-0.105074,0.143270,-1.056506,-1.123826,-2.216436,-0.840530,-2.873666,4.636295,-3.496685,1.222120,4.323220,-7.175253,4.510125,-5.289251,-0.120643,0.176389,-0.390426,-0.063334,-0.331685,1.282411,-0.848587,1.169800,0.032208,-0.209275,0.284100,-0.080657,-0.129114,0.392814,-0.098148,-0.210630,0.346856,0.734374,-0.896342,0.414333,0.609412,-0.683259,0.676894,-0.333628,-0.032279,0.098204,-0.024537,-0.052658,0.086714,0.183593,-0.224085,0.103583,0.152353,-0.170815,0.169223,-0.083407,-0.032279,0.098204,-0.024537,-0.052658,0.086714,0.183593,-0.224085,0.103583,0.152353,-0.170815,0.169223,-0.083407,-0.007057,0.094923,0.021144,0.033813,-0.077718,0.169447,-0.127055,0.305949,-0.158514,0.217493,-0.105074,0.143270,-1.056506,-1.123826,-2.216436,-0.840530,-2.873666,4.636295,-3.496685,1.222120,4.323220,-7.175254,4.510125,-5.289252
1440,71,1.440000,1,Forward,1.000000,0.000000,0.000000,-0.116671,0.279070,-0.003682,0.046352,0.007087,-0.998900,1.000000,0.000000,0.000000,-0.027614,0.078286,-0.012456,0.003598,-0.077582,0.226686,-0.187154,0.278022,-0.044220,0.062162,0.002480,0.046633,-0.942666,-0.632523,-1.394315,-1.713711,1.299863,1.806840,-2.561529,-2.458400,5.727604,-7.318103,5.194792,-4.324698,-0.129114,0.392814,-0.098148,-0.210630,0.346856,0.734374,-0.896342,0.414333,0.609412,-0.683259,0.676894,-0.333628,-0.306816,-0.010310,0.008937,-0.346576,-0.525833,0.367581,-0.562573,0.645649,1.193242,-0.873681,1.102069,-0.597749,-0.076704,-0.002577,0.002234,-0.086644,-0.131458,0.091895,-0.140643,0.161412,0.298310,-0.218420,0.275517,-0.149437,-0.076704,-0.002577,0.002234,-0.086644,-0.131458,0.091895,-0.140643,0.161412,0.298310,-0.218420,0.275517,-0.149437,-0.027614,0.078286,-0.012456,0.003598,-0.077582,0.226686,-0.187154,0.278022,-0.044220,0.062162,0.002480,0.046633,-0.942666,-0.632523,-1.394315,-1.713711,1.299863,1.806840,-2.561529,-2.458400,5.727604,-7.318103,5.194792,-4.324699
1460,72,1.460000,1,Forward,1.000000,0.000000,0.000000,-0.197210,0.385979,0.016374,0.053787,0.010909,-0.998493,1.000000,0.000000,0.000000,-0.041602,0.049314,-0.027021,-0.035505,-0.081436,0.215016,-0.206946,0.230227,0.089682,-0.063316,0.113397,-0.039215,-0.586888,-1.634338,-0.402901,-1.920542,-0.807399,-1.595787,-0.193510,-2.275226,6.353209,-5.446820,5.210062,-3.923431,-0.306816,-0.010310,0.008937,-0.346576,-0.525833,0.367581,-0.562573,0.645649,1.193242,-0.873681,1.102069,-0.597749,-0.476488,0.021558,0.017133,-0.596222,-0.662156,0.059804,-0.367213,0.600716,1.615651,-1.223232,1.635477,-1.048576,-0.119122,0.005389,0.004283,-0.149055,-0.165539,0.014951,-0.091803,0.150179,0.403913,-0.305808,0.408869,-0.262144,-0.119122,0.005389,0.004283,-0.149055,-0.165539,0.014951,-0.091803,0.150179,0.403913,-0.305808,0.408869,-0.262144,-0.041602,0.049314,-0.027021,-0.035505,-0.081436,0.215016,-0.206946,0.230227,0.089682,-0.063316,0.113397,-0.039215,-0.586888,-1.634338,-0.402901,-1.920542,-0.807399,-1.595787,-0.193510,-2.275226,6.353209,-5.446820,5.210062,-3.923431
1480,73,1.480000,1,Forward,1.000000,0.000000,0.000000,0.888972,-0.127980,0.014649,0.053104,-0.003395,-0.998583,1.000000,0.000000,0.000000,-0.063026,0.029056,-0.026227,-0.061762,-0.030521,0.155887,-0.187401,0.192379,0.099447,-0.166259,0.230840,-0.124718,-1.413258,-0.702415,0.301547,-0.826243,3.479287,-3.402942,1.521430,-1.610121,-0.927842,-4.642519,5.598801,-3.951793,-0.476488,0.021558,0.017133,-0.596222,-0.662156,0.059804,-0.367213,0.600716,1.615651,-1.223232,1.635477,-1.048576,-0.476768,0.013754,-0.176591,-1.271372,-0.620074,-0.065999,-0.071968,0.547192,2.362211,-1.339764,1.980521,-1.791428,-0.119192,0.003439,-0.044148,-0.317843,-0.155019,-0.016500,-0.017992,0.136798,0.590553,-0.334941,0.495130,-0.360000,-0.119192,0.003439,-0.044148,-0.317843,-0.155019,-0.016500,-0.017992,0.136798,0.590553,-0.334941,0.495130,-0.360000,-0.063026,0.029056,-0.026227,-0.061762,-0.030521,0.155887,-0.187401,0.192379,0.099447,-0.166259,0.230840,-0.124718,-1.413258,-0.702415,0.301547,-0.826243,3.479287,-3.402942,1.521430,-1.610121,-0.927842,-4.642519,5.598801,-3.951793
1500,74,1.500000,1,Forward,1.000000,0.000000,0.000000,0.519444,-0.277567,-0.109479,0.047397,-0.015855,-0.998750,1.000000,0.000000,0.000000,-0.078795,0.021500,-0.013807,-0.056308,0.036107,0.078587,-0.126497,0.135003,0.084990,-0.243995,0.340679,-0.129891,-0.428760,-0.157993,0.739498,0.383843,3.078172,-3.875682,3.577698,-3.217230,-0.345536,-3.318257,5.010831,0.863599,-0.476768,0.013754,-0.176591,-1.271372,-0.620074,-0.065999,-0.071968,0.547192,2.362211,-1.339764,1.980521,-1.791428,-1.039933,-0.002868,-0.401450,-1.866191,-0.934122,-0.062765,0.194112,0.580576,2.814110,-1.352153,1.995330,-2.415652,-0.259983,-0.000717,-0.100362,-0.466548,-0.233531,-0.015691,0.048528,0.145144,0.703528,-0.338038,0.498832,-0.360000,-0.259983,-0.000717,-0.100362,-0.466548,-0.233531,-0.015691,0.048528,0.145144,0.703528,-0.338038,0.498832,-0.360000,-0.078795,0.021500,-0.013807,-0.056308,0.036107,0.078587,-0.126497,0.135003,0.084990,-0.243995,0.340679,-0.129891,-0.428760,-0.157993,0.739498,0.383843,3.078172,-3.875682,3.577698,-3.217230,-0.345536,-3.318257,5.010831,0.863599
1520,75,1.520000,1,Forward,1.000000,0.000000,0.000000,-0.045959,-0.132386,-0.139122,0.044394,-0.016113,-0.998884,1.000000,0.000000,0.000000,-0.079505,0.025111,-0.011188,-0.054434,0.080688,0.010103,-0.040610,0.082892,0.101193,-0.291939,0.415967,-0.127365,0.181581,0.307941,-0.102803,-0.096481,1.753670,-3.017920,4.312165,-2.182938,1.473777,-1.888170,3.049177,-0.508607,-1.039933,-0.002868,-0.401450,-1.866191,-0.934122,-0.062765,0.194112,0.580576,2.814110,-1.352153,1.995330,-2.415652,-1.260517,-0.335502,-0.340037,-1.433259,-1.581589,-0.295261,0.669153,0.846365,2.954723,-1.194402,1.633309,-2.538553,-0.315129,-0.083875,-0.085009,-0.358315,-0.395397,-0.073815,0.167288,0.211591,0.738681,-0.298601,0.408327,-0.360000,-0.315129,-0.083875,-0.085009,-0.358315,-0.395397,-0.073815,0.167288,0.211591,0.738681,-0.298601,0.408327,-0.360000,-0.079505,0.025111,-0.011188,-0.054434,0.080688,0.010103,-0.040610,0.082892,0.101193,-0.291939,0.415967,-0.127365,0.181581,0.307941,-0.102803,-0.096481,1.753670,-3.017920,4.312165,-2.182938,1.473777,-1.888170,3.049177,-0.508607
1540,76,1.540000,1,Forward,1.000000,0.000000,0.000000,0.015837,0.051699,-0.081269,0.044947,-0.015772,-0.998865,1.000000,0.000000,0.000000,-0.076744,0.018988,-0.019436,-0.054478,0.095034,-0.050492,0.056548,0.058428,0.155887,-0.303513,0.431363,-0.164832,0.087362,-0.549445,-0.476516,0.052318,0.168271,-2.800992,4.746459,-0.716632,3.420241,-0.121797,-0.027317,-2.613976,-1.260517,-0.335502,-0.340037,-1.433259,-1.581589,-0.295261,0.669153,0.846365,2.954723,-1.194402,1.633309,-2.538553,-1.021451,-0.437357,-0.207404,-0.960010,-1.579717,-0.660380,1.063559,0.844603,2.985547,-0.911680,1.165191,-2.650056,-0.255363,-0.109339,-0.051851,-0.240003,-0.394929,-0.165095,0.265890,0.211151,0.746387,-0.227920,0.291298,-0.360000,-0.255363,-0.109339,-0.051851,-0.240003,-0.394929,-0.165095,0.265890,0.211151,0.746387,-0.227920,0.291298,-0.360000,-0.076744,0.018988,-0.019436,-0.054478,0.095034,-0.050492,0.056548,0.058428,0.155887,-0.303513,0.431363,-0.164832,0.087362,-0.549445,-0.476516,0.052318,0.168271,-2.800992,4.746460,-0.716632,3.420241,-0.121797,-0.027317,-2.613976
1560,77,1.560000,1,Forward,1.000000,0.000000,0.000000,0.331249,0.216567,-0.049862,0.048882,-0.021481,-0.998574,1.000000,0.000000,0.000000,-0.077339,-0.001542,-0.024583,-0.049598,0.082315,-0.112664,0.154967,0.060137,0.244372,-0.279586,0.389070,-0.239530,-0.125240,-1.167428,-0.120960,0.347944,-1.060679,-2.997952,4.660339,0.475206,4.967834,1.498750,-2.605929,-4.287519,-1.021451,-0.437357,-0.207404,-0.960010,-1.579717,-0.660380,1.063559,0.844603,2.985547,-0.911680,1.165191,-2.650056,-0.117934,0.032209,0.196142,0.044267,0.223129,-1.248935,1.256714,-0.322674,0.875932,-0.371729,0.630414,-0.790112,-0.029484,0.008052,0.049035,0.011067,0.055782,-0.312234,0.314179,-0.080668,0.218983,-0.092932,0.157604,-0.197528,-0.029484,0.008052,0.049035,0.011067,0.055782,-0.312234,0.314179,-0.080668,0.218983,-0.092932,0.157604,-0.197528,-0.077339,-0.001542,-0.024583,-0.049598,0.082315,-0.112664,0.154967,0.060137,0.244372,-0.279586,0.389070,-0.239530,-0.125240,-1.167428,-0.120960,0.347944,-1.060679,-2.997952,4.660339,0.475206,4.967834,1.498750,-2.605929,-4.287519
1580,78,1.580000,1,Forward,1.000000,0.000000,0.000000,0.504515,0.243674,-0.029375,0.053737,-0.031212,-0.998067,1.000000,0.000000,0.000000,-0.073912,-0.013206,-0.011608,-0.038941,0.087008,-0.185653,0.236210,0.031902,0.280515,-0.215461,0.306095,-0.254476,0.313571,-0.235348,0.986304,0.644190,0.558890,-3.702302,3.570470,-2.098213,0.561165,3.476448,-4.303614,0.452187,-0.117934,0.032209,0.196142,0.044267,0.223129,-1.248935,1.256714,-0.322674,0.875932,-0.371729,0.630414,-0.790112,0.226614,0.265984,-0.085698,-0.046236,0.908051,-0.738384,0.493574,-0.614269,0.130588,0.141748,0.120072,0.248102,0.056653,0.066496,-0.021424,-0.011559,0.227013,-0.184596,0.123394,-0.153567,0.032647,0.035437,0.030018,0.062026,0.056653,0.066496,-0.021424,-0.011559,0.227013,-0.184596,0.123394,-0.153567,0.032647,0.035437,0.030018,0.062026,-0.073912,-0.013206,-0.011608,-0.038941,0.087008,-0.185653,0.236210,0.031902,0.280515,-0.215461,0.306095,-0.254476,0.313571,-0.235348,0.986304,0.644190,0.558890,-3.702302,3.570470,-2.098213,0.561165,3.476448,-4.303614,0.452187
1600,79,1.600000,1,Forward,1.000000,0.000000,0.000000,0.537132,0.206364,-0.044325,0.057969,-0.042002,-0.997434,1.000000,0.000000,0.000000,-0.053803,0.001073,-0.000316,-0.029008,0.134138,-0.223516,0.251938,-0.040430,0.219331,-0.123139,0.200676,-0.162984,1.483662,1.111796,0.347650,0.493917,2.745070,-1.005062,-0.482238,-3.789116,-4.129048,4.622935,-5.159893,5.632194,0.226614,0.265984,-0.085698,-0.046236,0.908051,-0.738384,0.493574,-0.614269,0.130588,0.141748,0.120072,0.248102,-0.087914,0.276272,-0.025664,-0.224349,0.959741,-0.634632,0.561415,-0.280773,-0.050933,0.444677,-0.280798,0.872515,-0.021979,0.069068,-0.006416,-0.056087,0.239935,-0.158658,0.140354,-0.070193,-0.012733,0.111169,-0.070199,0.218129,-0.021979,0.069068,-0.006416,-0.056087,0.239935,-0.158658,0.140354,-0.070193,-0.012733,0.111169,-0.070199,0.218129,-0.053803,0.001073,-0.000316,-0.029008,0.134138,-0.223516,0.251938,-0.040430,0.219331,-0.123139,0.200676,-0.162984,1.483662,1.111796,0.347650,0.493917,2.745070,-1.005062,-0.482238,-3.789116,-4.129048,4.622935,-5.159893,5.632194
1620,80,1.620000,1,Forward,1.000000,0.000000,0.000000,0.531476,0.251413,-0.063525,0.062853,-0.052537,-0.996639,1.000000,0.000000,0.000000,-0.030684,0.028514,0.003148,-0.027279,0.186712,-0.222270,0.226624,-0.090989,0.125481,-0.026532,0.089778,-0.018550,0.985906,1.413801,0.069297,-0.085337,2.392927,0.548312,-1.503004,-1.711580,-4.451027,4.502545,-5.130453,7.133591,-0.087914,0.276272,-0.025664,-0.224349,0.959741,-0.634632,0.561415,-0.280773,-0.050933,0.444677,-0.280798,0.872515,-0.163532,0.358507,0.227425,-0.155447,1.056129,-0.635133,0.639196,-0.090475,-0.214112,0.637302,-0.853753,1.267388,-0.040883,0.089627,0.056856,-0.038862,0.264032,-0.158783,0.159799,-0.022619,-0.053528,0.159325,-0.213438,0.316847,-0.040883,0.089627,0.056856,-0.038862,0.264032,-0.158783,0.159799,-0.022619,-0.053528,0.159325,-0.213438,0.316847,-0.030684,0.028514,0.003148,-0.027279,0.186712,-0.222270,0.226624,-0.090989,0.125481,-0.026532,0.089778,-0.018550,0.985906,1.413801,0.069297,-0.085337,2.392927,0.548312,-1.503004,-1.711580,-4.451027,4.502545,-5.130453,7.133591
1640,81,1.640000,1,Forward,1.000000,0.000000,0.000000,0.033022,0.079344,-0.091475,0.065425,-0.055303,-0.996324,1.000000,0.000000,0.000000,-0.020649,0.053215,0.009724,-0.031073,0.229720,-0.202122,0.191144,-0.095138,0.045145,0.056344,0.015068,0.122578,0.265785,0.950462,0.488384,-0.350019,1.921856,1.259867,-2.853884,0.507411,-3.492599,3.672161,-0.777410,6.427403,-0.163532,0.358507,0.227425,-0.155447,1.056129,-0.635133,0.639196,-0.090475,-0.214112,0.637302,-0.853753,1.267388,-0.147861,0.573264,0.389232,0.098620,1.407839,-0.597013,0.785533,-0.024915,-0.551016,0.984192,-1.853769,1.617331,-0.036965,0.143316,0.097308,0.024655,0.351960,-0.149253,0.196383,-0.006229,-0.137754,0.246048,-0.360000,0.404333,-0.036965,0.143316,0.097308,0.024655,0.351960,-0.149253,0.196383,-0.006229,-0.137754,0.246048,-0.360000,0.404333,-0.020649,0.053215,0.009724,-0.031073,0.229720,-0.202122,0.191144,-0.095138,0.045145,0.056344,0.015068,0.122578,0.265785,0.950462,0.488384,-0.350019,1.921856,1.259867,-2.853884,0.507411,-3.492599,3.672161,-0.777410,6.427404
1660,82,1.660000,1,Forward,1.000000,0.000000,0.000000,-1.378379,-0.879992,-0.089813,0.050611,-0.031332,-0.998227,1.000000,0.000000,0.000000,-0.024524,0.067539,0.034138,-0.028235,0.277043,-0.171879,0.122776,-0.070250,-0.030092,0.134467,0.012576,0.243765,-0.370442,0.406816,1.602144,0.389095,2.372483,1.539010,-3.509519,1.529642,-3.494744,3.645888,-0.357273,5.439202,-0.147861,0.573264,0.389232,0.098620,1.407839,-0.597013,0.785533,-0.024915,-0.551016,0.984192,-1.853769,1.617331,0.121772,0.876963,0.238437,0.131657,1.053372,-0.608026,0.546525,0.259585,-0.786678,1.716481,-1.488552,1.650748,0.030443,0.219241,0.059609,0.032914,0.263343,-0.152007,0.136631,0.064896,-0.196670,0.429120,-0.360000,0.412687,0.030443,0.219241,0.059609,0.032914,0.263343,-0.152007,0.136631,0.064896,-0.196670,0.429120,-0.360000,0.412687,-0.024524,0.067539,0.034138,-0.028235,0.277043,-0.171879,0.122776,-0.070250,-0.030092,0.134467,0.012576,0.243765,-0.370442,0.406816,1.602144,0.389095,2.372483,1.539010,-3.509519,1.529642,-3.494744,3.645888,-0.357273,5.439202
1680,83,1.680000,1,Forward,1.000000,0.000000,0.000000,-0.942748,-0.839877,0.020343,0.031809,-0.008394,-0.999459,1.000000,0.000000,0.000000,-0.023855,0.067562,0.055220,-0.013225,0.290517,-0.114069,0.056503,-0.018369,-0.098377,0.156264,0.005240,0.326430,0.083776,-0.256500,0.491403,0.751071,-0.228418,3.919673,-3.102740,3.001585,-3.134193,-1.393417,-0.250083,3.358927,0.121772,0.876963,0.238437,0.131657,1.053372,-0.608026,0.546525,0.259585,-0.786678,1.716481,-1.488552,1.650748,0.323372,1.344335,0.608431,0.135620,1.035670,-0.493279,0.582717,0.575517,-1.328874,2.558089,-1.917936,1.643545,0.080843,0.336084,0.152108,0.033905,0.258918,-0.123320,0.145679,0.143879,-0.332218,0.639522,-0.360000,0.410886,0.080843,0.336084,0.152108,0.033905,0.258918,-0.123320,0.145679,0.143879,-0.332218,0.639522,-0.360000,0.410886,-0.023855,0.067562,0.055220,-0.013225,0.290517,-0.114069,0.056503,-0.018369,-0.098377,0.156264,0.005240,0.326430,0.083776,-0.256500,0.491403,0.751071,-0.228418,3.919673,-3.102740,3.001585,-3.134193,-1.393417,-0.250083,3.358927
1700,84,1.700000,1,Forward,1.000000,0.000000,0.000000,0.096294,-0.109543,0.127957,0.027805,-0.007976,-0.999582,1.000000,0.000000,0.000000,-0.012426,0.069913,0.051880,-0.003453,0.270239,-0.052936,0.006068,0.057093,-0.184980,0.138641,-0.002250,0.370688,0.755320,0.362227,-0.512763,0.316364,-1.303569,2.389035,-2.166210,3.845113,-4.369581,-0.179197,-0.558998,1.662643,0.323372,1.344335,0.608431,0.135620,1.035670,-0.493279,0.582717,0.575517,-1.328874,2.558089,-1.917936,1.643545,0.269394,1.517970,1.104879,0.361457,0.693545,-0.466664,1.092649,0.788236,-1.626557,3.123571,-2.802710,1.549392,0.067348,0.379492,0.276220,0.090364,0.173386,-0.116666,0.273162,0.197059,-0.406639,0.780893,-0.360000,0.387348,0.067348,0.379492,0.276220,0.090364,0.173386,-0.116666,0.273162,0.197059,-0.406639,0.780893,-0.360000,0.387348,-0.012426,0.069913,0.051880,-0.003453,0.270239,-0.052936,0.006068,0.057093,-0.184980,0.138641,-0.002250,0.370688,0.755320,0.362227,-0.512763,0.316364,-1.303569,2.389034,-2.166210,3.845113,-4.369581,-0.179197,-0.558998,1.662643
1720,85,1.720000,1,Forward,1.000000,0.000000,0.000000,0.305059,0.206794,0.067909,0.031342,-0.014060,-0.999410,1.000000,0.000000,0.000000,0.002113,0.078562,0.040055,0.006632,0.227527,-0.028436,-0.018271,0.136187,-0.275577,0.168850,-0.036452,0.383298,0.669393,0.444762,-0.585818,0.545304,-2.372571,0.630931,-0.748392,3.719733,-4.210692,2.420710,-2.332169,0.255632,0.269394,1.517970,1.104879,0.361457,0.693545,-0.466664,1.092649,0.788236,-1.626557,3.123571,-2.802710,1.549392,0.165768,1.330138,1.111325,0.478104,0.201028,-0.758123,1.475570,0.933468,-1.723285,2.989642,-2.684923,1.196354,0.041442,0.332534,0.277831,0.119526,0.050257,-0.189531,0.368893,0.233367,-0.430821,0.747410,-0.360000,0.299089,0.041442,0.332534,0.277831,0.119526,0.050257,-0.189531,0.368893,0.233367,-0.430821,0.747410,-0.360000,0.299089,0.002113,0.078562,0.040055,0.006632,0.227527,-0.028436,-0.018271,0.136187,-0.275577,0.168850,-0.036452,0.383298,0.669393,0.444762,-0.585818,0.545304,-2.372570,0.630931,-0.748392,3.719733,-4.210692,2.420710,-2.332169,0.255632
1740,86,1.740000,1,Forward,1.000000,0.000000,0.000000,0.039743,0.367769,-0.057057,0.038282,-0.015645,-0.999144,1.000000,0.000000,0.000000,0.011201,0.084962,0.031768,0.022502,0.159131,-0.034917,-0.018143,0.204205,-0.346041,0.243433,-0.100430,0.358133,0.315623,0.227360,-0.270766,0.855034,-3.659074,-0.769563,0.403551,3.000456,-3.015226,4.378954,-3.695891,-1.631527,0.165768,1.330138,1.111325,0.478104,0.201028,-0.758123,1.475570,0.933468,-1.723285,2.989642,-2.684923,1.196354,-0.103861,0.556446,0.466461,0.316631,-0.378985,-0.283374,0.545304,1.100058,-1.310908,2.066569,-1.659745,0.703431,-0.025965,0.139112,0.116615,0.079158,-0.094746,-0.070843,0.136326,0.275014,-0.327727,0.516642,-0.360000,0.175858,-0.025965,0.139112,0.116615,0.079158,-0.094746,-0.070843,0.136326,0.275014,-0.327727,0.516642,-0.360000,0.175858,0.011201,0.084962,0.031768,0.022502,0.159131,-0.034917,-0.018143,0.204205,-0.346041,0.243433,-0.100430,0.358133,0.315623,0.227360,-0.270766,0.855034,-3.659074,-0.769563,0.403551,3.000456,-3.015226,4.378954,-3.695891,-1.631527
1760,87,1.760000,1,Forward,1.000000,0.000000,0.000000,-0.295031,0.251137,-0.112501,0.043780,-0.010449,-0.998987,1.000000,0.000000,0.000000,0.006943,0.086115,0.030061,0.038562,0.066243,-0.045562,-0.012561,0.252283,-0.359577,0.326039,-0.173439,0.294508,-0.473787,-0.045475,0.046812,0.715762,-4.779582,-0.373663,0.239999,1.975775,0.133649,3.945205,-3.649999,-3.413453,-0.103861,0.556446,0.466461,0.316631,-0.378985,-0.283374,0.545304,1.100058,-1.310908,2.066569,-1.659745,0.703431,-0.224939,0.021226,-0.493342,-0.170242,-0.891426,1.028987,-1.368664,1.580745,-0.517169,0.086128,0.180421,0.258601,-0.056235,0.005306,-0.123336,-0.042560,-0.222857,0.257247,-0.342166,0.395186,-0.129292,0.021532,0.045105,0.064650,-0.056235,0.005306,-0.123336,-0.042560,-0.222857,0.257247,-0.342166,0.395186,-0.129292,0.021532,0.045105,0.064650,0.006943,0.086115,0.030061,0.038562,0.066243,-0.045562,-0.012561,0.252283,-0.359577,0.326039,-0.173439,0.294508,-0.473787,-0.045475,0.046812,0.715763,-4.779582,-0.373663,0.239999,1.975775,0.133649,3.945205,-3.649999,-3.413453
1780,88,1.780000,1,Forward,1.000000,0.000000,0.000000,-0.311507,0.099756,-0.030241,0.046140,-0.003962,-0.998927,1.000000,0.000000,0.000000,-0.008418,0.079342,0.012986,0.033683,-0.044699,0.024358,-0.082034,0.299595,-0.291527,0.262131,-0.130322,0.206216,-0.944615,-0.564715,-1.309386,-0.736298,-5.532821,4.783199,-4.775455,2.417655,4.175408,-5.200387,3.834460,-4.367891,-0.224939,0.021226,-0.493342,-0.170242,-0.891426,1.028987,-1.368664,1.580745,-0.517169,0.086128,0.180421,0.258601,-0.034646,0.307459,-0.272277,-0.081023,0.003283,0.719198,-1.037451,0.928992,0.071085,-0.655818,0.617810,0.022021,-0.008662,0.076865,-0.068069,-0.020256,0.000821,0.179800,-0.259363,0.232248,0.017771,-0.163955,0.154453,0.005505,-0.008662,0.076865,-0.068069,-0.020256,0.000821,0.179800,-0.259363,0.232248,0.017771,-0.163955,0.154453,0.005505,-0.008418,0.079342,0.012986,0.033683,-0.044699,0.024358,-0.082034,0.299595,-0.291527,0.262131,-0.130322,0.206216,-0.944615,-0.564715,-1.309387,-0.736298,-5.532821,4.783199,-4.775455,2.417655,4.175408,-5.200387,3.834460,-4.367891
1800,89,1.800000,1,Forward,1.000000,0.000000,0.000000,-0.413156,0.049129,-0.013251,0.047220,0.003945,-0.998877,1.000000,0.000000,0.000000,-0.022169,0.070988,-0.017910,0.012626,-0.095141,0.113698,-0.171493,0.311245,-0.177647,0.106466,-0.024506,0.121811,-0.523901,-0.371298,-1.627838,-1.146507,-1.050748,3.933862,-4.035126,-0.239368,5.718998,-7.930684,5.296434,-3.835359,-0.034646,0.307459,-0.272277,-0.081023,0.003283,0.719198,-1.037451,0.928992,0.071085,-0.655818,0.617810,0.022021,-0.415590,0.131254,0.028465,-0.144794,-0.068127,0.124971,-0.816275,0.481086,0.515147,-1.121498,0.877069,-0.347403,-0.103897,0.032813,0.007116,-0.036199,-0.017032,0.031243,-0.204069,0.120272,0.128787,-0.280374,0.219267,-0.086851,-0.103897,0.032813,0.007116,-0.036199,-0.017032,0.031243,-0.204069,0.120272,0.128787,-0.280374,0.219267,-0.086851,-0.022169,0.070988,-0.017910,0.012626,-0.095141,0.113698,-0.171493,0.311245,-0.177647,0.106466,-0.024506,0.121811,-0.523901,-0.371298,-1.627837,-1.146507,-1.050748,3.933862,-4.035126,-0.239368,5.718998,-7.930684,5.296434,-3.835359
1820,90,1.820000,1,Forward,1.000000,0.000000,0.000000,-0.472178,0.050425,0.023465,0.048227,0.013286,-0.998748,1.000000,0.000000,0.000000,-0.046416,0.053124,-0.032830,-0.012887,-0.091254,0.139697,-0.224020,0.271598,-0.053284,-0.052594,0.078399,0.038530,-1.448966,-1.028490,-0.326035,-1.250710,0.747547,-0.009208,-1.809111,-2.658593,5.873903,-7.336833,4.667041,-3.960493,-0.415590,0.131254,0.028465,-0.144794,-0.068127,0.124971,-0.816275,0.481086,0.515147,-1.121498,0.877069,-0.347403,-0.517972,-0.014095,-0.037540,-0.412942,-0.629542,0.132082,-0.326137,0.573753,1.138510,-1.154518,1.211249,-0.713021,-0.129493,-0.003524,-0.009385,-0.103235,-0.157386,0.033021,-0.081534,0.143438,0.284627,-0.288629,0.302812,-0.178255,-0.129493,-0.003524,-0.009385,-0.103235,-0.157386,0.033021,-0.081534,0.143438,0.284627,-0.288629,0.302812,-0.178255,-0.046416,0.053124,-0.032830,-0.012887,-0.091254,0.139697,-0.224020,0.271598,-0.053284,-0.052594,0.078399,0.038530,-1.448966,-1.028490,-0.326035,-1.250710,0.747547,-0.009208,-1.809111,-2.658593,5.873903,-7.336834,4.667041,-3.960493
1840,91,1.840000,1,Forward,1.000000,0.000000,0.000000,-0.485587,0.120653,0.048050,0.049629,0.021099,-0.998545,1.000000,0.000000,0.000000,-0.066645,0.029595,-0.036595,-0.044530,-0.092545,0.113944,-0.215018,0.218523,0.061050,-0.167587,0.170799,-0.050470,-0.763415,-0.989778,-0.098316,-1.483585,1.309356,-1.765953,1.432548,-2.627092,2.796512,-4.732695,4.241785,-4.236775,-0.517972,-0.014095,-0.037540,-0.412942,-0.629542,0.132082,-0.326137,0.573753,1.138510,-1.154518,1.211249,-0.713021,-0.710118,-0.014873,0.060125,-0.689093,-0.820759,-0.192007,-0.160271,0.682499,1.904371,-1.606230,1.694949,-1.035692,-0.177529,-0.003718,0.015031,-0.172273,-0.205190,-0.048002,-0.040068,0.170625,0.476093,-0.401557,0.423737,-0.258923,-0.177529,-0.003718,0.015031,-0.172273,-0.205190,-0.048002,-0.040068,0.170625,0.476093,-0.401557,0.423737,-0.258923,-0.066645,0.029595,-0.036595,-0.044530,-0.092545,0.113944,-0.215018,0.218523,0.061050,-0.167587,0.170799,-0.050470,-0.763415,-0.989778,-0.098316,-1.483585,1.309356,-1.765953,1.432548,-2.627092,2.796512,-4.732695,4.241785,-4.236775
1860,92,1.860000,1,Forward,1.000000,0.000000,0.000000,1.075486,-0.686110,0.099959,0.039360,0.005270,-0.999211,1.000000,0.000000,0.000000,-0.089360,0.020240,-0.026031,-0.059787,-0.029053,0.060098,-0.164876,0.175295,0.056910,-0.263754,0.269496,-0.119544,-1.244777,-0.212398,0.945962,0.077201,3.535571,-3.074365,3.028822,-2.914016,-0.779282,-4.437789,4.757251,-1.093450,-0.710118,-0.014873,0.060125,-0.689093,-0.820759,-0.192007,-0.160271,0.682499,1.904371,-1.606230,1.694949,-1.035692,-0.648891,-0.028423,-0.247505,-1.422450,-0.686882,-0.063917,-0.059134,0.682992,2.319815,-1.553661,2.040806,-1.945062,-0.162223,-0.007106,-0.061876,-0.355613,-0.171721,-0.015979,-0.014783,0.170748,0.579954,-0.388415,0.510201,-0.360000,-0.162223,-0.007106,-0.061876,-0.355613,-0.171721,-0.015979,-0.014783,0.170748,0.579954,-0.388415,0.510201,-0.360000,-0.089360,0.020240,-0.026031,-0.059787,-0.029053,0.060098,-0.164876,0.175295,0.056910,-0.263754,0.269496,-0.119544,-1.244777,-0.212398,0.945963,0.077201,3.535571,-3.074365,3.028822,-2.914017,-0.779282,-4.437790,4.757251,-1.093450
1880,93,1.880000,1,Forward,1.000000,0.000000,0.000000,0.258866,-0.411091,-0.060355,0.030354,-0.002412,-0.999536,1.000000,0.000000,0.000000,-0.099157,0.019782,-0.008276,-0.055456,0.033690,0.003621,-0.089945,0.106878,0.047396,-0.328146,0.367513,-0.099821,-0.104661,0.085908,0.797550,0.073759,2.808487,-2.537692,3.850311,-3.228604,-0.118348,-2.536515,4.544914,1.110115,-0.648891,-0.028423,-0.247505,-1.422450,-0.686882,-0.063917,-0.059134,0.682992,2.319815,-1.553661,2.040806,-1.945062,-1.140551,-0.111046,-0.349849,-1.584599,-1.217925,-0.229001,0.306571,0.689753,2.694416,-1.411093,1.829202,-2.342733,-0.285138,-0.027761,-0.087462,-0.396150,-0.304481,-0.057250,0.076643,0.172438,0.673604,-0.352773,0.457301,-0.360000,-0.285138,-0.027761,-0.087462,-0.396150,-0.304481,-0.057250,0.076643,0.172438,0.673604,-0.352773,0.457301,-0.360000,-0.099157,0.019782,-0.008276,-0.055456,0.033690,0.003621,-0.089945,0.106878,0.047396,-0.328146,0.367513,-0.099821,-0.104661,0.085908,0.797550,0.073759,2.808487,-2.537692,3.850311,-3.228603,-0.118348,-2.536515,4.544914,1.110115
